resources/LUTs/Exigent Films REC709 x33 (monitoring) LUTs/Exposure_-3.CUBE
#Created by: Adobe Photoshop Export Color Lookup Plugin
TITLE "exposure_-3"
#LUT size
LUT_3D_SIZE 33
#data domain
DOMAIN_MIN 0.0 0.0 0.0
DOMAIN_MAX 1.0 1.0 1.0
#LUT data points
0.010345 0.010803 0.010284
0.012726 0.010681 0.010376
0.015106 0.010529 0.010468
0.018402 0.010284 0.010529
0.021820 0.010010 0.010559
0.026825 0.009521 0.010559
0.032471 0.009003 0.010590
0.041107 0.008087 0.010468
0.051788 0.006866 0.010254
0.064087 0.005310 0.009857
0.078247 0.003357 0.009308
0.092804 0.001648 0.008667
0.108063 0.000397 0.007874
0.123566 0.000000 0.007050
0.139954 0.000000 0.006012
0.156281 0.000000 0.004974
0.171356 0.000000 0.004059
0.186432 0.000000 0.003113
0.198486 0.000000 0.002411
0.210297 0.000000 0.001709
0.219452 0.000000 0.000885
0.227936 0.000000 0.000061
0.243011 0.000000 0.000000
0.261353 0.000000 0.000000
0.278534 0.000000 0.000000
0.294647 0.000000 0.000000
0.309631 0.000000 0.000000
0.322876 0.000000 0.000000
0.336273 0.000000 0.000000
0.350037 0.000000 0.000000
0.364380 0.000000 0.000000
0.382721 0.000000 0.000000
0.401093 0.000000 0.000000
0.009674 0.012848 0.010590
0.012329 0.012787 0.010590
0.014709 0.012665 0.010712
0.018097 0.012512 0.010651
0.021545 0.012238 0.010651
0.026764 0.011871 0.010529
0.032440 0.011383 0.010468
0.041412 0.010559 0.010193
0.052307 0.009430 0.009888
0.065033 0.007904 0.009399
0.079651 0.005951 0.008698
0.094482 0.003906 0.008087
0.110382 0.001984 0.007385
0.126251 0.000702 0.006561
0.144012 0.000000 0.005554
0.160400 0.000000 0.004547
0.176605 0.000000 0.003876
0.191681 0.000000 0.002960
0.204742 0.000000 0.002106
0.216644 0.000000 0.001373
0.224304 0.000000 0.000793
0.232452 0.000000 0.000031
0.244629 0.000000 0.000000
0.261505 0.000000 0.000000
0.278687 0.000000 0.000000
0.294830 0.000000 0.000000
0.309845 0.000000 0.000000
0.323120 0.000000 0.000000
0.336456 0.000000 0.000000
0.350037 0.000000 0.000000
0.364410 0.000000 0.000000
0.382721 0.000000 0.000000
0.401062 0.000000 0.000000
0.009033 0.014893 0.010864
0.011658 0.014862 0.010895
0.014313 0.014801 0.010925
0.017700 0.014648 0.010864
0.021271 0.014465 0.010773
0.026489 0.014130 0.010620
0.032379 0.013733 0.010437
0.041412 0.012970 0.010101
0.052643 0.011932 0.009613
0.065552 0.010468 0.009033
0.080566 0.008545 0.008240
0.095886 0.006500 0.007507
0.112091 0.004242 0.006836
0.128571 0.002289 0.006073
0.146698 0.000793 0.005066
0.164459 0.000000 0.004120
0.180725 0.000000 0.003448
0.196899 0.000000 0.002777
0.209991 0.000000 0.001923
0.222900 0.000000 0.001068
0.230652 0.000000 0.000488
0.237305 0.000000 0.000000
0.249115 0.000000 0.000000
0.263123 0.000000 0.000000
0.278870 0.000000 0.000000
0.295013 0.000000 0.000000
0.310028 0.000000 0.000000
0.323303 0.000000 0.000000
0.336670 0.000000 0.000000
0.350220 0.000000 0.000000
0.364410 0.000000 0.000000
0.382751 0.000000 0.000000
0.401062 0.000000 0.000000
0.007904 0.017822 0.010986
0.010681 0.017792 0.010895
0.013306 0.017761 0.010925
0.016907 0.017639 0.010803
0.020447 0.017456 0.010712
0.026031 0.017151 0.010437
0.031952 0.016785 0.010223
0.041504 0.016022 0.009766
0.052917 0.015015 0.009247
0.066437 0.013428 0.008514
0.081940 0.011383 0.007629
0.097687 0.009033 0.006866
0.114471 0.006287 0.006226
0.131317 0.003876 0.005524
0.150269 0.001434 0.004730
0.168396 0.000031 0.003754
0.186127 0.000000 0.003174
0.202393 0.000000 0.002533
0.216705 0.000000 0.001892
0.229645 0.000000 0.001038
0.237793 0.000000 0.000397
0.244476 0.000000 0.000000
0.251282 0.000000 0.000000
0.263885 0.000000 0.000000
0.279053 0.000000 0.000000
0.295227 0.000000 0.000000
0.310242 0.000000 0.000000
0.323547 0.000000 0.000000
0.336853 0.000000 0.000000
0.350250 0.000000 0.000000
0.364441 0.000000 0.000000
0.382721 0.000000 0.000000
0.401062 0.000000 0.000000
0.006714 0.020905 0.011047
0.009491 0.020874 0.010956
0.012268 0.020844 0.010895
0.015869 0.020721 0.010742
0.019592 0.020569 0.010590
0.025177 0.020264 0.010315
0.031464 0.019928 0.009979
0.041046 0.019196 0.009491
0.053040 0.018188 0.008881
0.066772 0.016602 0.008118
0.082947 0.014374 0.007080
0.099152 0.011902 0.006256
0.116425 0.008728 0.005585
0.133820 0.005829 0.004913
0.153198 0.002899 0.004211
0.172180 0.000519 0.003418
0.190277 0.000000 0.002869
0.208038 0.000000 0.002258
0.222443 0.000000 0.001648
0.236603 0.000000 0.001038
0.244751 0.000000 0.000366
0.251740 0.000000 0.000000
0.258575 0.000000 0.000000
0.265472 0.000000 0.000000
0.279236 0.000000 0.000000
0.295441 0.000000 0.000000
0.310486 0.000000 0.000000
0.323792 0.000000 0.000000
0.337097 0.000000 0.000000
0.350403 0.000000 0.000000
0.364441 0.000000 0.000000
0.382751 0.000000 0.000000
0.401031 0.000000 0.000000
0.004913 0.025421 0.011047
0.007660 0.025513 0.010803
0.010437 0.025482 0.010712
0.014008 0.025482 0.010406
0.017761 0.025360 0.010254
0.023926 0.025269 0.009735
0.030243 0.024902 0.009369
0.040436 0.024445 0.008789
0.052521 0.023499 0.008148
0.067200 0.022095 0.007446
0.083801 0.019989 0.006470
0.101074 0.017212 0.005493
0.119202 0.013733 0.004761
0.137268 0.009949 0.004150
0.157684 0.005341 0.003510
0.177155 0.002380 0.002838
0.197021 0.000031 0.002319
0.215149 0.000000 0.001770
0.231232 0.000000 0.001465
0.245483 0.000000 0.000854
0.255432 0.000000 0.000336
0.262390 0.000000 0.000000
0.263733 0.000000 0.000000
0.270081 0.000000 0.000000
0.280182 0.000000 0.000000
0.295715 0.000000 0.000000
0.310791 0.000000 0.000000
0.324127 0.000000 0.000000
0.337341 0.000000 0.000000
0.350494 0.000000 0.000000
0.364471 0.000000 0.000000
0.382721 0.000000 0.000000
0.401031 0.000000 0.000000
0.002899 0.030487 0.011047
0.005615 0.030609 0.010742
0.008392 0.030670 0.010468
0.011932 0.030731 0.010132
0.015625 0.030762 0.009796
0.021820 0.030670 0.009277
0.028870 0.030579 0.008606
0.039062 0.030090 0.008026
0.051849 0.029541 0.007263
0.066650 0.028198 0.006531
0.084442 0.026367 0.005737
0.102142 0.023682 0.004822
0.121552 0.019775 0.003937
0.140503 0.015717 0.003235
0.161804 0.009644 0.002716
0.182343 0.005005 0.002106
0.203064 0.001801 0.001678
0.222931 0.000000 0.001160
0.239471 0.000000 0.000946
0.255463 0.000000 0.000671
0.265533 0.000000 0.000153
0.274414 0.000000 0.000000
0.275757 0.000000 0.000000
0.274292 0.000000 0.000000
0.283813 0.000000 0.000000
0.296692 0.000000 0.000000
0.311096 0.000000 0.000000
0.324463 0.000000 0.000000
0.337708 0.000000 0.000000
0.350708 0.000000 0.000000
0.364502 0.000000 0.000000
0.382751 0.000000 0.000000
0.401001 0.000000 0.000000
0.001373 0.038818 0.010498
0.002991 0.039001 0.010071
0.005737 0.039124 0.009766
0.007874 0.039307 0.009308
0.011566 0.039368 0.008942
0.018280 0.039490 0.008423
0.025330 0.039398 0.007782
0.036804 0.039246 0.006989
0.049561 0.038696 0.006226
0.066132 0.037628 0.005310
0.084320 0.035797 0.004456
0.103790 0.033264 0.003754
0.124146 0.029358 0.002960
0.144501 0.024750 0.002167
0.166992 0.018158 0.001648
0.188507 0.011841 0.001190
0.211029 0.005035 0.001007
0.231781 0.001801 0.000549
0.250824 0.000000 0.000427
0.267242 0.000000 0.000214
0.279968 0.000000 0.000092
0.289001 0.000000 0.000000
0.290527 0.000000 0.000000
0.289062 0.000000 0.000000
0.286652 0.000000 0.000000
0.298462 0.000000 0.000000
0.311554 0.000000 0.000000
0.324921 0.000000 0.000000
0.338043 0.000000 0.000000
0.350861 0.000000 0.000000
0.364563 0.000000 0.000000
0.382751 0.000000 0.000000
0.401001 0.000000 0.000000
0.000244 0.049286 0.009644
0.001099 0.049561 0.009125
0.002686 0.049744 0.008698
0.004211 0.050018 0.008209
0.006134 0.050232 0.007690
0.012970 0.050385 0.007202
0.020844 0.050537 0.006683
0.032288 0.050385 0.005890
0.046692 0.050171 0.005005
0.063263 0.049103 0.004089
0.084106 0.047424 0.002960
0.103973 0.044922 0.002197
0.126801 0.041016 0.001678
0.148102 0.036407 0.000977
0.172302 0.029022 0.000488
0.194977 0.022186 0.000031
0.219086 0.012238 0.000122
0.241608 0.005463 0.000000
0.261963 0.001831 0.000000
0.280975 0.000000 0.000000
0.294434 0.000000 0.000000
0.306396 0.000000 0.000000
0.307892 0.000000 0.000000
0.305664 0.000000 0.000000
0.303253 0.000000 0.000000
0.300018 0.000000 0.000000
0.312042 0.000000 0.000000
0.325470 0.000000 0.000000
0.338593 0.000000 0.000000
0.351074 0.000000 0.000000
0.364594 0.000000 0.000000
0.382751 0.000000 0.000000
0.400970 0.000000 0.000000
0.000000 0.062622 0.008148
0.000031 0.062988 0.007690
0.000885 0.063263 0.007202
0.001526 0.063629 0.006744
0.002838 0.063904 0.006195
0.006500 0.064270 0.005585
0.014496 0.064453 0.005066
0.025177 0.064667 0.004364
0.039581 0.064453 0.003510
0.059753 0.064056 0.002960
0.080597 0.062408 0.001831
0.104034 0.060303 0.001099
0.127655 0.056488 0.000641
0.151733 0.052155 0.000214
0.177246 0.045135 0.000000
0.201782 0.037476 0.000000
0.227844 0.026886 0.000000
0.251923 0.016968 0.000000
0.275208 0.006836 0.000000
0.295502 0.003204 0.000000
0.312592 0.000000 0.000000
0.325317 0.000000 0.000000
0.331268 0.000000 0.000000
0.328979 0.000000 0.000000
0.318176 0.000000 0.000000
0.314941 0.000000 0.000000
0.313477 0.000000 0.000000
0.326111 0.000000 0.000000
0.339081 0.000000 0.000000
0.351410 0.000000 0.000000
0.364655 0.000000 0.000000
0.382782 0.000000 0.000000
0.400940 0.000000 0.000000
0.000000 0.079254 0.005951
0.000000 0.079773 0.005554
0.000000 0.080139 0.005127
0.000031 0.080597 0.004730
0.000580 0.080963 0.004303
0.002808 0.081390 0.003632
0.006805 0.081787 0.002960
0.017151 0.082092 0.002289
0.029419 0.082367 0.001495
0.049591 0.081970 0.000977
0.076355 0.081390 0.000824
0.099792 0.079254 0.000092
0.128448 0.076233 0.000092
0.153290 0.072021 0.000000
0.182404 0.065948 0.000000
0.208252 0.058624 0.000000
0.237244 0.047058 0.000000
0.263275 0.036499 0.000000
0.289246 0.020325 0.000000
0.312653 0.009766 0.000000
0.331757 0.003784 0.000000
0.348572 0.000000 0.000000
0.355896 0.000000 0.000000
0.359161 0.000000 0.000000
0.347198 0.000000 0.000000
0.327942 0.000000 0.000000
0.326508 0.000000 0.000000
0.327759 0.000000 0.000000
0.339905 0.000000 0.000000
0.351654 0.000000 0.000000
0.364716 0.000000 0.000000
0.382782 0.000000 0.000000
0.400909 0.000000 0.000000
0.000000 0.096985 0.003815
0.000000 0.097717 0.003448
0.000000 0.098236 0.003082
0.000000 0.098877 0.002808
0.000000 0.099335 0.002441
0.000427 0.100098 0.002045
0.002991 0.100555 0.001343
0.007721 0.101288 0.000854
0.019653 0.101654 0.000061
0.036469 0.102081 0.000000
0.063232 0.101501 0.000000
0.094818 0.100739 0.000000
0.123474 0.097717 0.000000
0.153778 0.094543 0.000000
0.183929 0.088806 0.000000
0.213470 0.082611 0.000000
0.244293 0.072052 0.000000
0.273285 0.060486 0.000000
0.302155 0.045105 0.000000
0.328247 0.028503 0.000000
0.351898 0.013245 0.000000
0.370728 0.006683 0.000000
0.384094 0.000000 0.000000
0.388733 0.000000 0.000000
0.383575 0.000000 0.000000
0.363159 0.000000 0.000000
0.337463 0.000000 0.000000
0.338715 0.000000 0.000000
0.340942 0.000000 0.000000
0.352234 0.000000 0.000000
0.364807 0.000000 0.000000
0.382812 0.000000 0.000000
0.400879 0.000000 0.000000
0.000000 0.116882 0.001801
0.000000 0.118073 0.001495
0.000000 0.118835 0.001129
0.000000 0.119751 0.001038
0.000000 0.120483 0.000824
0.000000 0.121552 0.000702
0.000427 0.122498 0.000427
0.002380 0.123505 0.000153
0.006683 0.124603 0.000000
0.022675 0.125244 0.000000
0.044159 0.125977 0.000000
0.075745 0.125214 0.000000
0.117004 0.124146 0.000000
0.147308 0.121002 0.000000
0.184235 0.117310 0.000000
0.214844 0.111450 0.000000
0.250732 0.103668 0.000000
0.281555 0.093109 0.000000
0.315063 0.079346 0.000000
0.344269 0.063782 0.000000
0.372650 0.039185 0.000000
0.396881 0.021942 0.000000
0.414185 0.009583 0.000000
0.426788 0.000000 0.000000
0.423798 0.000000 0.000000
0.411957 0.000000 0.000000
0.383453 0.000000 0.000000
0.345612 0.000000 0.000000
0.347839 0.000000 0.000000
0.352814 0.000000 0.000000
0.364899 0.000000 0.000000
0.382812 0.000000 0.000000
0.400818 0.000000 0.000000
0.000000 0.137451 0.000122
0.000000 0.138763 0.000000
0.000000 0.139954 0.000000
0.000000 0.141144 0.000000
0.000000 0.142151 0.000000
0.000000 0.143585 0.000000
0.000000 0.144867 0.000000
0.000031 0.146484 0.000000
0.001556 0.147827 0.000000
0.007996 0.149414 0.000000
0.028656 0.150360 0.000000
0.055847 0.151184 0.000000
0.097107 0.150116 0.000000
0.140839 0.149078 0.000000
0.177734 0.145386 0.000000
0.215149 0.141693 0.000000
0.252106 0.134399 0.000000
0.287994 0.126617 0.000000
0.323395 0.114227 0.000000
0.357239 0.100281 0.000000
0.388977 0.078552 0.000000
0.417938 0.051941 0.000000
0.441528 0.030243 0.000000
0.458099 0.014984 0.000000
0.465912 0.000000 0.000000
0.456238 0.000000 0.000000
0.436157 0.000000 0.000000
0.395538 0.000000 0.000000
0.354004 0.000000 0.000000
0.358948 0.000000 0.000000
0.365204 0.000000 0.000000
0.382874 0.000000 0.000000
0.400787 0.000000 0.000000
0.000000 0.160706 0.000000
0.000000 0.162384 0.000000
0.000000 0.163666 0.000000
0.000000 0.165405 0.000000
0.000000 0.166687 0.000000
0.000000 0.168762 0.000000
0.000000 0.170563 0.000000
0.000000 0.172791 0.000000
0.000031 0.175018 0.000000
0.001099 0.177094 0.000000
0.007050 0.179535 0.000000
0.034027 0.180695 0.000000
0.073853 0.181915 0.000000
0.117554 0.180878 0.000000
0.171082 0.179962 0.000000
0.208466 0.176239 0.000000
0.252411 0.172119 0.000000
0.289368 0.164825 0.000000
0.330109 0.156647 0.000000
0.365875 0.144226 0.000000
0.402985 0.129578 0.000000
0.435516 0.107666 0.000000
0.465912 0.079681 0.000000
0.490234 0.057251 0.000000
0.506805 0.028290 0.000000
0.514618 0.000946 0.000000
0.496552 0.000427 0.000000
0.463867 0.000000 0.000000
0.417969 0.000000 0.000000
0.362030 0.000000 0.000000
0.368286 0.000000 0.000000
0.383026 0.000000 0.000000
0.400696 0.000000 0.000000
0.000000 0.184174 0.000000
0.000000 0.185883 0.000000
0.000000 0.187561 0.000000
0.000000 0.189423 0.000000
0.000000 0.191254 0.000000
0.000000 0.193604 0.000000
0.000000 0.196045 0.000000
0.000000 0.198822 0.000000
0.000000 0.201660 0.000000
0.000000 0.204712 0.000000
0.000214 0.207642 0.000000
0.011169 0.210297 0.000000
0.050781 0.211884 0.000000
0.093994 0.213074 0.000000
0.147522 0.212158 0.000000
0.201660 0.211212 0.000000
0.245605 0.207062 0.000000
0.289520 0.202911 0.000000
0.331360 0.195221 0.000000
0.372437 0.187012 0.000000
0.411438 0.173920 0.000000
0.449371 0.159058 0.000000
0.483337 0.135925 0.000000
0.514435 0.107239 0.000000
0.538910 0.072968 0.000000
0.555481 0.031982 0.000000
0.556305 0.003021 0.000000
0.525604 0.001740 0.000000
0.487640 0.000000 0.000000
0.427338 0.000000 0.000000
0.371185 0.000000 0.000000
0.385895 0.000000 0.000000
0.400635 0.000000 0.000000
0.000000 0.211090 0.000000
0.000000 0.213257 0.000000
0.000000 0.214966 0.000000
0.000000 0.217346 0.000000
0.000000 0.219299 0.000000
0.000000 0.222382 0.000000
0.000000 0.225159 0.000000
0.000000 0.228973 0.000000
0.000000 0.232697 0.000000
0.000000 0.236725 0.000000
0.000000 0.241180 0.000000
0.000031 0.244568 0.000000
0.010590 0.248108 0.000000
0.055481 0.249542 0.000000
0.119904 0.250275 0.000000
0.174042 0.249298 0.000000
0.236755 0.247528 0.000000
0.280670 0.243408 0.000000
0.329987 0.238617 0.000000
0.372192 0.230835 0.000000
0.415863 0.222290 0.000000
0.455475 0.209076 0.000000
0.494537 0.194366 0.000000
0.529083 0.171295 0.000000
0.561310 0.143829 0.000000
0.586792 0.110626 0.000000
0.603485 0.062378 0.000000
0.604523 0.022552 0.000000
0.568329 0.016052 0.000000
0.515198 0.000000 0.000000
0.453186 0.000000 0.000000
0.385864 0.000000 0.000000
0.400604 0.000000 0.000000
0.000000 0.238007 0.000000
0.000000 0.240173 0.000000
0.000000 0.242340 0.000000
0.000000 0.244751 0.000000
0.000000 0.247223 0.000000
0.000000 0.250427 0.000000
0.000000 0.253937 0.000000
0.000000 0.258087 0.000000
0.000000 0.262817 0.000000
0.000000 0.267761 0.000000
0.000000 0.273224 0.000000
0.000000 0.278107 0.000000
0.000000 0.282349 0.000000
0.015289 0.285767 0.000000
0.081390 0.286743 0.000000
0.146423 0.287415 0.000000
0.209137 0.285645 0.000000
0.271851 0.283875 0.000000
0.321136 0.279083 0.000000
0.370819 0.274231 0.000000
0.415619 0.266113 0.000000
0.459900 0.257446 0.000000
0.500671 0.244385 0.000000
0.540314 0.229706 0.000000
0.575958 0.207855 0.000000
0.609192 0.181458 0.000000
0.634796 0.141022 0.000000
0.651672 0.081909 0.000000
0.647217 0.036865 0.000000
0.595917 0.016052 0.000000
0.541077 0.000000 0.000000
0.467865 0.000000 0.000000
0.400543 0.000000 0.000000
0.000000 0.271790 0.000000
0.000000 0.271820 0.000000
0.000000 0.273987 0.000000
0.000000 0.274506 0.000000
0.000000 0.276855 0.000000
0.000000 0.280212 0.000000
0.000000 0.283752 0.000000
0.000000 0.288879 0.000000
0.000000 0.294067 0.000000
0.000000 0.300323 0.000000
0.000000 0.306946 0.000000
0.000000 0.313232 0.000000
0.000000 0.319733 0.000000
0.000946 0.323822 0.000000
0.024231 0.326569 0.000000
0.092133 0.327484 0.000000
0.181244 0.327393 0.000000
0.243958 0.325623 0.000000
0.308960 0.323120 0.000000
0.358612 0.318268 0.000000
0.411133 0.313080 0.000000
0.456604 0.304871 0.000000
0.502411 0.296021 0.000000
0.543884 0.282898 0.000000
0.584106 0.268402 0.000000
0.620361 0.246826 0.000000
0.653503 0.221252 0.000000
0.678955 0.180664 0.000000
0.695343 0.123810 0.000000
0.688202 0.083099 0.000000
0.635712 0.055664 0.000000
0.572937 0.000000 0.000000
0.499756 0.000000 0.000000
0.000000 0.306061 0.000000
0.000000 0.305939 0.000000
0.000000 0.305969 0.000000
0.000000 0.306519 0.000000
0.000000 0.306793 0.000000
0.000000 0.309998 0.000000
0.000000 0.313690 0.000000
0.000000 0.318817 0.000000
0.000000 0.325012 0.000000
0.000000 0.331726 0.000000
0.000000 0.339661 0.000000
0.000000 0.347137 0.000000
0.000000 0.355133 0.000000
0.000946 0.361450 0.000000
0.008667 0.364868 0.000000
0.033752 0.367584 0.000000
0.126923 0.367737 0.000000
0.216034 0.367645 0.000000
0.281036 0.365112 0.000000
0.346191 0.362549 0.000000
0.398712 0.357361 0.000000
0.451935 0.352081 0.000000
0.498901 0.343689 0.000000
0.545441 0.334778 0.000000
0.587524 0.321808 0.000000
0.628265 0.307495 0.000000
0.664398 0.286713 0.000000
0.697357 0.262329 0.000000
0.722290 0.223969 0.000000
0.737274 0.173309 0.000000
0.728973 0.126007 0.000000
0.668823 0.055664 0.000000
0.606049 0.000000 0.000000
0.000000 0.343964 0.000000
0.000000 0.343872 0.000000
0.000000 0.343750 0.000000
0.000000 0.343658 0.000000
0.000000 0.343964 0.000000
0.000000 0.343933 0.000000
0.000000 0.347321 0.000000
0.000000 0.349670 0.000000
0.000000 0.354919 0.000000
0.000000 0.362457 0.000000
0.000000 0.370758 0.000000
0.000000 0.380127 0.000000
0.000000 0.390106 0.000000
0.000000 0.398193 0.000000
0.002502 0.404694 0.000000
0.011749 0.408051 0.000000
0.059265 0.409760 0.000000
0.152435 0.409912 0.000000
0.252563 0.409027 0.000000
0.317749 0.406464 0.000000
0.385529 0.403534 0.000000
0.438751 0.398254 0.000000
0.492706 0.392761 0.000000
0.540283 0.384308 0.000000
0.587189 0.375427 0.000000
0.629669 0.362549 0.000000
0.670258 0.348450 0.000000
0.706177 0.328308 0.000000
0.738434 0.304352 0.000000
0.761566 0.268585 0.000000
0.775787 0.219025 0.000000
0.761871 0.167297 0.000000
0.701721 0.096954 0.000000
0.000000 0.382782 0.000000
0.000000 0.382690 0.000000
0.000000 0.382599 0.000000
0.000000 0.382477 0.000000
0.000000 0.382385 0.000000
0.000000 0.382355 0.000000
0.000000 0.382202 0.000000
0.000000 0.384308 0.000000
0.000000 0.385742 0.000000
0.000000 0.392334 0.000000
0.000000 0.401398 0.000000
0.000000 0.411133 0.000000
0.000000 0.423340 0.000000
0.000000 0.433411 0.000000
0.000000 0.441956 0.000000
0.004028 0.448395 0.000000
0.034943 0.450684 0.000000
0.082428 0.452423 0.000000
0.188110 0.451782 0.000000
0.289154 0.450836 0.000000
0.356934 0.447906 0.000000
0.425385 0.444916 0.000000
0.479340 0.439423 0.000000
0.533691 0.433838 0.000000
0.581604 0.425415 0.000000
0.628815 0.416565 0.000000
0.671143 0.403931 0.000000
0.711487 0.390137 0.000000
0.746704 0.370453 0.000000
0.777039 0.347748 0.000000
0.799408 0.313080 0.000000
0.808655 0.270630 0.000000
0.794769 0.218903 0.000000
0.000000 0.422699 0.000000
0.000000 0.422638 0.000000
0.000000 0.422516 0.000000
0.000000 0.422424 0.000000
0.000000 0.422333 0.000000
0.000000 0.422211 0.000000
0.000000 0.422058 0.000000
0.000000 0.421906 0.000000
0.000000 0.423248 0.000000
0.000000 0.423981 0.000000
0.000000 0.431213 0.000000
0.000000 0.440826 0.000000
0.000000 0.452515 0.000000
0.000000 0.465759 0.000000
0.000000 0.478424 0.000000
0.000000 0.486908 0.000000
0.011749 0.492157 0.000000
0.042664 0.494476 0.000000
0.111481 0.495117 0.000000
0.218048 0.494415 0.000000
0.327545 0.492828 0.000000
0.395996 0.489807 0.000000
0.464905 0.486450 0.000000
0.519226 0.480835 0.000000
0.573975 0.475159 0.000000
0.622223 0.466736 0.000000
0.669128 0.458008 0.000000
0.711121 0.445618 0.000000
0.750916 0.432037 0.000000
0.784424 0.413147 0.000000
0.814026 0.390778 0.000000
0.831604 0.360168 0.000000
0.840820 0.317719 0.000000
0.000000 0.463165 0.000000
0.000000 0.463074 0.000000
0.000000 0.463013 0.000000
0.000000 0.462921 0.000000
0.000000 0.462860 0.000000
0.000000 0.462738 0.000000
0.000000 0.462616 0.000000
0.000000 0.462463 0.000000
0.000000 0.462311 0.000000
0.000000 0.462921 0.000000
0.000000 0.462830 0.000000
0.000000 0.470612 0.000000
0.000000 0.481262 0.000000
0.000000 0.493988 0.000000
0.000000 0.511383 0.000000
0.000000 0.523987 0.000000
0.000000 0.531219 0.000000
0.011749 0.536499 0.000000
0.067505 0.537628 0.000000
0.138123 0.538208 0.000000
0.254303 0.536774 0.000000
0.366211 0.534973 0.000000
0.435120 0.531586 0.000000
0.504242 0.528015 0.000000
0.558990 0.522339 0.000000
0.614075 0.516571 0.000000
0.662018 0.508270 0.000000
0.708466 0.499695 0.000000
0.749878 0.487488 0.000000
0.788177 0.474396 0.000000
0.820953 0.455841 0.000000
0.845825 0.435577 0.000000
0.863403 0.404968 0.000000
0.000000 0.503235 0.000000
0.000000 0.503174 0.000000
0.000000 0.503113 0.000000
0.000000 0.503052 0.000000
0.000000 0.502960 0.000000
0.000000 0.502899 0.000000
0.000000 0.502777 0.000000
0.000000 0.502686 0.000000
0.000000 0.502502 0.000000
0.000000 0.502350 0.000000
0.000000 0.502258 0.000000
0.000000 0.502106 0.000000
0.000000 0.510590 0.000000
0.000000 0.521179 0.000000
0.000000 0.536224 0.000000
0.000000 0.554016 0.000000
0.000000 0.568878 0.000000
0.000000 0.576111 0.000000
0.022430 0.579498 0.000000
0.079956 0.580536 0.000000
0.180634 0.580109 0.000000
0.299225 0.578491 0.000000
0.405762 0.576233 0.000000
0.474884 0.572693 0.000000
0.543091 0.568939 0.000000
0.598175 0.563171 0.000000
0.653198 0.557404 0.000000
0.700775 0.549194 0.000000
0.747131 0.540710 0.000000
0.787506 0.528900 0.000000
0.825348 0.515961 0.000000
0.854279 0.499023 0.000000
0.879150 0.478729 0.000000
0.000000 0.542969 0.000000
0.000000 0.542908 0.000000
0.000000 0.542847 0.000000
0.000000 0.542816 0.000000
0.000000 0.542755 0.000000
0.000000 0.542694 0.000000
0.000000 0.542603 0.000000
0.000000 0.542511 0.000000
0.000000 0.542389 0.000000
0.000000 0.542236 0.000000
0.000000 0.542084 0.000000
0.000000 0.541931 0.000000
0.000000 0.541687 0.000000
0.000000 0.550110 0.000000
0.000000 0.560425 0.000000
0.000000 0.575867 0.000000
0.000000 0.599396 0.000000
0.000000 0.614227 0.000000
0.000000 0.619080 0.000000
0.022461 0.622314 0.000000
0.120300 0.622192 0.000000
0.231049 0.621460 0.000000
0.342804 0.619385 0.000000
0.445892 0.616882 0.000000
0.514099 0.613129 0.000000
0.581512 0.609222 0.000000
0.636536 0.603455 0.000000
0.691467 0.597717 0.000000
0.738953 0.589600 0.000000
0.785034 0.581329 0.000000
0.824951 0.569672 0.000000
0.859985 0.557678 0.000000
0.888916 0.540710 0.000000
0.000000 0.581940 0.006561
0.000000 0.581909 0.006500
0.000000 0.581879 0.006500
0.000000 0.581818 0.006439
0.000000 0.581787 0.006439
0.000000 0.581726 0.006348
0.000000 0.581665 0.006348
0.000000 0.581604 0.006195
0.000000 0.581482 0.006195
0.000000 0.581390 0.005981
0.000000 0.581238 0.005981
0.000000 0.581085 0.005676
0.000000 0.580841 0.005615
0.000000 0.580627 0.005371
0.000000 0.588837 0.005096
0.000000 0.599030 0.004639
0.000000 0.617493 0.002350
0.000000 0.640991 0.002350
0.000000 0.656982 0.000000
0.000000 0.661682 0.000000
0.042603 0.663605 0.000000
0.150543 0.663177 0.000000
0.278168 0.662079 0.000000
0.386505 0.659760 0.000000
