resources/LUTs/Exigent Films REC709 x33 (monitoring) LUTs/Exposure_-3.CUBE
#Created by: Adobe Photoshop Export Color Lookup Plugin
TITLE "exposure_-3"
#LUT size
LUT_3D_SIZE 5
#data domain
DOMAIN_MIN 0.0 0.0 0.0
DOMAIN_MAX 1.0 1.0 1.0
#LUT data points
0.010345 0.010803 0.010284
0.051788 0.006866 0.010254
0.171356 0.000000 0.004059
0.278534 0.000000 0.000000
0.401093 0.000000 0.000000
0.000244 0.049286 0.009644
0.046692 0.050171 0.005005
0.219086 0.012238 0.000122
0.303253 0.000000 0.000000
0.400970 0.000000 0.000000
0.000000 0.211090 0.000000
0.000000 0.232697 0.000000
0.236755 0.247528 0.000000
0.561310 0.143829 0.000000
0.400604 0.000000 0.000000
0.000000 0.503235 0.000000
0.000000 0.502502 0.000000
0.000000 0.568878 0.000000
0.543091 0.568939 0.000000
0.879150 0.478729 0.000000
0.000000 0.792023 0.294128
0.000000 0.791901 0.293701
0.000000 0.791443 0.291748
0.020142 0.896454 0.039612
0.844177 0.881805 0.000000
0.008850 0.007355 0.032471
0.059631 0.002594 0.041046
0.195984 0.000000 0.045868
0.315094 0.000000 0.028168
0.408752 0.000000 0.000000
0.000000 0.049377 0.043091
0.045197 0.045319 0.045227
0.238739 0.004547 0.039429
0.343475 0.000000 0.029083
0.411194 0.000000 0.000000
0.000000 0.219666 0.027069
0.000000 0.238983 0.012726
0.238525 0.249603 0.001556
0.584686 0.136383 0.000000
0.422302 0.000000 0.000000
0.000000 0.509674 0.024780
0.000000 0.509064 0.023712
0.000000 0.572052 0.000000
0.544250 0.569061 0.000000
0.908112 0.475281 0.000000
0.000000 0.792114 0.316345
0.000000 0.791992 0.315979
0.000000 0.791595 0.314392
0.019531 0.896271 0.069427
0.844269 0.881012 0.015137
0.001495 0.000000 0.135681
0.067932 0.000000 0.162781
0.248260 0.000000 0.195221
0.386078 0.000000 0.177307
0.538757 0.000000 0.136658
0.000000 0.022949 0.170685
0.019440 0.007782 0.190979
0.274231 0.000000 0.219269
0.429749 0.000000 0.193024
0.539429 0.000000 0.138550
0.000000 0.224304 0.207550
0.000000 0.237549 0.220825
0.232758 0.233826 0.234070
0.614136 0.083282 0.229065
0.543030 0.000000 0.146515
0.000000 0.515533 0.241180
0.000000 0.514984 0.240784
0.000000 0.570679 0.211426
0.541779 0.561096 0.195984
0.948151 0.457886 0.148956
0.000000 0.791321 0.387634
0.000000 0.791229 0.387421
0.000000 0.790802 0.386383
0.017700 0.894196 0.272217
0.843658 0.877167 0.201935
0.000000 0.000000 0.381927
0.004730 0.000000 0.421997
0.285095 0.000000 0.460144
0.464600 0.000000 0.387177
0.574615 0.000000 0.329926
0.000000 0.000000 0.413330
0.000000 0.000000 0.451996
0.279114 0.000000 0.491882
0.541351 0.000000 0.451599
0.574493 0.000000 0.330200
0.000000 0.189636 0.449860
0.000000 0.181427 0.485168
0.182251 0.137817 0.519562
0.618896 0.016541 0.528168
0.591858 0.000000 0.341644
0.000000 0.502350 0.477814
0.000000 0.501770 0.477692
0.000000 0.547699 0.523010
0.529694 0.530975 0.531464
0.953094 0.412384 0.528473
0.000000 0.782410 0.539276
0.000000 0.782349 0.539185
0.000000 0.781921 0.538788
0.014557 0.882446 0.528320
0.837128 0.859802 0.522125
0.000000 0.000000 0.769257
0.000000 0.000000 0.786560
0.201111 0.000000 0.807556
0.605988 0.000000 0.803955
0.555939 0.000000 0.474335
0.000000 0.001129 0.772217
0.000000 0.000000 0.790466
0.170654 0.000000 0.811859
0.606384 0.000000 0.811737
0.564392 0.000000 0.481781
0.000000 0.126770 0.767456
0.000000 0.107971 0.794495
0.048889 0.061707 0.821289
0.595734 0.010864 0.829590
0.874268 0.000000 0.753326
0.000000 0.479187 0.697876
0.000000 0.484344 0.716492
0.000000 0.505188 0.817596
0.498138 0.481293 0.833252
0.939636 0.342773 0.836914
0.000000 0.759369 0.730743
0.000000 0.759277 0.730713
0.000000 0.758820 0.730560
0.015137 0.849579 0.820312
0.820709 0.821106 0.821320
