resources/LUTs/Exigent Films REC709 x33 (monitoring) LUTs/Exposure_-3.CUBE
#Created by: Adobe Photoshop Export Color Lookup Plugin
TITLE "exposure_-3"
#LUT size
LUT_3D_SIZE 9
#data domain
DOMAIN_MIN 0.0 0.0 0.0
DOMAIN_MAX 1.0 1.0 1.0
#LUT data points
0.010345 0.010803 0.010284
0.021820 0.010010 0.010559
0.051788 0.006866 0.010254
0.108063 0.000397 0.007874
0.171356 0.000000 0.004059
0.219452 0.000000 0.000885
0.278534 0.000000 0.000000
0.336273 0.000000 0.000000
0.401093 0.000000 0.000000
0.006714 0.020905 0.011047
0.019592 0.020569 0.010590
0.053040 0.018188 0.008881
0.116425 0.008728 0.005585
0.190277 0.000000 0.002869
0.244751 0.000000 0.000366
0.279236 0.000000 0.000000
0.337097 0.000000 0.000000
0.401031 0.000000 0.000000
0.000244 0.049286 0.009644
0.006134 0.050232 0.007690
0.046692 0.050171 0.005005
0.126801 0.041016 0.001678
0.219086 0.012238 0.000122
0.294434 0.000000 0.000000
0.303253 0.000000 0.000000
0.338593 0.000000 0.000000
0.400970 0.000000 0.000000
0.000000 0.116882 0.001801
0.000000 0.120483 0.000824
0.006683 0.124603 0.000000
0.117004 0.124146 0.000000
0.250732 0.103668 0.000000
0.372650 0.039185 0.000000
0.423798 0.000000 0.000000
0.347839 0.000000 0.000000
0.400818 0.000000 0.000000
0.000000 0.211090 0.000000
0.000000 0.219299 0.000000
0.000000 0.232697 0.000000
0.010590 0.248108 0.000000
0.236755 0.247528 0.000000
0.415863 0.222290 0.000000
0.561310 0.143829 0.000000
0.568329 0.016052 0.000000
0.400604 0.000000 0.000000
0.000000 0.343964 0.000000
0.000000 0.343964 0.000000
0.000000 0.354919 0.000000
0.000000 0.390106 0.000000
0.059265 0.409760 0.000000
0.385529 0.403534 0.000000
0.587189 0.375427 0.000000
0.738434 0.304352 0.000000
0.701721 0.096954 0.000000
0.000000 0.503235 0.000000
0.000000 0.502960 0.000000
0.000000 0.502502 0.000000
0.000000 0.510590 0.000000
0.000000 0.568878 0.000000
0.180634 0.580109 0.000000
0.543091 0.568939 0.000000
0.747131 0.540710 0.000000
0.879150 0.478729 0.000000
0.000000 0.656952 0.056030
0.000000 0.656860 0.055450
0.000000 0.656708 0.054352
0.000000 0.656311 0.052032
0.000000 0.662445 0.042969
0.000000 0.739899 0.000000
0.372223 0.741730 0.000000
0.696167 0.728271 0.000000
0.898376 0.701111 0.000000
0.000000 0.792023 0.294128
0.000000 0.791962 0.293976
0.000000 0.791901 0.293701
0.000000 0.791748 0.293060
0.000000 0.791443 0.291748
0.000000 0.801300 0.277802
0.020142 0.896454 0.039612
0.539856 0.896088 0.008911
0.844177 0.881805 0.000000
0.010040 0.009949 0.016571
0.022614 0.008698 0.017853
0.054779 0.005096 0.019348
0.113556 0.000153 0.019592
0.180206 0.000000 0.015930
0.230927 0.000000 0.012360
0.291779 0.000000 0.003326
0.350281 0.000000 0.000000
0.401093 0.000000 0.000000
0.005859 0.020477 0.018677
0.019226 0.019684 0.019257
0.054871 0.016266 0.019348
0.121307 0.005554 0.016876
0.198761 0.000000 0.012238
0.256805 0.000000 0.009155
0.292450 0.000000 0.003998
0.351196 0.000000 0.000000
0.401031 0.000000 0.000000
0.000061 0.049622 0.019684
0.003998 0.049896 0.018524
0.046448 0.048950 0.015167
0.130096 0.039001 0.009399
0.226410 0.009705 0.004547
0.306122 0.000000 0.001465
0.317780 0.000000 0.003082
0.352905 0.000000 0.000000
0.400970 0.000000 0.000000
0.000000 0.118225 0.010590
0.000000 0.121552 0.007874
0.005707 0.125305 0.004059
0.117279 0.124878 0.000885
0.254700 0.103973 0.000000
0.381561 0.036560 0.000000
0.438080 0.000000 0.000000
0.363007 0.000000 0.000000
0.400848 0.000000 0.000000
0.000000 0.214417 0.000214
0.000000 0.222382 0.000000
0.000000 0.235382 0.000000
0.010193 0.250305 0.000000
0.237762 0.249146 0.000000
0.420319 0.222900 0.000000
0.570221 0.141357 0.000000
0.584930 0.014221 0.000000
0.400757 0.000000 0.000000
0.000000 0.348328 0.000000
0.000000 0.348358 0.000000
0.000000 0.359131 0.000000
0.000000 0.393127 0.000000
0.056702 0.411499 0.000000
0.386597 0.404846 0.000000
0.591766 0.375916 0.000000
0.747284 0.303070 0.000000
0.713654 0.095093 0.000000
0.000000 0.506042 0.002960
0.000000 0.505829 0.002899
0.000000 0.505402 0.002808
0.000000 0.513428 0.002594
0.000000 0.570404 0.000000
0.173737 0.580780 0.000000
0.543732 0.569183 0.000000
0.751221 0.540649 0.000000
0.890411 0.477570 0.000000
0.000000 0.657806 0.090454
0.000000 0.657715 0.089935
0.000000 0.657532 0.088928
0.000000 0.657166 0.086792
0.000000 0.663300 0.074219
0.000000 0.739990 0.000000
0.370117 0.741669 0.000000
0.696472 0.728180 0.000000
0.901672 0.700745 0.000000
0.000000 0.792145 0.302734
0.000000 0.792114 0.302612
0.000000 0.792023 0.302307
0.000000 0.791901 0.301727
0.000000 0.791595 0.300446
0.000000 0.801453 0.287445
0.019928 0.896423 0.047455
0.538910 0.895966 0.011963
0.844208 0.881531 0.004395
0.008850 0.007355 0.032471
0.023438 0.005676 0.035522
0.059631 0.002594 0.041046
0.123322 0.000000 0.046173
0.195984 0.000000 0.045868
0.252350 0.000000 0.041046
0.315094 0.000000 0.028168
0.377594 0.000000 0.004791
0.408752 0.000000 0.000000
0.004089 0.018311 0.036957
0.017822 0.016571 0.039551
0.057892 0.011261 0.043762
0.130310 0.001526 0.046844
0.213745 0.000000 0.045807
0.278320 0.000000 0.040588
0.315704 0.000000 0.029358
0.378479 0.000000 0.005157
0.409576 0.000000 0.000000
0.000000 0.049377 0.043091
0.002777 0.048645 0.044342
0.045197 0.045319 0.045227
0.135315 0.031158 0.043304
0.238739 0.004547 0.039429
0.326141 0.000000 0.035065
0.343475 0.000000 0.029083
0.380035 0.000000 0.006836
0.411194 0.000000 0.000000
0.000000 0.119934 0.040741
0.000000 0.122650 0.038818
0.003571 0.125214 0.034119
0.116608 0.123108 0.023407
0.260651 0.100616 0.011627
0.395874 0.029724 0.007324
0.462708 0.000000 0.010468
0.390533 0.000000 0.009460
0.414520 0.000000 0.000000
0.000000 0.219666 0.027069
0.000000 0.227173 0.021515
0.000000 0.238983 0.012726
0.009125 0.251648 0.003540
0.238525 0.249603 0.001556
0.426483 0.222839 0.000000
0.584686 0.136383 0.000000
0.612946 0.011780 0.000000
0.422302 0.000000 0.000000
0.000000 0.354279 0.013245
0.000000 0.354431 0.012878
0.000000 0.364899 0.007996
0.000000 0.396942 0.000000
0.052734 0.412720 0.000000
0.387451 0.405334 0.000000
0.598328 0.375793 0.000000
0.761505 0.300690 0.000000
0.746307 0.091461 0.000000
0.000000 0.509674 0.024780
0.000000 0.509430 0.024414
0.000000 0.509064 0.023712
0.000000 0.516998 0.017303
0.000000 0.572052 0.000000
0.167786 0.580963 0.000000
0.544250 0.569061 0.000000
0.757050 0.539948 0.000000
0.908112 0.475281 0.000000
0.000000 0.659088 0.143677
0.000000 0.658997 0.143341
0.000000 0.658813 0.142731
0.000000 0.658478 0.141388
0.000000 0.664673 0.124115
0.000000 0.740143 0.000000
0.366821 0.741364 0.000000
0.696716 0.727722 0.000000
0.906067 0.699921 0.000000
0.000000 0.792114 0.316345
0.000000 0.792084 0.316223
0.000000 0.791992 0.315979
0.000000 0.791870 0.315491
0.000000 0.791595 0.314392
0.000000 0.801514 0.302948
0.019531 0.896271 0.069427
0.537323 0.895721 0.017212
0.844269 0.881012 0.015137
0.006622 0.002106 0.072418
0.022858 0.000885 0.078583
0.066193 0.000000 0.089355
0.139038 0.000000 0.103088
0.222015 0.000000 0.109253
0.288574 0.000000 0.105072
0.354614 0.000000 0.095276
0.427643 0.000000 0.070557
0.467102 0.000000 0.018738
0.001648 0.011597 0.080811
0.013092 0.008545 0.086273
0.060364 0.003174 0.095947
0.143311 0.000031 0.108826
0.237854 0.000000 0.114563
0.314667 0.000000 0.110321
0.355438 0.000000 0.096283
0.428192 0.000000 0.071686
0.467987 0.000000 0.019623
0.000000 0.043182 0.094299
0.001190 0.040558 0.098511
0.037659 0.032257 0.105957
0.142822 0.011749 0.114349
0.257507 0.000732 0.118195
0.358337 0.000000 0.115692
0.387299 0.000000 0.101013
0.429169 0.000000 0.073761
0.469604 0.000000 0.021423
0.000000 0.118835 0.106903
0.000000 0.120575 0.109131
0.001404 0.121277 0.112244
0.112457 0.114502 0.114655
0.268311 0.083527 0.113007
0.415436 0.015717 0.108734
0.501587 0.000000 0.103607
0.440063 0.000000 0.078522
0.473083 0.000000 0.025574
0.000000 0.224609 0.108673
0.000000 0.231354 0.108124
0.000000 0.241516 0.106201
0.006775 0.250610 0.101074
0.237732 0.246094 0.091644
0.431732 0.216461 0.079529
0.602966 0.118378 0.066895
0.658173 0.001251 0.067719
0.480835 0.000000 0.034058
0.000000 0.360168 0.109406
0.000000 0.360504 0.108734
0.000000 0.370605 0.101227
0.000000 0.399628 0.067505
0.047699 0.411591 0.043518
0.387115 0.403107 0.033936
0.603210 0.372681 0.023865
0.780151 0.292542 0.016510
0.802582 0.083221 0.011841
0.000000 0.513641 0.123535
0.000000 0.513458 0.123260
0.000000 0.513062 0.122711
0.000000 0.520935 0.112152
0.000000 0.572906 0.031708
0.161865 0.579376 0.022278
0.543915 0.567108 0.013885
0.763214 0.537384 0.004517
0.931427 0.469208 0.000000
0.000000 0.660492 0.209167
0.000000 0.660431 0.208954
0.000000 0.660278 0.208588
0.000000 0.659943 0.207733
0.000000 0.666260 0.198883
0.000000 0.739532 0.048157
0.361603 0.740021 0.019958
0.696747 0.726257 0.013794
0.911743 0.697784 0.000000
0.000000 0.792023 0.342651
0.000000 0.791992 0.342529
0.000000 0.791931 0.342346
0.000000 0.791779 0.341919
0.000000 0.791504 0.340942
0.000000 0.801483 0.331696
0.018799 0.895691 0.152252
0.534576 0.894714 0.091064
0.844269 0.879944 0.048340
0.001495 0.000000 0.135681
0.015961 0.000000 0.145416
0.067932 0.000000 0.162781
0.153046 0.000000 0.183838
0.248260 0.000000 0.195221
0.326752 0.000000 0.190338
0.386078 0.000000 0.177307
0.470734 0.000000 0.167084
0.538757 0.000000 0.136658
0.000000 0.001007 0.148956
0.005829 0.000000 0.158173
0.055756 0.000000 0.174377
0.153503 0.000000 0.194122
0.261383 0.000000 0.206360
0.351318 0.000000 0.202179
0.390930 0.000000 0.179535
0.470795 0.000000 0.167603
0.539001 0.000000 0.137360
0.000000 0.022949 0.170685
0.000000 0.017639 0.178406
0.019440 0.007782 0.190979
0.144775 0.000916 0.207489
0.274231 0.000000 0.219269
0.389465 0.000000 0.218628
0.429749 0.000000 0.193024
0.470917 0.000000 0.168549
0.539429 0.000000 0.138550
0.000000 0.107544 0.193451
0.000000 0.106628 0.199615
0.000000 0.102539 0.209015
0.098175 0.085968 0.221527
0.273865 0.042480 0.229523
0.432129 0.003723 0.232117
0.537903 0.000000 0.221161
0.486023 0.000000 0.174469
0.540222 0.000000 0.141083
0.000000 0.224304 0.207550
0.000000 0.229706 0.212860
0.000000 0.237549 0.220825
0.005219 0.242706 0.229797
0.232758 0.233826 0.234070
0.434357 0.198303 0.233673
0.614136 0.083282 0.229065
0.697327 0.000000 0.213745
0.543030 0.000000 0.146515
0.000000 0.362427 0.221863
0.000000 0.363068 0.221954
0.000000 0.372681 0.223663
0.000000 0.397858 0.225281
0.038147 0.405273 0.224976
0.384521 0.395325 0.222961
0.602844 0.363678 0.217255
0.790894 0.275452 0.205811
0.855194 0.068146 0.188202
0.000000 0.515533 0.241180
0.000000 0.515350 0.241058
0.000000 0.514984 0.240784
0.000000 0.522919 0.238373
0.000000 0.570679 0.211426
0.154419 0.573853 0.201477
0.541779 0.561096 0.195984
0.765198 0.530762 0.179077
0.948151 0.457886 0.148956
0.000000 0.660950 0.292419
0.000000 0.660889 0.292267
0.000000 0.660736 0.292053
0.000000 0.660431 0.291534
0.000000 0.667236 0.287445
0.000000 0.737000 0.212494
0.355133 0.736053 0.187134
0.695618 0.722046 0.165039
0.917236 0.692780 0.137451
0.000000 0.791321 0.387634
0.000000 0.791290 0.387573
0.000000 0.791229 0.387421
0.000000 0.791107 0.387085
0.000000 0.790802 0.386383
0.000000 0.800964 0.380493
0.017700 0.894196 0.272217
0.530121 0.892303 0.237000
0.843658 0.877167 0.201935
0.000000 0.000000 0.233276
0.002197 0.000000 0.246796
0.050232 0.000000 0.269165
0.158905 0.000000 0.294525
0.272064 0.000000 0.308411
0.369171 0.000000 0.301300
0.407135 0.000000 0.262756
0.491058 0.000000 0.256744
0.567780 0.000000 0.241852
0.000000 0.000000 0.251038
0.000000 0.000000 0.263824
0.029175 0.000000 0.284882
0.152618 0.000000 0.309265
0.279449 0.000000 0.323303
0.388885 0.000000 0.317535
0.424988 0.000000 0.273529
0.490997 0.000000 0.256989
0.567780 0.000000 0.242096
0.000000 0.001862 0.275574
0.000000 0.000366 0.287384
0.003479 0.000000 0.306213
0.132233 0.000000 0.328247
0.283569 0.000000 0.342957
0.417389 0.000000 0.341370
0.476288 0.000000 0.302704
0.490875 0.000000 0.257385
0.567810 0.000000 0.242523
0.000000 0.070953 0.301483
0.000000 0.062897 0.312469
0.000000 0.050446 0.328979
0.065826 0.027985 0.347595
0.272736 0.007202 0.360870
0.443573 0.000092 0.367737
0.570465 0.000000 0.352112
0.524231 0.000000 0.273743
0.567841 0.000000 0.243469
0.000000 0.214478 0.320251
0.000000 0.217255 0.330383
0.000000 0.220428 0.346039
0.003265 0.218353 0.363312
0.217438 0.201691 0.372528
0.433807 0.152649 0.377380
0.619690 0.046326 0.378296
0.729095 0.000000 0.354736
0.570984 0.000000 0.246643
0.000000 0.358185 0.337402
0.000000 0.359314 0.338715
0.000000 0.368408 0.347473
0.000000 0.388428 0.367126
0.024353 0.391510 0.376251
0.378021 0.379242 0.379639
0.599487 0.344421 0.380066
0.792480 0.241150 0.376160
0.887054 0.040802 0.351532
0.000000 0.512451 0.358734
0.000000 0.512238 0.358643
0.000000 0.511871 0.358521
0.000000 0.520294 0.361511
0.000000 0.563049 0.371979
0.138519 0.562866 0.375916
0.537415 0.549530 0.376770
0.761993 0.518158 0.372345
0.954376 0.439484 0.361725
0.000000 0.658234 0.391846
0.000000 0.658173 0.391785
0.000000 0.658020 0.391632
0.000000 0.657684 0.391357
0.000000 0.665405 0.391083
0.000000 0.730591 0.374176
0.347626 0.727570 0.371521
0.692535 0.713257 0.367218
0.918274 0.683228 0.351990
0.000000 0.788635 0.454254
0.000000 0.788605 0.454193
0.000000 0.788544 0.454102
0.000000 0.788422 0.453888
0.000000 0.788147 0.453430
0.000000 0.798706 0.451538
0.016327 0.890350 0.393311
0.524567 0.886688 0.378479
0.841644 0.871124 0.366974
0.000000 0.000000 0.381927
0.000000 0.000000 0.397705
0.004730 0.000000 0.421997
0.133392 0.000000 0.446594
0.285095 0.000000 0.460144
0.413666 0.000000 0.451447
0.464600 0.000000 0.387177
0.496338 0.000000 0.339630
0.574615 0.000000 0.329926
0.000000 0.000000 0.395905
0.000000 0.000000 0.411560
0.000000 0.000000 0.435577
0.115540 0.000000 0.460175
0.284271 0.000000 0.474457
0.425049 0.000000 0.468445
0.494446 0.000000 0.412262
0.496582 0.000000 0.339966
0.574585 0.000000 0.330017
0.000000 0.000000 0.413330
0.000000 0.000000 0.428497
0.000000 0.000000 0.451996
0.078125 0.000000 0.476227
0.279114 0.000000 0.491882
0.439270 0.000000 0.492523
0.541351 0.000000 0.451599
0.501038 0.000000 0.343384
0.574493 0.000000 0.330200
0.000000 0.025757 0.434052
0.000000 0.019531 0.448730
0.000000 0.009277 0.471497
0.013306 0.001251 0.494415
0.257324 0.000000 0.508698
0.446350 0.000000 0.515839
0.600189 0.000000 0.503082
0.576080 0.000000 0.392181
0.574371 0.000000 0.330597
0.000000 0.189636 0.449860
0.000000 0.187469 0.463562
0.000000 0.181427 0.485168
0.000000 0.164551 0.509308
0.182251 0.137817 0.519562
0.426941 0.086426 0.525635
0.618896 0.016541 0.528168
0.758942 0.000000 0.506287
0.591858 0.000000 0.341644
0.000000 0.346283 0.456116
0.000000 0.348511 0.461853
0.000000 0.356171 0.479645
0.000000 0.368134 0.511810
0.016632 0.366669 0.525757
0.364990 0.351715 0.529602
0.593903 0.310974 0.532013
0.789520 0.187347 0.532227
0.913940 0.013458 0.506958
0.000000 0.502350 0.477814
0.000000 0.502136 0.477753
0.000000 0.501770 0.477692
0.000000 0.511597 0.487335
0.000000 0.547699 0.523010
0.108978 0.545319 0.529175
0.529694 0.530975 0.531464
0.756317 0.498138 0.531799
0.953094 0.412384 0.528473
0.000000 0.650208 0.500671
0.000000 0.650116 0.500641
0.000000 0.649963 0.500580
0.000000 0.649658 0.500427
0.000000 0.658966 0.504791
0.000000 0.718750 0.524384
0.335480 0.713867 0.527191
0.687286 0.699127 0.527100
0.913605 0.667694 0.521912
0.000000 0.782410 0.539276
0.000000 0.782379 0.539246
0.000000 0.782349 0.539185
0.000000 0.782196 0.539062
0.000000 0.781921 0.538788
0.000000 0.793030 0.540771
0.014557 0.882446 0.528320
0.518402 0.876495 0.525177
0.837128 0.859802 0.522125
0.000000 0.000000 0.572296
0.000000 0.000000 0.587677
0.000000 0.000000 0.607208
0.053864 0.000000 0.627228
0.269470 0.000000 0.641083
0.442200 0.000000 0.641388
0.570465 0.000000 0.604980
0.511932 0.000000 0.432648
0.568695 0.000000 0.406738
0.000000 0.000000 0.577515
0.000000 0.000000 0.592773
0.000000 0.000000 0.612640
0.042755 0.000000 0.633026
0.263580 0.000000 0.647430
0.443237 0.000000 0.648956
0.583588 0.000000 0.621155
0.535767 0.000000 0.453033
0.568665 0.000000 0.406799
0.000000 0.000000 0.585510
0.000000 0.000000 0.600525
0.000000 0.000000 0.620880
0.026825 0.000000 0.641083
0.249359 0.000000 0.655060
0.442993 0.000000 0.659149
0.599152 0.000000 0.641571
0.593262 0.000000 0.502106
0.568573 0.000000 0.406860
0.000000 0.001404 0.594666
0.000000 0.000000 0.609528
0.000000 0.000000 0.631042
0.001343 0.000000 0.651733
0.213104 0.000000 0.664886
0.435791 0.000000 0.670471
0.612396 0.000000 0.663788
0.705505 0.000000 0.598694
0.568542 0.000000 0.407135
0.000000 0.154846 0.598633
0.000000 0.147247 0.613586
0.000000 0.131348 0.636505
0.000000 0.098022 0.661163
0.121338 0.060059 0.672913
0.410339 0.032959 0.677856
0.611145 0.002258 0.678925
0.774963 0.000000 0.663239
0.668243 0.000000 0.479218
0.000000 0.334442 0.583527
0.000000 0.335968 0.596497
0.000000 0.339386 0.622955
0.000000 0.339966 0.660187
0.009460 0.331421 0.677368
0.341492 0.313721 0.680206
0.584137 0.268677 0.682831
0.782990 0.137939 0.684174
0.930298 0.009399 0.662170
0.000000 0.488190 0.593048
0.000000 0.487976 0.593018
0.000000 0.487854 0.593384
0.000000 0.501312 0.619507
0.000000 0.526367 0.672150
0.095123 0.522186 0.680298
0.517334 0.506622 0.682098
0.748627 0.470673 0.683899
0.948120 0.374420 0.684601
0.000000 0.636871 0.610321
0.000000 0.636810 0.610291
0.000000 0.636658 0.610260
0.000000 0.636322 0.610168
0.000000 0.648071 0.621674
0.000000 0.700745 0.673950
0.312744 0.694977 0.678162
0.678955 0.679474 0.679688
0.906433 0.646790 0.679413
0.000000 0.772003 0.634247
0.000000 0.771942 0.634247
0.000000 0.771881 0.634216
0.000000 0.771759 0.634155
0.000000 0.771454 0.634003
0.000000 0.783478 0.640656
0.014496 0.868347 0.672302
0.510101 0.860260 0.674011
0.830444 0.842804 0.674011
0.000000 0.000000 0.769257
0.000000 0.000000 0.777008
0.000000 0.000000 0.786560
0.013763 0.000000 0.797882
0.201111 0.000000 0.807556
0.429291 0.000000 0.811310
0.605988 0.000000 0.803955
0.731049 0.000000 0.755829
0.555939 0.000000 0.474335
0.000000 0.000000 0.770477
0.000000 0.000000 0.778320
0.000000 0.000000 0.788025
0.008545 0.000000 0.799469
0.190155 0.000000 0.809143
0.426453 0.000000 0.813171
0.606415 0.000000 0.806946
0.739319 0.000000 0.765594
0.556183 0.000000 0.474609
0.000000 0.001129 0.772217
0.000000 0.000610 0.780334
0.000000 0.000000 0.790466
0.000885 0.000000 0.802185
0.170654 0.000000 0.811859
0.421387 0.000000 0.816376
0.606384 0.000000 0.811737
0.751465 0.000000 0.780365
0.564392 0.000000 0.481781
0.000000 0.019745 0.772797
0.000000 0.016327 0.781921
0.000000 0.010712 0.792999
0.000000 0.002228 0.805450
0.134613 0.000000 0.815918
0.409668 0.000000 0.821686
0.604828 0.000000 0.820129
0.765900 0.000000 0.799561
0.687134 0.000000 0.588196
0.000000 0.126770 0.767456
0.000000 0.119507 0.780060
0.000000 0.107971 0.794495
0.000000 0.087494 0.809235
0.048889 0.061707 0.821289
0.380463 0.040741 0.827759
0.595734 0.010864 0.829590
0.776733 0.000000 0.820770
0.874268 0.000000 0.753326
0.000000 0.334412 0.737488
0.000000 0.332886 0.754883
0.000000 0.329193 0.780731
0.000000 0.321228 0.807190
0.000977 0.306427 0.824310
0.303955 0.282776 0.831635
0.567261 0.230499 0.834534
0.771149 0.109863 0.834930
0.940826 0.011536 0.820007
0.000000 0.479187 0.697876
0.000000 0.479706 0.700073
0.000000 0.484344 0.716492
0.000000 0.497070 0.766357
0.000000 0.505188 0.817596
0.068268 0.497375 0.831482
0.498138 0.481293 0.833252
0.737030 0.442627 0.835175
0.939636 0.342773 0.836914
0.000000 0.622650 0.712982
0.000000 0.622559 0.712982
0.000000 0.622437 0.712952
0.000000 0.622101 0.712921
0.000000 0.640015 0.744995
0.000000 0.678650 0.822144
0.283142 0.671936 0.829437
0.666229 0.655701 0.830292
0.897552 0.622742 0.831238
0.000000 0.759369 0.730743
0.000000 0.759338 0.730743
0.000000 0.759277 0.730713
0.000000 0.759125 0.730652
0.000000 0.758820 0.730560
0.000000 0.775848 0.746948
0.015137 0.849579 0.820312
0.497467 0.840179 0.822540
0.820709 0.821106 0.821320
