resources/LUTs/Exigent Films REC709 x33 (monitoring) LUTs/Exposure_-1.CUBE
#Created by: Adobe Photoshop Export Color Lookup Plugin
TITLE "exposure_-1"
#LUT size
LUT_3D_SIZE 5
#data domain
DOMAIN_MIN 0.0 0.0 0.0
DOMAIN_MAX 1.0 1.0 1.0
#LUT data points
0.000793 0.000885 0.000793
0.085876 0.000000 0.000000
0.231964 0.000000 0.000000
0.384308 0.000000 0.000000
0.530670 0.000000 0.000000
0.000000 0.134338 0.000000
0.152710 0.159760 0.000000
0.446869 0.037201 0.000000
0.383789 0.000000 0.000000
0.530579 0.000000 0.000000
0.000000 0.446655 0.000000
0.000000 0.489594 0.000000
0.494690 0.517944 0.000000
0.823669 0.422394 0.000000
0.530212 0.000000 0.000000
0.000000 0.761841 0.221893
0.000000 0.761322 0.219177
0.001312 0.859467 0.009521
0.809937 0.847321 0.000000
0.999054 0.767639 0.000000
0.000000 0.988007 0.592682
0.000000 0.987976 0.592346
0.000000 0.987885 0.590973
0.128204 0.999054 0.424225
0.992462 0.999054 0.412170
0.000000 0.000000 0.054504
0.151794 0.000000 0.113403
0.341248 0.000000 0.124481
0.486816 0.000000 0.068207
0.530670 0.000000 0.000000
0.000000 0.148041 0.134186
0.150330 0.153046 0.153473
0.532532 0.012756 0.146271
0.493011 0.000000 0.079773
0.530579 0.000000 0.000000
0.000000 0.470184 0.158478
0.000000 0.506409 0.124786
0.497864 0.517487 0.072784
0.904297 0.405792 0.033966
0.530273 0.000000 0.000000
0.000000 0.762878 0.326782
0.000000 0.762390 0.325470
0.000000 0.858459 0.179047
0.810303 0.844330 0.089935
0.999054 0.763367 0.000488
0.000000 0.987518 0.608429
0.000000 0.987518 0.608154
0.000000 0.987366 0.606903
0.127258 0.999054 0.455902
0.991241 0.999054 0.449646
0.000000 0.000000 0.256317
0.201965 0.000000 0.364136
0.384460 0.000000 0.318054
0.556915 0.000000 0.308136
0.684418 0.000000 0.251770
0.000000 0.103821 0.369690
0.081482 0.040985 0.460632
0.565796 0.000000 0.475250
0.559998 0.000000 0.311523
0.684631 0.000000 0.253876
0.000000 0.460968 0.436920
0.000000 0.492523 0.468231
0.485626 0.486664 0.487061
0.916931 0.353180 0.483612
0.685242 0.000000 0.262451
0.000000 0.755737 0.500153
0.000000 0.755280 0.499725
0.000824 0.846771 0.486145
0.804565 0.827240 0.476379
0.999054 0.736053 0.440216
0.000000 0.985687 0.661285
0.000000 0.985657 0.661102
0.000000 0.985504 0.660278
0.124573 0.999054 0.557281
0.986908 0.999054 0.559021
0.000000 0.000000 0.692871
0.095184 0.000000 0.758820
0.556488 0.000000 0.760406
0.541626 0.000000 0.461060
0.676605 0.000000 0.435028
0.000000 0.052856 0.698883
0.004944 0.014587 0.777191
0.551514 0.000000 0.789795
0.762085 0.000000 0.652405
0.676483 0.000000 0.435272
0.000000 0.436951 0.669312
0.000000 0.456726 0.770599
0.451782 0.432892 0.798431
0.905853 0.265045 0.802002
0.683411 0.000000 0.441559
0.000000 0.731812 0.703705
0.000000 0.731323 0.703552
0.000000 0.814819 0.786041
0.788513 0.789215 0.789520
0.999054 0.690796 0.786194
0.000000 0.979156 0.780060
0.000000 0.979095 0.779968
0.000000 0.978851 0.779602
0.125671 0.999054 0.760437
0.975311 0.994324 0.760864
0.000000 0.250824 0.999054
0.021881 0.235535 0.999054
0.517334 0.185150 0.999054
0.892273 0.004578 0.999054
0.639618 0.000000 0.552490
0.000000 0.321838 0.999054
0.000000 0.312347 0.999054
0.497925 0.278595 0.999054
0.890625 0.086609 0.999054
0.641479 0.000000 0.554260
0.000000 0.506378 0.999054
0.000000 0.506042 0.999054
0.401093 0.496338 0.999054
0.871857 0.417755 0.999054
0.999054 0.000000 0.991821
0.000000 0.717682 0.886017
0.000000 0.718689 0.889008
0.003693 0.794861 0.999054
0.765533 0.767181 0.999054
0.999054 0.683624 0.999054
0.000000 0.966644 0.936707
0.000000 0.966553 0.936676
0.000000 0.966156 0.936523
0.134338 0.997650 0.987762
0.958832 0.959015 0.959473
