resources/LUTs/Exigent Films REC709 x33 (monitoring) LUTs/Exposure_-1.CUBE
#Created by: Adobe Photoshop Export Color Lookup Plugin
TITLE "exposure_-1"
#LUT size
LUT_3D_SIZE 33
#data domain
DOMAIN_MIN 0.0 0.0 0.0
DOMAIN_MAX 1.0 1.0 1.0
#LUT data points
0.000793 0.000885 0.000793
0.003815 0.000946 0.000977
0.006836 0.001007 0.001160
0.014404 0.000519 0.001099
0.022644 0.000000 0.000977
0.037476 0.000000 0.000580
0.054657 0.000000 0.000061
0.070679 0.000000 0.000000
0.085876 0.000000 0.000000
0.102051 0.000000 0.000000
0.119354 0.000000 0.000000
0.137207 0.000000 0.000000
0.156219 0.000000 0.000000
0.175262 0.000000 0.000000
0.194427 0.000000 0.000000
0.213531 0.000000 0.000000
0.231964 0.000000 0.000000
0.250366 0.000000 0.000000
0.269714 0.000000 0.000000
0.289154 0.000000 0.000000
0.308380 0.000000 0.000000
0.327576 0.000000 0.000000
0.346588 0.000000 0.000000
0.365540 0.000000 0.000000
0.384308 0.000000 0.000000
0.402893 0.000000 0.000000
0.421417 0.000000 0.000000
0.439850 0.000000 0.000000
0.458252 0.000000 0.000000
0.476562 0.000000 0.000000
0.494812 0.000000 0.000000
0.512726 0.000000 0.000000
0.530670 0.000000 0.000000
0.000488 0.005066 0.001526
0.005310 0.005798 0.000946
0.008331 0.005859 0.001129
0.019012 0.005524 0.000549
0.027740 0.004974 0.000336
0.046539 0.002472 0.000244
0.065186 0.001465 0.000000
0.084412 0.000214 0.000000
0.101746 0.000000 0.000000
0.117981 0.000000 0.000000
0.135315 0.000000 0.000000
0.150848 0.000000 0.000000
0.165131 0.000000 0.000000
0.182587 0.000000 0.000000
0.195374 0.000000 0.000000
0.214417 0.000000 0.000000
0.231903 0.000000 0.000000
0.250305 0.000000 0.000000
0.269623 0.000000 0.000000
0.289032 0.000000 0.000000
0.308289 0.000000 0.000000
0.327484 0.000000 0.000000
0.346527 0.000000 0.000000
0.365509 0.000000 0.000000
0.384277 0.000000 0.000000
0.402863 0.000000 0.000000
0.421387 0.000000 0.000000
0.439819 0.000000 0.000000
0.458252 0.000000 0.000000
0.476532 0.000000 0.000000
0.494781 0.000000 0.000000
0.512726 0.000000 0.000000
0.530670 0.000000 0.000000
0.000183 0.009277 0.002289
0.005005 0.009979 0.001709
0.009827 0.010712 0.001099
0.020508 0.010376 0.000488
0.032379 0.009979 0.000000
0.051636 0.007477 0.000000
0.074280 0.004242 0.000000
0.094940 0.002197 0.000000
0.115509 0.000214 0.000000
0.133881 0.000000 0.000000
0.151276 0.000000 0.000000
0.166840 0.000000 0.000000
0.178772 0.000000 0.000000
0.191528 0.000000 0.000000
0.202698 0.000000 0.000000
0.215363 0.000000 0.000000
0.232788 0.000000 0.000000
0.250244 0.000000 0.000000
0.269562 0.000000 0.000000
0.288940 0.000000 0.000000
0.308197 0.000000 0.000000
0.327423 0.000000 0.000000
0.346466 0.000000 0.000000
0.365448 0.000000 0.000000
0.384216 0.000000 0.000000
0.402802 0.000000 0.000000
0.421356 0.000000 0.000000
0.439819 0.000000 0.000000
0.458221 0.000000 0.000000
0.476532 0.000000 0.000000
0.494781 0.000000 0.000000
0.512726 0.000000 0.000000
0.530670 0.000000 0.000000
0.000000 0.019470 0.002045
0.002106 0.021240 0.001160
0.006927 0.021973 0.000549
0.020935 0.022339 0.000427
0.032776 0.021912 0.000000
0.057251 0.020081 0.000000
0.080750 0.016968 0.000000
0.106567 0.011841 0.000000
0.129120 0.008698 0.000000
0.151703 0.003693 0.000000
0.172089 0.000305 0.000000
0.189728 0.000000 0.000000
0.204956 0.000000 0.000000
0.216034 0.000000 0.000000
0.224884 0.000000 0.000000
0.235107 0.000000 0.000000
0.236176 0.000000 0.000000
0.253601 0.000000 0.000000
0.269440 0.000000 0.000000
0.288818 0.000000 0.000000
0.308105 0.000000 0.000000
0.327332 0.000000 0.000000
0.346405 0.000000 0.000000
0.365387 0.000000 0.000000
0.384186 0.000000 0.000000
0.402771 0.000000 0.000000
0.421326 0.000000 0.000000
0.439789 0.000000 0.000000
0.458191 0.000000 0.000000
0.476501 0.000000 0.000000
0.494751 0.000000 0.000000
0.512695 0.000000 0.000000
0.530640 0.000000 0.000000
0.000000 0.030579 0.001617
0.001373 0.032532 0.000671
0.003632 0.034332 0.000000
0.017639 0.034668 0.000000
0.033051 0.034973 0.000000
0.057526 0.033142 0.000000
0.086548 0.030762 0.000000
0.113251 0.025757 0.000000
0.141205 0.019379 0.000000
0.165771 0.013184 0.000000
0.190704 0.004730 0.000000
0.211334 0.000977 0.000000
0.229431 0.000000 0.000000
0.243774 0.000000 0.000000
0.251434 0.000000 0.000000
0.259338 0.000000 0.000000
0.256317 0.000000 0.000000
0.257385 0.000000 0.000000
0.272980 0.000000 0.000000
0.288696 0.000000 0.000000
0.307983 0.000000 0.000000
0.327240 0.000000 0.000000
0.346344 0.000000 0.000000
0.365356 0.000000 0.000000
0.384125 0.000000 0.000000
0.402740 0.000000 0.000000
0.421295 0.000000 0.000000
0.439758 0.000000 0.000000
0.458191 0.000000 0.000000
0.476501 0.000000 0.000000
0.494751 0.000000 0.000000
0.512695 0.000000 0.000000
0.530640 0.000000 0.000000
0.000000 0.051880 0.000885
0.000000 0.055115 0.000519
0.001770 0.057068 0.000000
0.006836 0.058868 0.000000
0.022247 0.059174 0.000000
0.056091 0.059174 0.000000
0.085144 0.056793 0.000000
0.121735 0.052704 0.000000
0.151520 0.046509 0.000000
0.182922 0.038086 0.000000
0.210602 0.028992 0.000000
0.236908 0.017303 0.000000
0.259369 0.009430 0.000000
0.277649 0.006134 0.000000
0.291290 0.000000 0.000000
0.298462 0.000000 0.000000
0.297455 0.000000 0.000000
0.294434 0.000000 0.000000
0.280518 0.000000 0.000000
0.295990 0.000000 0.000000
0.307861 0.000000 0.000000
0.327118 0.000000 0.000000
0.346252 0.000000 0.000000
0.365265 0.000000 0.000000
0.384064 0.000000 0.000000
0.402679 0.000000 0.000000
0.421234 0.000000 0.000000
0.439728 0.000000 0.000000
0.458160 0.000000 0.000000
0.476471 0.000000 0.000000
0.494720 0.000000 0.000000
0.512695 0.000000 0.000000
0.530609 0.000000 0.000000
0.000000 0.076843 0.000031
0.000000 0.080566 0.000000
0.000000 0.083832 0.000000
0.003418 0.085846 0.000000
0.008728 0.087677 0.000000
0.042542 0.087677 0.000000
0.083069 0.087585 0.000000
0.119690 0.083496 0.000000
0.161346 0.078278 0.000000
0.194550 0.070007 0.000000
0.229858 0.059235 0.000000
0.258911 0.046936 0.000000
0.287994 0.028809 0.000000
0.310638 0.018646 0.000000
0.329559 0.006256 0.000000
0.342712 0.000000 0.000000
0.342743 0.000000 0.000000
0.341766 0.000000 0.000000
0.320160 0.000000 0.000000
0.304932 0.000000 0.000000
0.316193 0.000000 0.000000
0.327026 0.000000 0.000000
0.346130 0.000000 0.000000
0.365173 0.000000 0.000000
0.384003 0.000000 0.000000
0.402618 0.000000 0.000000
0.421204 0.000000 0.000000
0.439697 0.000000 0.000000
0.458130 0.000000 0.000000
0.476440 0.000000 0.000000
0.494720 0.000000 0.000000
0.512665 0.000000 0.000000
0.530609 0.000000 0.000000
0.000000 0.104645 0.000000
0.000000 0.108368 0.000000
0.000000 0.112091 0.000000
0.000397 0.116638 0.000000
0.004150 0.118683 0.000000
0.017578 0.122009 0.000000
0.058105 0.121918 0.000000
0.115936 0.121735 0.000000
0.157593 0.116516 0.000000
0.203094 0.111328 0.000000
0.240326 0.101349 0.000000
0.277863 0.090790 0.000000
0.310394 0.074768 0.000000
0.340637 0.056274 0.000000
0.365997 0.040833 0.000000
0.385193 0.026672 0.000000
0.397461 0.005951 0.000000
0.397491 0.005798 0.000000
0.386200 0.000000 0.000000
0.363281 0.000000 0.000000
0.331451 0.000000 0.000000
0.341675 0.000000 0.000000
0.346008 0.000000 0.000000
0.365082 0.000000 0.000000
0.383911 0.000000 0.000000
0.402557 0.000000 0.000000
0.421143 0.000000 0.000000
0.439636 0.000000 0.000000
0.458069 0.000000 0.000000
0.476410 0.000000 0.000000
0.494690 0.000000 0.000000
0.512634 0.000000 0.000000
0.530609 0.000000 0.000000
0.000000 0.134338 0.000000
0.000000 0.138031 0.000000
0.000000 0.141754 0.000000
0.000000 0.147339 0.000000
0.000397 0.152161 0.000000
0.009979 0.156128 0.000000
0.025482 0.160126 0.000000
0.083344 0.159973 0.000000
0.152710 0.159760 0.000000
0.198212 0.154572 0.000000
0.248077 0.149445 0.000000
0.287537 0.139648 0.000000
0.329559 0.129486 0.000000
0.363281 0.113129 0.000000
0.398285 0.093140 0.000000
0.423920 0.075958 0.000000
0.446869 0.037201 0.000000
0.459137 0.016479 0.000000
0.453461 0.006500 0.000000
0.441772 0.000000 0.000000
0.398132 0.000000 0.000000
0.361145 0.000000 0.000000
0.364197 0.000000 0.000000
0.364960 0.000000 0.000000
0.383789 0.000000 0.000000
0.402496 0.000000 0.000000
0.421082 0.000000 0.000000
0.439575 0.000000 0.000000
0.458038 0.000000 0.000000
0.476379 0.000000 0.000000
0.494659 0.000000 0.000000
0.512604 0.000000 0.000000
0.530579 0.000000 0.000000
0.000000 0.166473 0.000000
0.000000 0.168762 0.000000
0.000000 0.172455 0.000000
0.000000 0.179504 0.000000
0.000000 0.185364 0.000000
0.002502 0.192993 0.000000
0.014191 0.197632 0.000000
0.050354 0.201691 0.000000
0.119720 0.201477 0.000000
0.192596 0.200867 0.000000
0.242462 0.195740 0.000000
0.293549 0.190613 0.000000
0.337128 0.181152 0.000000
0.379822 0.171051 0.000000
0.417572 0.153778 0.000000
0.452820 0.134003 0.000000
0.482056 0.103912 0.000000
0.505035 0.065155 0.000000
0.516266 0.042114 0.000000
0.510162 0.031433 0.000000
0.492371 0.000000 0.000000
0.443573 0.000000 0.000000
0.392365 0.000000 0.000000
0.391815 0.000000 0.000000
0.383698 0.000000 0.000000
0.402374 0.000000 0.000000
0.420990 0.000000 0.000000
0.439514 0.000000 0.000000
0.457977 0.000000 0.000000
0.476318 0.000000 0.000000
0.494629 0.000000 0.000000
0.512573 0.000000 0.000000
0.530548 0.000000 0.000000
0.000000 0.201385 0.000000
0.000000 0.202057 0.000000
0.000000 0.204315 0.000000
0.000000 0.212646 0.000000
0.000000 0.220428 0.000000
0.000000 0.229553 0.000000
0.002502 0.238373 0.000000
0.035797 0.243073 0.000000
0.086334 0.247192 0.000000
0.159210 0.246582 0.000000
0.236023 0.245483 0.000000
0.287109 0.240387 0.000000
0.340698 0.235291 0.000000
0.384918 0.225861 0.000000
0.430267 0.216034 0.000000
0.468292 0.198944 0.000000
0.506927 0.181854 0.000000
0.536163 0.151794 0.000000
0.562775 0.118195 0.000000
0.574280 0.095520 0.000000
0.572510 0.043091 0.000000
0.555756 0.001190 0.000000
0.489746 0.000366 0.000000
0.429932 0.000000 0.000000
0.419250 0.000000 0.000000
0.402252 0.000000 0.000000
0.420868 0.000000 0.000000
0.439423 0.000000 0.000000
0.457916 0.000000 0.000000
0.476257 0.000000 0.000000
0.494568 0.000000 0.000000
0.512543 0.000000 0.000000
0.530518 0.000000 0.000000
0.000000 0.237946 0.000000
0.000000 0.238220 0.000000
0.000000 0.238892 0.000000
0.000000 0.245483 0.000000
0.000000 0.254547 0.000000
0.000000 0.266083 0.000000
0.000000 0.276398 0.000000
0.012299 0.285217 0.000000
0.059967 0.289978 0.000000
0.125763 0.293030 0.000000
0.202576 0.291931 0.000000
0.279297 0.290497 0.000000
0.332855 0.285431 0.000000
0.386871 0.280273 0.000000
0.433624 0.271027 0.000000
0.479095 0.261200 0.000000
0.519928 0.246155 0.000000
0.558563 0.229095 0.000000
0.590179 0.202850 0.000000
0.617065 0.169647 0.000000
0.631256 0.124695 0.000000
0.630524 0.061798 0.000000
0.608398 0.017609 0.000000
0.533783 0.016388 0.000000
0.465454 0.000000 0.000000
0.445892 0.000000 0.000000
0.420776 0.000000 0.000000
0.439331 0.000000 0.000000
0.457825 0.000000 0.000000
0.476196 0.000000 0.000000
0.494507 0.000000 0.000000
0.512512 0.000000 0.000000
0.530487 0.000000 0.000000
0.000000 0.277802 0.000000
0.000000 0.277313 0.000000
0.000000 0.277618 0.000000
0.000000 0.282104 0.000000
0.000000 0.289307 0.000000
0.000000 0.302704 0.000000
0.000000 0.315826 0.000000
0.000000 0.326080 0.000000
0.012817 0.334869 0.000000
0.080444 0.338318 0.000000
0.169037 0.339874 0.000000
0.245728 0.338440 0.000000
0.322205 0.336304 0.000000
0.376221 0.331146 0.000000
0.432098 0.325745 0.000000
0.478943 0.316498 0.000000
0.525879 0.307098 0.000000
0.566742 0.292084 0.000000
0.605408 0.276459 0.000000
0.637024 0.250305 0.000000
0.664307 0.222137 0.000000
0.678589 0.178406 0.000000
0.684296 0.111755 0.000000
0.665405 0.065674 0.000000
0.583221 0.038818 0.000000
0.508301 0.000000 0.000000
0.479004 0.000000 0.000000
0.439209 0.000000 0.000000
0.457733 0.000000 0.000000
0.476135 0.000000 0.000000
0.494446 0.000000 0.000000
0.512451 0.000000 0.000000
0.530426 0.000000 0.000000
0.000000 0.318146 0.000000
0.000000 0.317719 0.000000
0.000000 0.317230 0.000000
0.000000 0.320496 0.000000
0.000000 0.325592 0.000000
0.000000 0.337311 0.000000
0.000000 0.352295 0.000000
0.000000 0.366119 0.000000
0.000153 0.376343 0.000000
0.027100 0.383514 0.000000
0.117493 0.385498 0.000000
0.212860 0.386505 0.000000
0.289337 0.384369 0.000000
0.365326 0.382111 0.000000
0.421173 0.376678 0.000000
0.477020 0.371246 0.000000
0.525146 0.362366 0.000000
0.572083 0.352966 0.000000
0.612823 0.339142 0.000000
0.651489 0.323639 0.000000
0.683105 0.301544 0.000000
0.710510 0.274597 0.000000
0.728760 0.228973 0.000000
0.737701 0.160400 0.000000
0.715424 0.101501 0.000000
0.626648 0.052246 0.000000
0.545990 0.000000 0.000000
0.502045 0.000000 0.000000
0.457611 0.000000 0.000000
0.476013 0.000000 0.000000
0.494354 0.000000 0.000000
0.512390 0.000000 0.000000
0.530396 0.000000 0.000000
0.000000 0.360596 0.000000
0.000000 0.360229 0.000000
0.000000 0.359772 0.000000
0.000000 0.359436 0.000000
0.000000 0.362732 0.000000
0.000000 0.372742 0.000000
0.000000 0.386230 0.000000
0.000000 0.403381 0.000000
0.000000 0.418640 0.000000
0.005859 0.426910 0.000000
0.039276 0.431824 0.000000
0.141052 0.433167 0.000000
0.259155 0.432953 0.000000
0.335144 0.430664 0.000000
0.409210 0.427826 0.000000
0.465057 0.422394 0.000000
0.520874 0.416870 0.000000
0.569000 0.407990 0.000000
0.615204 0.398956 0.000000
0.655884 0.385162 0.000000
0.693451 0.370789 0.000000
0.724792 0.348999 0.000000
0.750366 0.324432 0.000000
0.767700 0.279968 0.000000
0.780273 0.220001 0.000000
0.761169 0.168640 0.000000
0.670685 0.092499 0.000000
0.587433 0.000000 0.000000
0.537323 0.000000 0.000000
0.475922 0.000000 0.000000
0.494263 0.000000 0.000000
0.512299 0.000000 0.000000
0.530304 0.000000 0.000000
0.000000 0.403107 0.000000
0.000000 0.402740 0.000000
0.000000 0.402374 0.000000
0.000000 0.402039 0.000000
0.000000 0.401733 0.000000
0.000000 0.409485 0.000000
0.000000 0.421295 0.000000
0.000000 0.437317 0.000000
0.000000 0.455902 0.000000
0.004486 0.469330 0.000000
0.017212 0.475342 0.000000
0.062195 0.479553 0.000000
0.186707 0.479614 0.000000
0.305054 0.479187 0.000000
0.379089 0.476379 0.000000
0.452942 0.473480 0.000000
0.508759 0.467957 0.000000
0.564575 0.462433 0.000000
0.611969 0.453857 0.000000
0.658142 0.444855 0.000000
0.697693 0.432159 0.000000
0.734985 0.418060 0.000000
0.764465 0.398499 0.000000
0.789124 0.375092 0.000000
0.809448 0.338348 0.000000
0.825195 0.285889 0.000000
0.804840 0.212585 0.000000
0.711792 0.096222 0.000000
0.624786 0.000000 0.000000
0.557678 0.000000 0.000000
0.494171 0.000000 0.000000
0.512207 0.000000 0.000000
0.530243 0.000000 0.000000
0.000000 0.446655 0.000000
0.000000 0.446381 0.000000
0.000000 0.446045 0.000000
0.000000 0.445740 0.000000
0.000000 0.445404 0.000000
0.000000 0.445007 0.000000
0.000000 0.452728 0.000000
0.000000 0.469971 0.000000
0.000000 0.489594 0.000000
0.000000 0.507263 0.000000
0.004486 0.519653 0.000000
0.029449 0.524475 0.000000
0.098877 0.526276 0.000000
0.225037 0.526062 0.000000
0.350006 0.524475 0.000000
0.423859 0.521606 0.000000
0.494690 0.517944 0.000000
0.550507 0.512421 0.000000
0.605652 0.506622 0.000000
0.653015 0.498047 0.000000
0.698090 0.489349 0.000000
0.737366 0.476746 0.000000
0.772308 0.463440 0.000000
0.800629 0.444275 0.000000
0.823669 0.422394 0.000000
0.842560 0.386963 0.000000
0.859467 0.337250 0.000000
0.840912 0.268066 0.000000
0.751404 0.136902 0.000000
0.674133 0.000000 0.000000
0.602844 0.000000 0.000000
0.512177 0.000000 0.000000
0.530212 0.000000 0.000000
0.000000 0.490204 0.000000
0.000000 0.489960 0.000000
0.000000 0.489685 0.000000
0.000000 0.489380 0.000000
0.000000 0.489105 0.000000
0.000000 0.488678 0.000000
0.000000 0.488251 0.000000
0.000000 0.501404 0.000000
0.000000 0.522217 0.000000
0.000000 0.540955 0.000000
0.000000 0.557556 0.000000
0.016724 0.568756 0.000000
0.066132 0.571198 0.000000
0.137238 0.572723 0.000000
0.270020 0.571350 0.000000
0.394775 0.569733 0.000000
0.465607 0.566071 0.000000
0.536469 0.562408 0.000000
0.591583 0.556610 0.000000
0.646667 0.550812 0.000000
0.692963 0.542542 0.000000
0.737762 0.533936 0.000000
0.774689 0.522125 0.000000
0.808472 0.509247 0.000000
0.835144 0.491547 0.000000
0.856781 0.471008 0.000000
0.876862 0.438324 0.000000
0.895538 0.392731 0.000000
0.880524 0.308777 0.000000
0.800720 0.136902 0.000000
0.719299 0.000000 0.000000
0.620850 0.000000 0.000000
0.530182 0.000000 0.000000
0.000000 0.533112 0.000000
0.000000 0.532959 0.000000
0.000000 0.532684 0.000000
0.000000 0.532501 0.000000
0.000000 0.532227 0.000000
0.000000 0.531952 0.000000
0.000000 0.531555 0.000000
0.000000 0.531616 0.000000
0.000000 0.545654 0.000000
0.000000 0.570618 0.000000
0.000000 0.593323 0.000000
0.000000 0.607788 0.000000
0.019165 0.614868 0.000000
0.080688 0.616821 0.000000
0.196686 0.616486 0.000000
0.328278 0.615051 0.000000
0.437103 0.612518 0.000000
0.507965 0.608856 0.000000
0.577148 0.604889 0.000000
0.632233 0.599091 0.000000
0.686371 0.593201 0.000000
0.732391 0.584961 0.000000
0.776276 0.576538 0.000000
0.812592 0.564850 0.000000
0.843597 0.552490 0.000000
0.868011 0.535400 0.000000
0.888184 0.515442 0.000000
0.906494 0.484009 0.000000
0.925446 0.439728 0.000000
0.911957 0.355316 0.000000
0.836212 0.176849 0.000000
0.777069 0.000000 0.000000
0.678619 0.000000 0.000000
0.000000 0.575989 0.000000
0.000000 0.575836 0.000000
0.000000 0.575653 0.000000
0.000000 0.575470 0.000000
0.000000 0.575287 0.000000
0.000000 0.575043 0.000000
0.000000 0.574768 0.000000
0.000000 0.574890 0.000000
0.000000 0.575317 0.000000
0.000000 0.593475 0.000000
0.000000 0.623138 0.000000
0.000000 0.643707 0.000000
0.000000 0.653870 0.000000
0.031281 0.660461 0.000000
0.141174 0.660461 0.000000
0.255981 0.660065 0.000000
0.370667 0.657715 0.000000
0.479523 0.655182 0.000000
0.548706 0.651215 0.000000
0.617767 0.647247 0.000000
0.671906 0.641357 0.000000
0.725800 0.635498 0.000000
0.770874 0.627411 0.000000
0.814301 0.619049 0.000000
0.847870 0.607880 0.000000
0.876434 0.595978 0.000000
0.899384 0.579498 0.000000
0.917328 0.560425 0.000000
0.935913 0.530304 0.000000
0.955566 0.489624 0.000000
0.946136 0.398621 0.000000
0.896820 0.177246 0.000000
0.837677 0.000153 0.000000
0.000000 0.616058 0.003204
0.000000 0.615967 0.002686
0.000000 0.615814 0.002686
0.000000 0.615692 0.002075
0.000000 0.615509 0.002075
0.000000 0.615356 0.001282
0.000000 0.615112 0.001221
0.000000 0.614868 0.000641
0.000000 0.615173 0.000427
0.000000 0.616516 0.000214
0.000000 0.637085 0.000061
0.000000 0.668457 0.000000
0.000000 0.690063 0.000000
0.000000 0.699280 0.000000
0.043365 0.702545 0.000000
0.156891 0.702515 0.000000
0.307831 0.701385 0.000000
0.422546 0.699036 0.000000
0.519684 0.696259 0.000000
0.588745 0.692291 0.000000
0.656891 0.688263 0.000000
0.710754 0.682373 0.000000
0.765228 0.676575 0.000000
0.810150 0.668549 0.000000
0.853058 0.660309 0.000000
0.885315 0.649414 0.000000
0.911621 0.637665 0.000000
0.931549 0.621582 0.000000
0.947571 0.602844 0.000000
0.962463 0.574310 0.000000
0.980255 0.534058 0.000000
0.967407 0.435303 0.000000
0.918060 0.213959 0.000000
0.000000 0.655457 0.007935
0.000000 0.655365 0.007294
0.000000 0.655273 0.006775
0.000000 0.655151 0.006134
0.000000 0.655060 0.005432
0.000000 0.654907 0.004639
0.000000 0.654755 0.003571
0.000000 0.654510 0.002899
0.000000 0.654297 0.001923
0.000000 0.655518 0.001526
0.000000 0.657867 0.001038
0.000000 0.680145 0.000610
0.000000 0.714874 0.000000
0.000000 0.735565 0.000000
0.000000 0.740997 0.000000
0.046967 0.744232 0.000000
0.211121 0.743530 0.000000
0.362091 0.742401 0.000000
0.463379 0.739807 0.000000
0.559570 0.737030 0.000000
0.627686 0.733002 0.000000
0.695587 0.728973 0.000000
0.750061 0.723175 0.000000
0.804810 0.717407 0.000000
0.849213 0.709503 0.000000
0.891663 0.701324 0.000000
0.921661 0.690582 0.000000
0.944519 0.679047 0.000000
0.962524 0.663300 0.000000
0.973236 0.645386 0.000000
0.986237 0.617310 0.000000
0.991669 0.579834 0.000000
0.978821 0.481110 0.000000
0.000000 0.692322 0.066376
0.000000 0.692261 0.065979
0.000000 0.692169 0.065308
0.000000 0.692108 0.064880
0.000000 0.692017 0.064148
0.000000 0.691925 0.063599
0.000000 0.691772 0.062500
0.000000 0.691650 0.061676
0.000000 0.691437 0.060730
0.000000 0.691223 0.059753
0.000000 0.693085 0.059174
0.000000 0.696259 0.055237
0.000000 0.721008 0.051086
0.000000 0.756561 0.035126
0.000000 0.777557 0.000000
0.000000 0.782867 0.000000
0.067444 0.784821 0.000000
0.231598 0.784119 0.000000
0.407196 0.782654 0.000000
0.507538 0.780029 0.000000
0.598724 0.777161 0.000000
0.666595 0.773132 0.000000
0.734009 0.768982 0.000000
0.788757 0.763214 0.000000
0.843475 0.757446 0.000000
0.887573 0.749634 0.000000
0.928436 0.741547 0.000000
0.955444 0.730957 0.000000
0.973480 0.719513 0.000000
0.981842 0.704315 0.000000
0.991119 0.686523 0.000000
0.993652 0.659851 0.000000
0.999054 0.622406 0.000000
0.000000 0.727966 0.151642
0.000000 0.727905 0.151367
0.000000 0.727844 0.150970
0.000000 0.727783 0.150635
0.000000 0.727722 0.150269
0.000000 0.727631 0.149750
0.000000 0.727539 0.149261
0.000000 0.727386 0.148438
0.000000 0.727264 0.147766
0.000000 0.727081 0.146820
0.000000 0.726868 0.145813
0.000000 0.729553 0.141785
0.000000 0.734314 0.130951
0.000000 0.759888 0.111664
0.000000 0.798676 0.035126
0.000000 0.819550 0.000000
0.003204 0.823242 0.000000
0.071014 0.825195 0.000000
0.275024 0.824127 0.000000
0.453491 0.822601 0.000000
0.548004 0.819916 0.000000
0.637726 0.817017 0.000000
0.705109 0.812866 0.000000
0.772247 0.808655 0.000000
0.826965 0.802887 0.000000
0.881714 0.797119 0.000000
0.924194 0.789368 0.000000
0.962616 0.781403 0.000000
0.984833 0.770935 0.000000
0.989624 0.759796 0.000000
0.996552 0.744690 0.000000
0.996552 0.727448 0.000000
0.999054 0.700775 0.000000
0.000000 0.761841 0.221893
0.000000 0.761810 0.221710
0.000000 0.761749 0.221436
0.000000 0.761719 0.221222
0.000000 0.761658 0.220947
0.000000 0.761597 0.220673
0.000000 0.761536 0.220215
0.000000 0.761444 0.219849
0.000000 0.761322 0.219177
0.000000 0.761200 0.218597
0.000000 0.761017 0.217651
0.000000 0.760834 0.216705
0.000000 0.764618 0.207916
0.000000 0.769897 0.197754
0.000000 0.798126 0.144196
0.000000 0.837219 0.064850
0.001312 0.859467 0.009521
0.004883 0.863159 0.009521
0.116180 0.864410 0.000000
0.323059 0.863312 0.000000
0.495300 0.861633 0.000000
0.588348 0.858917 0.000000
0.675781 0.855774 0.000000
0.742920 0.851562 0.000000
0.809937 0.847321 0.000000
0.864655 0.841553 0.000000
0.918091 0.835754 0.000000
0.958282 0.828094 0.000000
0.988922 0.820221 0.000000
0.994904 0.810028 0.000000
0.999054 0.799103 0.000000
0.999054 0.784851 0.000000
0.999054 0.767639 0.000000
0.000000 0.794250 0.278992
0.000000 0.794220 0.278870
0.000000 0.794159 0.278687
0.000000 0.794128 0.278534
0.000000 0.794098 0.278351
0.000000 0.794067 0.278107
0.000000 0.794006 0.277863
0.000000 0.793915 0.277496
0.000000 0.793854 0.277161
0.000000 0.793732 0.276581
0.000000 0.793640 0.276123
0.000000 0.793457 0.275238
0.000000 0.793304 0.274445
0.000000 0.797577 0.266296
0.000000 0.804749 0.258728
0.000000 0.833282 0.202393
0.000000 0.876740 0.083832
0.001312 0.898987 0.028473
0.051086 0.901764 0.010773
0.165680 0.902954 0.000000
0.366150 0.901642 0.000000
0.536774 0.899902 0.000000
0.627136 0.896912 0.000000
0.713226 0.893646 0.000000
0.780243 0.889404 0.000000
0.847137 0.885132 0.000000
0.900574 0.879333 0.000000
0.952087 0.873474 0.000000
0.984467 0.865906 0.000000
0.993713 0.858337 0.000000
0.999054 0.848328 0.000000
0.999054 0.838623 0.000000
0.999054 0.824402 0.000000
0.000000 0.825531 0.332458
0.000000 0.825500 0.332367
0.000000 0.825470 0.332245
0.000000 0.825439 0.332123
0.000000 0.825409 0.331970
0.000000 0.825378 0.331818
0.000000 0.825348 0.331635
0.000000 0.825287 0.331421
0.000000 0.825226 0.331085
0.000000 0.825165 0.330780
0.000000 0.825073 0.330322
0.000000 0.824951 0.329865
0.000000 0.824799 0.329102
0.000000 0.824646 0.328339
0.000000 0.830353 0.322174
0.000000 0.837769 0.314667
0.000000 0.870270 0.233246
0.000000 0.913727 0.114655
0.027710 0.934540 0.061340
0.080780 0.937256 0.042358
0.221832 0.937408 0.024750
0.420685 0.936035 0.024750
0.576050 0.934204 0.017273
0.665070 0.931091 0.017273
