resources/LUTs/Exigent Films REC709 x33 (monitoring) LUTs/Exposure_-1.CUBE
#Created by: Adobe Photoshop Export Color Lookup Plugin
TITLE "exposure_-1"
#LUT size
LUT_3D_SIZE 9
#data domain
DOMAIN_MIN 0.0 0.0 0.0
DOMAIN_MAX 1.0 1.0 1.0
#LUT data points
0.000793 0.000885 0.000793
0.022644 0.000000 0.000977
0.085876 0.000000 0.000000
0.156219 0.000000 0.000000
0.231964 0.000000 0.000000
0.308380 0.000000 0.000000
0.384308 0.000000 0.000000
0.458252 0.000000 0.000000
0.530670 0.000000 0.000000
0.000000 0.030579 0.001617
0.033051 0.034973 0.000000
0.141205 0.019379 0.000000
0.229431 0.000000 0.000000
0.256317 0.000000 0.000000
0.307983 0.000000 0.000000
0.384125 0.000000 0.000000
0.458191 0.000000 0.000000
0.530640 0.000000 0.000000
0.000000 0.134338 0.000000
0.000397 0.152161 0.000000
0.152710 0.159760 0.000000
0.329559 0.129486 0.000000
0.446869 0.037201 0.000000
0.398132 0.000000 0.000000
0.383789 0.000000 0.000000
0.458038 0.000000 0.000000
0.530579 0.000000 0.000000
0.000000 0.277802 0.000000
0.000000 0.289307 0.000000
0.012817 0.334869 0.000000
0.322205 0.336304 0.000000
0.525879 0.307098 0.000000
0.664307 0.222137 0.000000
0.583221 0.038818 0.000000
0.457733 0.000000 0.000000
0.530426 0.000000 0.000000
0.000000 0.446655 0.000000
0.000000 0.445404 0.000000
0.000000 0.489594 0.000000
0.098877 0.526276 0.000000
0.494690 0.517944 0.000000
0.698090 0.489349 0.000000
0.823669 0.422394 0.000000
0.751404 0.136902 0.000000
0.530212 0.000000 0.000000
0.000000 0.616058 0.003204
0.000000 0.615509 0.002075
0.000000 0.615173 0.000427
0.000000 0.690063 0.000000
0.307831 0.701385 0.000000
0.656891 0.688263 0.000000
0.853058 0.660309 0.000000
0.947571 0.602844 0.000000
0.918060 0.213959 0.000000
0.000000 0.761841 0.221893
0.000000 0.761658 0.220947
0.000000 0.761322 0.219177
0.000000 0.764618 0.207916
0.001312 0.859467 0.009521
0.495300 0.861633 0.000000
0.809937 0.847321 0.000000
0.988922 0.820221 0.000000
0.999054 0.767639 0.000000
0.000000 0.884521 0.427155
0.000000 0.884460 0.426849
0.000000 0.884338 0.426300
0.000000 0.884064 0.425140
0.000000 0.892212 0.417694
0.067261 0.988464 0.204315
0.650024 0.985901 0.116180
0.937744 0.974640 0.095795
0.999054 0.952209 0.028168
0.000000 0.988007 0.592682
0.000000 0.988007 0.592560
0.000000 0.987976 0.592346
0.000000 0.987946 0.591919
0.000000 0.987885 0.590973
0.000000 0.992004 0.584137
0.128204 0.999054 0.424225
0.767914 0.999054 0.403168
0.992462 0.999054 0.412170
0.000519 0.000000 0.010681
0.037262 0.000000 0.022186
0.114685 0.000000 0.030121
0.194489 0.000000 0.029083
0.281342 0.000000 0.018341
0.350098 0.000000 0.003052
0.394440 0.000000 0.000000
0.458252 0.000000 0.000000
0.530670 0.000000 0.000000
0.000000 0.033905 0.028351
0.032135 0.032654 0.032257
0.163452 0.010193 0.028687
0.271759 0.000000 0.023499
0.310486 0.000000 0.018860
0.353485 0.000000 0.004639
0.397217 0.000000 0.000000
0.458191 0.000000 0.000000
0.530640 0.000000 0.000000
0.000000 0.144653 0.025787
0.000000 0.160645 0.013367
0.155426 0.164764 0.003174
0.351990 0.129089 0.000427
0.491180 0.030548 0.000000
0.457794 0.000000 0.000458
0.402039 0.000000 0.000000
0.458038 0.000000 0.000000
0.530579 0.000000 0.000000
0.000000 0.294617 0.004517
0.000000 0.306030 0.001007
0.010162 0.344604 0.000000
0.326599 0.341858 0.000000
0.546631 0.308716 0.000000
0.704895 0.212585 0.000000
0.622009 0.024384 0.000000
0.457733 0.000000 0.000000
0.530426 0.000000 0.000000
0.000000 0.462402 0.007599
0.000000 0.461334 0.006470
0.000000 0.501801 0.000000
0.071716 0.531799 0.000000
0.498474 0.521179 0.000000
0.716797 0.490356 0.000000
0.866302 0.417725 0.000000
0.760284 0.136841 0.000000
0.530212 0.000000 0.000000
0.000000 0.621857 0.076630
0.000000 0.621399 0.074921
0.000000 0.621338 0.070740
0.000000 0.692780 0.001160
0.293732 0.702179 0.000000
0.658600 0.688446 0.000000
0.870453 0.659637 0.000000
0.977203 0.600769 0.000000
0.920868 0.220703 0.000000
0.000000 0.762634 0.268707
0.000000 0.762482 0.268036
0.000000 0.762146 0.266815
0.000000 0.765625 0.259521
0.000000 0.859467 0.046234
0.490448 0.861206 0.011078
0.810364 0.846466 0.000000
0.990448 0.818787 0.000153
0.999054 0.767731 0.000000
0.000000 0.884338 0.442352
0.000000 0.884277 0.442078
0.000000 0.884155 0.441620
0.000000 0.883881 0.440552
0.000000 0.892120 0.433899
0.065216 0.988251 0.248566
0.648010 0.985474 0.174438
0.937317 0.973816 0.153229
0.999054 0.950287 0.052216
0.000000 0.987823 0.598419
0.000000 0.987823 0.598328
0.000000 0.987793 0.598114
0.000000 0.987762 0.597717
0.000000 0.987701 0.596771
0.000000 0.991882 0.590332
0.127869 0.999054 0.435791
0.767242 0.999054 0.416901
0.992004 0.999054 0.426025
0.000000 0.000000 0.054504
0.053101 0.000000 0.086334
0.151794 0.000000 0.113403
0.241486 0.000000 0.121765
0.341248 0.000000 0.124481
0.427094 0.000000 0.110443
0.486816 0.000000 0.068207
0.494598 0.000000 0.000549
0.530670 0.000000 0.000000
0.000000 0.027435 0.099182
0.020905 0.013031 0.123779
0.186676 0.000885 0.146301
0.319275 0.000000 0.150330
0.376709 0.000000 0.134827
0.428192 0.000000 0.113708
0.489105 0.000000 0.072388
0.497253 0.000000 0.001312
0.530640 0.000000 0.000000
0.000000 0.148041 0.134186
0.000000 0.158569 0.145691
0.150330 0.153046 0.153473
0.367035 0.103851 0.152039
0.532532 0.012756 0.146271
0.538086 0.000000 0.128998
0.493011 0.000000 0.079773
0.502472 0.000000 0.007446
0.530579 0.000000 0.000000
0.000000 0.304382 0.148163
0.000000 0.315216 0.146576
0.006897 0.343842 0.134949
0.325500 0.337036 0.123993
0.555878 0.300995 0.110840
0.738617 0.187347 0.098145
0.713531 0.009979 0.087860
0.514313 0.000000 0.020142
0.530457 0.000000 0.000000
0.000000 0.470184 0.158478
0.000000 0.469238 0.157532
0.000000 0.506409 0.124786
0.066406 0.529205 0.080383
0.497864 0.517487 0.072784
0.727112 0.485321 0.058228
0.904297 0.405792 0.033966
0.839325 0.125275 0.010651
0.530273 0.000000 0.000000
0.000000 0.625244 0.214630
0.000000 0.624847 0.213837
0.000000 0.625092 0.211731
0.000000 0.692474 0.102386
0.281555 0.699402 0.075378
0.658417 0.685425 0.054871
0.881287 0.655334 0.022919
0.997498 0.589966 0.000000
0.926392 0.229675 0.000000
0.000000 0.762878 0.326782
0.000000 0.762695 0.326324
0.000000 0.762390 0.325470
0.000000 0.766083 0.320862
0.000000 0.858459 0.179047
0.484619 0.859283 0.124390
0.810303 0.844330 0.089935
0.991516 0.815399 0.026001
0.999054 0.763367 0.000488
0.000000 0.883789 0.466431
0.000000 0.883728 0.466217
0.000000 0.883606 0.465820
0.000000 0.883362 0.464935
0.000000 0.891815 0.459595
0.061951 0.987885 0.312744
0.644867 0.984741 0.265076
0.936340 0.972046 0.238037
0.999054 0.946808 0.150726
0.000000 0.987518 0.608429
0.000000 0.987518 0.608337
0.000000 0.987518 0.608154
0.000000 0.987457 0.607758
0.000000 0.987366 0.606903
0.000000 0.991699 0.601196
0.127258 0.999054 0.455902
0.766235 0.999054 0.438538
0.991241 0.999054 0.449646
0.000000 0.000000 0.127991
0.057678 0.000000 0.178894
0.180847 0.000000 0.218689
0.279480 0.000000 0.224335
0.370575 0.000000 0.226288
0.463989 0.000000 0.223999
0.543640 0.000000 0.207916
0.603882 0.000000 0.166931
0.601532 0.000000 0.060181
0.000000 0.007019 0.196686
0.004272 0.000000 0.240723
0.195770 0.000000 0.276398
0.352539 0.000000 0.284973
0.431854 0.000000 0.259644
0.463776 0.000000 0.225189
0.543762 0.000000 0.209290
0.604462 0.000000 0.168884
0.602753 0.000000 0.062378
0.000000 0.136749 0.246307
0.000000 0.134949 0.280396
0.129486 0.107697 0.305450
0.373596 0.046356 0.315460
0.555145 0.001526 0.315338
0.594421 0.000000 0.273865
0.543976 0.000000 0.211731
0.605408 0.000000 0.172241
0.605865 0.000000 0.066589
0.000000 0.302612 0.282928
0.000000 0.312592 0.293274
0.004608 0.331818 0.315399
0.318481 0.320038 0.320557
0.554993 0.278625 0.320587
0.748596 0.144775 0.315582
0.767639 0.000000 0.276917
0.607208 0.000000 0.178925
0.612122 0.000000 0.075684
0.000000 0.469940 0.305511
0.000000 0.469025 0.305115
0.000000 0.503632 0.311554
0.056519 0.518921 0.314178
0.493622 0.506042 0.315063
0.725342 0.472504 0.309052
0.916473 0.384644 0.296814
0.910797 0.109192 0.257935
0.624390 0.000000 0.090881
0.000000 0.624481 0.338684
0.000000 0.624084 0.338287
0.000000 0.624725 0.337494
0.000000 0.687683 0.316620
0.271210 0.691315 0.307709
0.655579 0.676971 0.301605
0.884918 0.645844 0.281677
0.998871 0.573486 0.249359
0.991547 0.197937 0.157837
0.000000 0.761261 0.405579
0.000000 0.761108 0.405304
0.000000 0.760803 0.404785
0.000000 0.764954 0.402832
0.000000 0.855011 0.338135
0.477722 0.854095 0.316406
0.808655 0.838531 0.297394
0.992310 0.808350 0.265900
0.999054 0.752197 0.165436
0.000000 0.882355 0.507294
0.000000 0.882294 0.507141
0.000000 0.882172 0.506805
0.000000 0.881897 0.506165
0.000000 0.890778 0.502838
0.057220 0.986938 0.397186
0.640289 0.982941 0.367981
0.934235 0.968109 0.354919
0.999054 0.940582 0.324097
0.000000 0.986908 0.627747
0.000000 0.986908 0.627655
0.000000 0.986877 0.627502
0.000000 0.986847 0.627167
0.000000 0.986755 0.626404
0.000000 0.991364 0.622192
0.126068 0.999054 0.494415
0.764313 0.999054 0.479462
0.989716 0.999054 0.491577
0.000000 0.000000 0.256317
0.031769 0.000000 0.320862
0.201965 0.000000 0.364136
0.331329 0.000000 0.368134
0.384460 0.000000 0.318054
0.474609 0.000000 0.316803
0.556915 0.000000 0.308136
0.626801 0.000000 0.289276
0.684418 0.000000 0.251770
0.000000 0.000000 0.327484
0.000000 0.000000 0.387482
0.182312 0.000000 0.428650
0.374054 0.000000 0.438599
0.491516 0.000000 0.407745
0.482147 0.000000 0.322632
0.556732 0.000000 0.308655
0.626740 0.000000 0.289825
0.684509 0.000000 0.252533
0.000000 0.103821 0.369690
0.000000 0.077087 0.424896
0.081482 0.040985 0.460632
0.370880 0.007629 0.473816
0.565796 0.000000 0.475250
0.651886 0.000000 0.425415
0.559998 0.000000 0.311523
0.626678 0.000000 0.290833
0.684631 0.000000 0.253876
0.000000 0.290619 0.410065
0.000000 0.298279 0.434845
0.002228 0.304382 0.474731
0.302765 0.286804 0.482635
0.550812 0.233185 0.486267
0.749115 0.091827 0.485901
0.810303 0.000000 0.433960
0.626495 0.000000 0.292908
0.684814 0.000000 0.256683
0.000000 0.460968 0.436920
0.000000 0.460266 0.436951
0.000000 0.492523 0.468231
0.043152 0.501129 0.484009
0.485626 0.486664 0.487061
0.719666 0.451050 0.487427
0.916931 0.353180 0.483612
0.945587 0.088257 0.440613
0.685242 0.000000 0.262451
0.000000 0.617432 0.460602
0.000000 0.617035 0.460419
0.000000 0.618408 0.460999
0.000000 0.677032 0.479401
0.254639 0.677460 0.482819
0.650238 0.662598 0.483032
0.880920 0.630066 0.477356
0.998840 0.551300 0.466034
0.999054 0.186249 0.433411
0.000000 0.755737 0.500153
0.000000 0.755585 0.500000
0.000000 0.755280 0.499725
0.000000 0.760193 0.500092
0.000824 0.846771 0.486145
0.470642 0.843445 0.480957
0.804565 0.827240 0.476379
0.991974 0.796143 0.462311
0.999054 0.736053 0.440216
0.000000 0.878998 0.567993
0.000000 0.878937 0.567871
0.000000 0.878815 0.567657
0.000000 0.878571 0.567230
0.000000 0.888275 0.566864
0.052124 0.984894 0.508026
0.634979 0.978851 0.492401
0.929840 0.959442 0.485413
0.999054 0.930328 0.472046
0.000000 0.985687 0.661285
0.000000 0.985687 0.661224
0.000000 0.985657 0.661102
0.000000 0.985596 0.660858
0.000000 0.985504 0.660278
0.000000 0.990662 0.658600
0.124573 0.999054 0.557281
0.761688 0.999054 0.546631
0.986908 0.999054 0.559021
0.000000 0.000000 0.464722
0.000000 0.000000 0.529297
0.178253 0.000000 0.564636
0.373596 0.000000 0.570007
0.492126 0.000000 0.525726
0.474335 0.000000 0.399231
0.553711 0.000000 0.390564
0.625244 0.000000 0.377228
0.687256 0.000000 0.357361
0.000000 0.000000 0.498840
0.000000 0.000000 0.562988
0.126068 0.000000 0.600311
0.377350 0.000000 0.612244
0.547333 0.000000 0.596924
0.561798 0.000000 0.473785
0.553497 0.000000 0.390778
0.625153 0.000000 0.377441
0.687195 0.000000 0.357574
0.000000 0.068481 0.520294
0.000000 0.022369 0.583405
0.020447 0.003326 0.621460
0.353485 0.000000 0.633209
0.564880 0.000000 0.634277
0.712769 0.000000 0.604675
0.587372 0.000000 0.415375
0.625000 0.000000 0.377808
0.687134 0.000000 0.358002
0.000000 0.275146 0.533569
0.000000 0.274963 0.582916
0.000000 0.261078 0.631531
0.272186 0.235077 0.640106
0.541382 0.173828 0.643555
0.743774 0.056885 0.643829
0.865540 0.000000 0.604980
0.635559 0.000000 0.385376
0.686951 0.000000 0.358887
0.000000 0.446533 0.559204
0.000000 0.446564 0.561066
0.000000 0.474548 0.620087
0.040894 0.476410 0.641907
0.472565 0.460480 0.644135
0.712219 0.421173 0.646210
0.913055 0.307190 0.646637
0.980957 0.058075 0.607727
0.686737 0.000000 0.360840
0.000000 0.604309 0.578003
0.000000 0.603882 0.577911
0.000000 0.606384 0.580750
0.000000 0.660065 0.633148
0.234100 0.658173 0.640991
0.641693 0.642426 0.642731
0.873993 0.608459 0.642548
0.998596 0.523438 0.639221
0.999054 0.173279 0.611328
0.000000 0.745361 0.602203
0.000000 0.745178 0.602142
0.000000 0.744873 0.601990
0.000000 0.751129 0.605408
0.000427 0.833710 0.635529
0.461029 0.827667 0.637238
0.797974 0.810913 0.637115
0.990387 0.778534 0.632904
0.999054 0.714661 0.624237
0.000000 0.872406 0.645691
0.000000 0.872345 0.645630
0.000000 0.872223 0.645477
0.000000 0.871948 0.645203
0.000000 0.882660 0.648163
0.046204 0.981049 0.638367
0.630096 0.969391 0.631256
0.922272 0.944489 0.628540
0.999054 0.913574 0.621490
0.000000 0.983276 0.712708
0.000000 0.983276 0.712677
0.000000 0.983246 0.712585
0.000000 0.983185 0.712402
0.000000 0.983063 0.711975
0.000000 0.989410 0.714142
0.123901 0.999054 0.648132
0.759308 0.999054 0.641235
0.982025 0.998962 0.652374
0.000000 0.000000 0.692871
0.000000 0.000000 0.736053
0.095184 0.000000 0.758820
0.367950 0.000000 0.768066
0.556488 0.000000 0.760406
0.668182 0.000000 0.695068
0.541626 0.000000 0.461060
0.613739 0.000000 0.450073
0.676605 0.000000 0.435028
0.000000 0.000000 0.698914
0.000000 0.000000 0.744904
0.054413 0.000000 0.768646
0.352875 0.000000 0.778900
0.558197 0.000000 0.775970
0.709656 0.000000 0.743744
0.580139 0.000000 0.494446
0.613678 0.000000 0.450165
0.676575 0.000000 0.435120
0.000000 0.052856 0.698883
0.000000 0.032776 0.750763
0.004944 0.014587 0.777191
0.318512 0.003265 0.788361
0.551514 0.000000 0.789795
0.732117 0.000000 0.776703
0.762085 0.000000 0.652405
0.613739 0.000000 0.450531
0.676483 0.000000 0.435272
0.000000 0.273193 0.677124
0.000000 0.253845 0.743591
0.000000 0.219543 0.782227
0.224182 0.183075 0.794556
0.523743 0.131378 0.798096
0.733276 0.033356 0.797974
0.896851 0.000000 0.776550
0.688904 0.000000 0.508453
0.676300 0.000000 0.435638
0.000000 0.436951 0.669312
0.000000 0.440796 0.689697
0.000000 0.456726 0.770599
0.027222 0.449982 0.795624
0.451782 0.432892 0.798431
0.700806 0.388641 0.800598
0.905853 0.265045 0.802002
0.998657 0.045044 0.775391
0.683411 0.000000 0.441559
0.000000 0.589905 0.686310
0.000000 0.589478 0.686249
0.000000 0.595367 0.697540
0.000000 0.639496 0.783325
0.195953 0.634766 0.795349
0.628754 0.618164 0.796417
0.864899 0.583160 0.797821
0.998352 0.493561 0.798706
0.999054 0.164093 0.773895
0.000000 0.731812 0.703705
0.000000 0.731628 0.703644
0.000000 0.731323 0.703552
0.000000 0.740051 0.712219
0.000000 0.814819 0.786041
0.445221 0.807129 0.789673
0.788513 0.789215 0.789520
0.987762 0.756592 0.788422
0.999054 0.690796 0.786194
0.000000 0.862915 0.732971
0.000000 0.862854 0.732941
0.000000 0.862701 0.732849
0.000000 0.862427 0.732697
0.000000 0.874115 0.739899
0.037384 0.970856 0.779846
0.624756 0.950989 0.773376
0.912109 0.923676 0.769623
0.999054 0.892639 0.766235
0.000000 0.979156 0.780060
0.000000 0.979126 0.780029
0.000000 0.979095 0.779968
0.000000 0.979004 0.779846
0.000000 0.978851 0.779602
0.000000 0.986664 0.785950
0.125671 0.999054 0.760437
0.758606 0.998810 0.753784
0.975311 0.994324 0.760864
0.000000 0.021851 0.891418
0.000000 0.014954 0.905701
0.043549 0.006042 0.917786
0.325043 0.001587 0.927094
0.545685 0.000244 0.929688
0.727692 0.000000 0.921631
0.840637 0.000000 0.856995
0.596649 0.000000 0.512024
0.659790 0.000000 0.498749
0.000000 0.048279 0.891541
0.000000 0.033234 0.907196
0.021301 0.012512 0.920197
0.303070 0.002899 0.929871
0.539642 0.001282 0.933899
0.728241 0.000000 0.928345
0.865753 0.000000 0.885468
0.610931 0.000000 0.524536
0.659760 0.000000 0.498779
0.000000 0.117920 0.889191
0.000000 0.093597 0.908417
0.000305 0.055511 0.923401
0.263153 0.021820 0.933929
0.527008 0.003510 0.939117
0.726013 0.000092 0.936646
0.888428 0.000000 0.914185
0.684265 0.000000 0.588806
0.659698 0.000000 0.498871
0.000000 0.301788 0.872223
0.000000 0.285278 0.905457
0.000000 0.264160 0.925415
0.166077 0.231934 0.937927
0.496338 0.183319 0.944214
0.714691 0.091827 0.945496
0.900330 0.006531 0.936707
0.957458 0.000000 0.840546
0.659607 0.000000 0.499054
0.000000 0.455963 0.803314
0.000000 0.460419 0.867523
0.000000 0.456390 0.919434
0.012970 0.443085 0.939362
0.421906 0.421722 0.946289
0.681946 0.375824 0.948486
0.891479 0.256714 0.948761
0.999023 0.049866 0.934662
0.791138 0.000000 0.619202
0.000000 0.584564 0.782806
0.000000 0.584229 0.782776
0.000000 0.601746 0.837311
0.000000 0.623230 0.930023
0.143402 0.614136 0.944000
0.610535 0.597015 0.944885
0.851257 0.561646 0.945374
0.997803 0.477081 0.945679
0.999054 0.168365 0.927826
0.000000 0.719513 0.799133
0.000000 0.719330 0.799103
0.000000 0.719025 0.799042
0.000000 0.735321 0.826324
0.000000 0.792786 0.933868
0.416962 0.783997 0.938690
0.776367 0.766785 0.935486
0.985596 0.735138 0.932159
0.999054 0.672333 0.931213
0.000000 0.852020 0.822144
0.000000 0.851959 0.822113
0.000000 0.851807 0.822052
0.000000 0.851501 0.821960
0.000000 0.864136 0.834717
0.026001 0.950195 0.922302
0.618225 0.925781 0.910370
0.899200 0.899719 0.900299
0.998627 0.870728 0.894897
0.000000 0.973969 0.857758
0.000000 0.973938 0.857758
0.000000 0.973907 0.857697
0.000000 0.973785 0.857635
0.000000 0.973541 0.857483
0.000000 0.982727 0.868439
0.128967 0.999023 0.882111
0.760559 0.996399 0.868103
0.967560 0.978241 0.866943
0.000000 0.250824 0.999054
0.000000 0.241028 0.999054
0.021881 0.235535 0.999054
0.283875 0.220795 0.999054
0.517334 0.185150 0.999054
0.713593 0.112976 0.999054
0.892273 0.004578 0.999054
0.992615 0.000000 0.984558
0.639618 0.000000 0.552490
0.000000 0.278625 0.999054
0.000000 0.270294 0.999054
0.010223 0.266876 0.999054
0.265656 0.256775 0.999054
0.511230 0.225342 0.999054
0.710815 0.152283 0.999054
0.891754 0.032959 0.999054
0.997559 0.000000 0.990875
0.639679 0.000000 0.552582
0.000000 0.321838 0.999054
0.000000 0.316010 0.999054
0.000000 0.312347 0.999054
0.223572 0.303650 0.999054
0.497925 0.278595 0.999054
0.705566 0.217316 0.999054
0.890625 0.086609 0.999054
0.999054 0.000000 0.998016
0.641479 0.000000 0.554260
0.000000 0.401306 0.999054
0.000000 0.398315 0.999054
0.000000 0.397339 0.999054
0.132843 0.392670 0.999054
0.469635 0.373596 0.999054
0.692108 0.326477 0.999054
0.886414 0.211090 0.999054
0.999054 0.022156 0.999054
0.820984 0.000000 0.715088
0.000000 0.506378 0.999054
0.000000 0.504272 0.999054
0.000000 0.506042 0.999054
0.014343 0.505524 0.999054
0.401093 0.496338 0.999054
0.662567 0.471741 0.999054
0.871857 0.417755 0.999054
0.999054 0.237762 0.999054
0.999054 0.000000 0.991821
0.000000 0.613708 0.920624
0.000000 0.620392 0.959229
0.000000 0.633148 0.998871
0.000000 0.642090 0.999054
0.157410 0.639740 0.999054
0.597260 0.626160 0.999054
0.835693 0.598236 0.999054
0.998322 0.539429 0.999054
0.999054 0.338654 0.999054
0.000000 0.717682 0.886017
0.000000 0.717529 0.885986
0.000000 0.718689 0.889008
0.000000 0.756439 0.963226
0.003693 0.794861 0.999054
0.432617 0.786804 0.999054
0.765533 0.767181 0.999054
0.973480 0.737000 0.999054
0.999054 0.683624 0.999054
0.000000 0.842651 0.908203
0.000000 0.842590 0.908173
0.000000 0.842438 0.908142
0.000000 0.842163 0.908081
0.000000 0.873230 0.942871
0.041412 0.935242 0.999054
0.616943 0.906738 0.998535
0.885590 0.880157 0.997040
0.998138 0.853638 0.992981
0.000000 0.966644 0.936707
0.000000 0.966614 0.936707
0.000000 0.966553 0.936676
0.000000 0.966431 0.936646
0.000000 0.966156 0.936523
0.000000 0.976044 0.951935
0.134338 0.997650 0.987762
0.765717 0.981232 0.969757
0.958832 0.959015 0.959473
