resources/LUTs/Exigent Films REC709 x33 (monitoring) LUTs/Exposure_-4.CUBE
#Created by: Adobe Photoshop Export Color Lookup Plugin
TITLE "exposure_-4"
#LUT size
LUT_3D_SIZE 9
#data domain
DOMAIN_MIN 0.0 0.0 0.0
DOMAIN_MAX 1.0 1.0 1.0
#LUT data points
0.012970 0.013336 0.012939
0.019165 0.013000 0.013123
0.033051 0.011871 0.013153
0.069916 0.007843 0.012360
0.126831 0.001465 0.010132
0.190338 0.000000 0.006836
0.236725 0.000000 0.003357
0.291321 0.000000 0.000000
0.345856 0.000000 0.000000
0.011292 0.018494 0.013428
0.017731 0.018219 0.013489
0.032562 0.017120 0.013214
0.071411 0.013184 0.011658
0.131683 0.004303 0.008728
0.200500 0.000000 0.005768
0.248840 0.000000 0.002899
0.291687 0.000000 0.000000
0.346344 0.000000 0.000000
0.006409 0.030701 0.013428
0.012115 0.030823 0.013031
0.028931 0.030426 0.011841
0.071655 0.027557 0.009399
0.139648 0.015045 0.005585
0.217987 0.000214 0.003052
0.274780 0.000000 0.001831
0.292847 0.000000 0.000000
0.347229 0.000000 0.000000
0.000214 0.067383 0.009705
0.001190 0.067963 0.008575
0.011597 0.068665 0.006134
0.063293 0.068146 0.003113
0.150116 0.057343 0.000641
0.247864 0.022766 0.000000
0.328125 0.000000 0.000000
0.326477 0.000000 0.000000
0.349152 0.000000 0.000000
0.000000 0.136200 0.000336
0.000000 0.138367 0.000000
0.000000 0.141724 0.000000
0.009735 0.146240 0.000000
0.138306 0.145508 0.000000
0.276093 0.125885 0.000000
0.404724 0.061127 0.000000
0.463196 0.000000 0.000000
0.355957 0.000000 0.000000
0.000000 0.232147 0.000000
0.000000 0.236145 0.000000
0.000000 0.244049 0.000000
0.000000 0.258331 0.000000
0.022095 0.272675 0.000000
0.257874 0.270569 0.000000
0.440247 0.245117 0.000000
0.589386 0.171234 0.000000
0.608643 0.034332 0.000000
0.000000 0.365143 0.000000
0.000000 0.364929 0.000000
0.000000 0.366302 0.000000
0.000000 0.380615 0.000000
0.000000 0.416260 0.000000
0.064941 0.432281 0.000000
0.406769 0.425110 0.000000
0.608276 0.397217 0.000000
0.760406 0.328125 0.000000
0.000000 0.523010 0.000854
0.000000 0.522919 0.000854
0.000000 0.522705 0.000824
0.000000 0.522278 0.000793
0.000000 0.533142 0.000702
0.000000 0.592010 0.000000
0.188232 0.600067 0.000000
0.561676 0.588104 0.000000
0.765015 0.560394 0.000000
0.000000 0.673157 0.103455
0.000000 0.673126 0.103180
0.000000 0.673065 0.102661
0.000000 0.672882 0.101532
0.000000 0.672516 0.099091
0.000000 0.681305 0.076538
0.000000 0.757874 0.000000
0.398285 0.758820 0.000000
0.712402 0.745483 0.000000
0.012848 0.012909 0.016418
0.019318 0.012451 0.016846
0.033752 0.011108 0.017395
0.071625 0.006775 0.017456
0.129730 0.001068 0.015778
0.195038 0.000000 0.012268
0.242737 0.000000 0.009094
0.298065 0.000000 0.001038
0.353638 0.000000 0.000000
0.010895 0.018219 0.017273
0.017548 0.017792 0.017578
0.032928 0.016479 0.017792
0.072784 0.011871 0.017181
0.134521 0.003082 0.013947
0.205078 0.000000 0.010254
0.254883 0.000000 0.007965
0.298431 0.000000 0.001312
0.354095 0.000000 0.000000
0.005981 0.030579 0.018005
0.011383 0.030487 0.017883
0.028778 0.029877 0.017151
0.072632 0.026459 0.014771
0.142181 0.013672 0.009796
0.222412 0.000183 0.005310
0.281006 0.000000 0.004822
0.299652 0.000000 0.001801
0.354980 0.000000 0.000000
0.000031 0.067474 0.015411
0.000763 0.067963 0.014313
0.010498 0.068481 0.011841
0.063171 0.067688 0.007874
0.151672 0.056610 0.003448
0.251495 0.021698 0.000366
0.334045 0.000000 0.000000
0.334015 0.000000 0.001160
0.356873 0.000000 0.000000
0.000000 0.136963 0.005188
0.000000 0.139038 0.004333
0.000000 0.142242 0.002747
0.009308 0.146576 0.001038
0.138550 0.145905 0.000000
0.277985 0.126129 0.000000
0.409119 0.059967 0.000000
0.470184 0.000000 0.000000
0.363647 0.000000 0.000000
0.000000 0.233917 0.000000
0.000000 0.237854 0.000000
0.000000 0.245636 0.000000
0.000000 0.259766 0.000000
0.021759 0.273834 0.000000
0.258362 0.271362 0.000000
0.442322 0.245422 0.000000
0.593689 0.170380 0.000000
0.617065 0.032654 0.000000
0.000000 0.367340 0.000000
0.000000 0.367126 0.000000
0.000000 0.368500 0.000000
0.000000 0.382660 0.000000
0.000000 0.417664 0.000000
0.062073 0.433014 0.000000
0.407257 0.425690 0.000000
0.610535 0.397461 0.000000
0.764771 0.327576 0.000000
0.000000 0.524292 0.001373
0.000000 0.524170 0.001343
0.000000 0.523987 0.001343
0.000000 0.523560 0.001312
0.000000 0.534363 0.001221
0.000000 0.592590 0.000000
0.186371 0.600220 0.000000
0.562012 0.588287 0.000000
0.767059 0.560303 0.000000
0.000000 0.673584 0.120148
0.000000 0.673553 0.119904
0.000000 0.673462 0.119385
0.000000 0.673279 0.118317
0.000000 0.672913 0.115967
0.000000 0.681732 0.090179
0.000000 0.757935 0.000000
0.397400 0.758789 0.000000
0.712494 0.745392 0.000000
0.012390 0.011597 0.024109
0.019379 0.010895 0.025024
0.034912 0.009094 0.026550
0.074524 0.005219 0.028564
0.135010 0.000397 0.029053
0.203583 0.000000 0.026367
0.253815 0.000000 0.021667
0.310272 0.000000 0.009979
0.367676 0.000000 0.000000
0.010010 0.017151 0.025482
0.016968 0.016510 0.026276
0.033508 0.014648 0.027588
0.075256 0.009155 0.028900
0.139618 0.001312 0.028198
0.213379 0.000000 0.025116
0.265930 0.000000 0.020538
0.310608 0.000000 0.010315
0.368134 0.000000 0.000000
0.005066 0.030121 0.027435
0.009857 0.029785 0.027924
0.028351 0.028564 0.028351
0.074341 0.023865 0.028015
0.146606 0.010559 0.025299
0.230133 0.000000 0.021576
0.292236 0.000000 0.017181
0.312012 0.000000 0.010986
0.369019 0.000000 0.000000
0.000000 0.067505 0.027618
0.000183 0.067810 0.027008
0.008392 0.067932 0.025452
0.062683 0.066193 0.021057
0.154266 0.053802 0.013641
0.257660 0.018066 0.008240
0.344543 0.000000 0.007782
0.347778 0.000000 0.007751
0.370880 0.000000 0.000000
0.000000 0.138275 0.017120
0.000000 0.140167 0.015625
0.000000 0.143097 0.012543
0.008392 0.146912 0.007446
0.138794 0.146118 0.001770
0.281250 0.126221 0.000000
0.416534 0.057800 0.000000
0.482727 0.000000 0.000153
0.377655 0.000000 0.000275
0.000000 0.237000 0.003418
0.000000 0.240845 0.002563
0.000000 0.248383 0.001282
0.000000 0.261902 0.000061
0.020905 0.274994 0.000000
0.259003 0.272247 0.000000
0.445831 0.245850 0.000000
0.601135 0.168701 0.000000
0.631744 0.028900 0.000000
0.000000 0.370789 0.000397
0.000000 0.370575 0.000397
0.000000 0.372009 0.000336
0.000000 0.385925 0.000000
0.000000 0.419769 0.000000
0.057159 0.433960 0.000000
0.407959 0.426300 0.000000
0.614288 0.397705 0.000000
0.772339 0.326538 0.000000
0.000000 0.526306 0.007935
0.000000 0.526184 0.007751
0.000000 0.526001 0.007416
0.000000 0.525604 0.006714
0.000000 0.536346 0.003906
0.000000 0.593536 0.000000
0.183350 0.600433 0.000000
0.562317 0.588257 0.000000
0.770416 0.560028 0.000000
0.000000 0.674133 0.143616
0.000000 0.674103 0.143463
0.000000 0.674011 0.143158
0.000000 0.673859 0.142456
0.000000 0.673492 0.140930
0.000000 0.682434 0.113068
0.000000 0.758057 0.000000
0.395874 0.758728 0.000000
0.712616 0.745148 0.000000
0.010895 0.008118 0.045593
0.018738 0.007080 0.047455
0.036682 0.004852 0.050873
0.080322 0.001648 0.057343
0.146240 0.000000 0.062347
0.221039 0.000000 0.062683
0.277069 0.000000 0.056702
0.335205 0.000000 0.042664
0.396698 0.000000 0.014099
0.007751 0.013916 0.048218
0.014862 0.012756 0.049957
0.033844 0.009857 0.053162
0.080109 0.003998 0.059082
0.150452 0.000000 0.063324
0.230408 0.000000 0.063324
0.289124 0.000000 0.057098
0.335510 0.000000 0.043274
0.397125 0.000000 0.014557
0.002838 0.027252 0.052673
0.006226 0.026306 0.054199
0.025970 0.023804 0.056854
0.077545 0.016663 0.061127
0.155670 0.004456 0.063507
0.245941 0.000000 0.063293
0.315186 0.000000 0.057312
0.337311 0.000000 0.044342
0.397919 0.000000 0.015472
0.000000 0.066406 0.059174
0.000000 0.066345 0.059814
0.004303 0.065582 0.060669
0.060791 0.061462 0.061188
0.159271 0.044800 0.059204
0.269592 0.007721 0.055511
0.365295 0.000000 0.052124
0.376007 0.000000 0.044586
0.399628 0.000000 0.017456
0.000000 0.140137 0.055908
0.000000 0.141724 0.055115
0.000000 0.144073 0.053558
0.005951 0.146576 0.049072
0.138214 0.143829 0.040100
0.286499 0.121307 0.030823
0.429871 0.047150 0.022919
0.507446 0.000000 0.020752
0.406464 0.000000 0.021240
0.000000 0.241852 0.044403
0.000000 0.245544 0.041718
0.000000 0.252625 0.035950
0.000000 0.264771 0.025818
0.018860 0.275543 0.014313
0.259247 0.271698 0.007843
0.450836 0.244751 0.001129
0.614716 0.163055 0.001251
0.659973 0.020172 0.001404
0.000000 0.375793 0.032440
0.000000 0.375580 0.032257
0.000000 0.377045 0.030396
0.000000 0.390533 0.018555
0.000000 0.422424 0.001160
0.049713 0.434296 0.000000
0.408417 0.425964 0.000000
0.619781 0.396820 0.000000
0.786133 0.323761 0.000000
0.000000 0.529175 0.054169
0.000000 0.529083 0.053955
0.000000 0.528900 0.053619
0.000000 0.528534 0.053009
0.000000 0.539124 0.030945
0.000000 0.594421 0.000000
0.180573 0.600098 0.000000
0.562561 0.587769 0.000000
0.775543 0.559082 0.000000
0.000000 0.674957 0.178802
0.000000 0.674927 0.178650
0.000000 0.674835 0.178406
0.000000 0.674683 0.177856
0.000000 0.674347 0.176666
0.000000 0.683380 0.156647
0.000000 0.757843 0.009583
0.393158 0.758270 0.002258
0.712830 0.744659 0.000000
0.007172 0.001556 0.088593
0.015503 0.000763 0.091949
0.037170 0.000000 0.098022
0.087585 0.000000 0.109497
0.161926 0.000000 0.122131
0.245911 0.000000 0.127808
0.311523 0.000000 0.121948
0.372528 0.000000 0.110779
0.446167 0.000000 0.087189
0.003571 0.006683 0.092987
0.009979 0.005249 0.096161
0.031464 0.002808 0.101837
0.085297 0.000366 0.112915
0.165344 0.000000 0.125824
0.254211 0.000000 0.130890
0.324371 0.000000 0.124939
0.372620 0.000000 0.111206
0.446381 0.000000 0.087738
0.000000 0.019104 0.100922
0.001953 0.017181 0.103699
0.018860 0.012817 0.108704
0.079041 0.005157 0.118774
0.167542 0.000000 0.129913
0.267853 0.000000 0.135315
0.348907 0.000000 0.130219
0.375549 0.000000 0.112427
0.446808 0.000000 0.088684
0.000000 0.058777 0.114594
0.000000 0.057709 0.116760
0.001770 0.054565 0.120575
0.053284 0.045135 0.127960
0.165009 0.022858 0.134552
0.285553 0.002228 0.137848
0.394104 0.000000 0.135895
0.418610 0.000000 0.119751
0.447693 0.000000 0.090729
0.000000 0.138702 0.125488
0.000000 0.139832 0.126831
0.000000 0.141479 0.129028
0.002808 0.142120 0.132721
0.134460 0.135437 0.135590
0.292633 0.105896 0.134460
0.445587 0.023438 0.130066
0.541901 0.000000 0.124634
0.455170 0.000000 0.095490
0.000000 0.245697 0.128693
0.000000 0.249115 0.128723
0.000000 0.255463 0.128662
0.000000 0.265839 0.127472
0.014130 0.273407 0.123749
0.257965 0.267456 0.116241
0.454224 0.238312 0.107025
0.629059 0.144043 0.096100
0.700348 0.011230 0.092010
0.000000 0.380493 0.132843
0.000000 0.380280 0.132721
0.000000 0.381836 0.131653
0.000000 0.394775 0.123810
0.000000 0.423615 0.096588
0.043732 0.432281 0.079559
0.407593 0.423035 0.070587
0.622986 0.393219 0.053406
0.802063 0.315460 0.036438
0.000000 0.532227 0.151794
0.000000 0.532135 0.151642
0.000000 0.531982 0.151398
0.000000 0.531586 0.150879
0.000000 0.542084 0.139496
0.000000 0.594360 0.055756
0.178162 0.597931 0.037842
0.562042 0.585358 0.031433
0.780670 0.556061 0.021667
0.000000 0.676025 0.236969
0.000000 0.675995 0.236877
0.000000 0.675903 0.236694
0.000000 0.675751 0.236359
0.000000 0.675446 0.235565
0.000000 0.684753 0.224915
0.000000 0.757080 0.064514
0.388855 0.756714 0.040894
0.712646 0.742889 0.021912
0.000824 0.000000 0.156311
0.007507 0.000000 0.161316
0.028381 0.000000 0.170502
0.089325 0.000000 0.188019
0.176147 0.000000 0.206421
0.271210 0.000000 0.215302
0.348633 0.000000 0.207489
0.400208 0.000000 0.189758
0.483978 0.000000 0.179718
0.000000 0.000000 0.163239
0.003693 0.000000 0.168152
0.020416 0.000000 0.177094
0.084412 0.000000 0.193878
0.176605 0.000000 0.211517
0.278534 0.000000 0.221344
0.361603 0.000000 0.214081
0.400665 0.000000 0.190186
0.484009 0.000000 0.179962
0.000000 0.003265 0.175476
0.000183 0.002075 0.180054
0.007568 0.000916 0.188141
0.071991 0.000000 0.203339
0.175751 0.000000 0.219879
0.288483 0.000000 0.230164
0.383423 0.000000 0.224579
0.408173 0.000000 0.193481
0.484070 0.000000 0.180359
0.000000 0.035767 0.195404
0.000000 0.032776 0.199402
0.000000 0.027466 0.205933
0.030365 0.014313 0.218048
0.165436 0.002716 0.231903
0.299225 0.000000 0.241913
0.421448 0.000000 0.240692
0.460724 0.000000 0.212402
0.484161 0.000000 0.181244
0.000000 0.127197 0.214752
0.000000 0.127075 0.218018
0.000000 0.126434 0.223602
0.001007 0.122223 0.233276
0.119659 0.106201 0.244293
0.296509 0.058472 0.251221
0.458679 0.010193 0.253418
0.573151 0.000000 0.242798
0.503021 0.000000 0.188629
0.000000 0.244720 0.227570
0.000000 0.247681 0.230469
0.000000 0.252747 0.235382
0.000000 0.260681 0.243591
0.008636 0.264282 0.251526
0.252563 0.254517 0.254974
0.455414 0.220062 0.254822
0.637054 0.104218 0.250641
0.732971 0.000824 0.235352
0.000000 0.381897 0.241302
0.000000 0.381714 0.241241
0.000000 0.383545 0.241669
0.000000 0.395844 0.244263
0.000000 0.420624 0.246582
0.037720 0.425476 0.247375
0.404541 0.415039 0.246399
0.621765 0.383911 0.241180
0.810333 0.299316 0.230774
0.000000 0.533325 0.262177
0.000000 0.533234 0.262115
0.000000 0.533051 0.261993
0.000000 0.532715 0.261749
0.000000 0.543274 0.259521
0.000000 0.591278 0.236237
0.175110 0.591919 0.231934
0.559814 0.579041 0.228516
0.782104 0.549194 0.210175
0.000000 0.676025 0.314728
0.000000 0.675964 0.314697
0.000000 0.675903 0.314575
0.000000 0.675781 0.314362
0.000000 0.675476 0.313873
0.000000 0.685303 0.309387
0.000000 0.754303 0.244751
0.383240 0.752563 0.227234
0.711365 0.738495 0.208038
0.000000 0.000000 0.259888
0.000000 0.000000 0.266724
0.006592 0.000000 0.278870
0.072296 0.000000 0.299896
0.181335 0.000000 0.320709
0.294830 0.000000 0.331177
0.391663 0.000000 0.320557
0.419830 0.000000 0.274017
0.501953 0.000000 0.267212
0.000000 0.000000 0.268738
0.000000 0.000000 0.275238
0.002899 0.000000 0.286865
0.060822 0.000000 0.307343
0.179047 0.000000 0.328156
0.299103 0.000000 0.338928
0.401764 0.000000 0.328857
0.425842 0.000000 0.277863
0.501923 0.000000 0.267303
0.000000 0.000000 0.283142
0.000000 0.000000 0.289337
0.000000 0.000000 0.300323
0.039154 0.000000 0.319855
0.172363 0.000000 0.339600
0.304199 0.000000 0.351105
0.418884 0.000000 0.343018
0.449554 0.000000 0.292084
0.501862 0.000000 0.267487
0.000000 0.002014 0.303680
0.000000 0.000031 0.309631
0.000000 0.000000 0.319855
0.005829 0.000000 0.337494
0.151581 0.000000 0.355530
0.306580 0.000000 0.368439
0.446686 0.000000 0.366730
0.510010 0.000000 0.326630
0.501770 0.000000 0.267883
0.000000 0.093506 0.325623
0.000000 0.090210 0.331268
0.000000 0.084198 0.340729
0.000000 0.069702 0.356689
0.081543 0.045258 0.371979
0.294037 0.017212 0.383209
0.467560 0.002167 0.389679
0.601593 0.000000 0.375519
0.544037 0.000000 0.288879
0.000000 0.235077 0.341400
0.000000 0.236908 0.346710
0.000000 0.239594 0.355652
0.000000 0.243042 0.371246
0.003204 0.240570 0.385559
0.238739 0.224518 0.393219
0.453796 0.175262 0.397308
0.640442 0.050568 0.398102
0.760803 0.000000 0.377380
0.000000 0.376801 0.355377
0.000000 0.376648 0.355377
0.000000 0.379150 0.357880
0.000000 0.390533 0.368805
0.000000 0.409912 0.388153
0.033997 0.411133 0.395935
0.397522 0.398773 0.399231
0.617981 0.365387 0.399994
0.811035 0.271271 0.396332
0.000000 0.529449 0.376678
0.000000 0.529358 0.376648
0.000000 0.529205 0.376556
0.000000 0.528839 0.376404
0.000000 0.539856 0.380554
0.000000 0.582672 0.391754
0.168915 0.580566 0.395782
0.555481 0.567139 0.396484
0.778595 0.536163 0.392029
0.000000 0.672882 0.410675
0.000000 0.672852 0.410614
0.000000 0.672791 0.410553
0.000000 0.672638 0.410431
0.000000 0.672333 0.410156
0.000000 0.683014 0.410339
0.000000 0.747742 0.394531
0.376404 0.743835 0.391968
0.708099 0.729462 0.387177
0.000000 0.000000 0.412750
0.000000 0.000000 0.420746
0.000000 0.000000 0.434509
0.016937 0.000000 0.455933
0.157166 0.000000 0.475922
0.307190 0.000000 0.486084
0.436493 0.000000 0.474304
0.483154 0.000000 0.403564
0.505646 0.000000 0.348541
0.000000 0.000000 0.418701
0.000000 0.000000 0.426666
0.000000 0.000000 0.440277
0.011108 0.000000 0.461609
0.150116 0.000000 0.482086
0.307251 0.000000 0.493073
0.442383 0.000000 0.482819
0.498718 0.000000 0.416687
0.505585 0.000000 0.348602
0.000000 0.000000 0.428284
0.000000 0.000000 0.436127
0.000000 0.000000 0.449524
0.002716 0.000000 0.470734
0.136383 0.000000 0.490845
0.306396 0.000000 0.503418
0.451721 0.000000 0.496979
0.525391 0.000000 0.439087
0.505554 0.000000 0.348694
0.000000 0.000000 0.442719
0.000000 0.000000 0.450317
0.000000 0.000000 0.463409
0.000000 0.000000 0.484589
0.105682 0.000000 0.504272
0.301178 0.000000 0.517792
0.464325 0.000000 0.518585
0.573090 0.000000 0.479279
0.509857 0.000000 0.352203
0.000000 0.038879 0.460175
0.000000 0.035583 0.467499
0.000000 0.029602 0.480103
0.000000 0.019867 0.501251
0.038635 0.010040 0.519287
0.279388 0.002533 0.531158
0.467712 0.000000 0.537292
0.625671 0.000000 0.526337
0.605103 0.000000 0.414795
0.000000 0.211487 0.471680
0.000000 0.210754 0.478485
0.000000 0.208984 0.490295
0.000000 0.202789 0.511719
0.001984 0.186127 0.531647
0.206177 0.154633 0.539673
0.446594 0.089966 0.544861
0.638184 0.033905 0.547028
0.784210 0.000000 0.528076
0.000000 0.364716 0.473480
0.000000 0.365662 0.475800
0.000000 0.368683 0.482727
0.000000 0.377655 0.502838
0.000000 0.389099 0.533661
0.030579 0.386536 0.544556
0.384369 0.371887 0.547791
0.612061 0.334991 0.550110
0.807556 0.211487 0.550537
0.000000 0.518982 0.494141
0.000000 0.518921 0.494141
0.000000 0.518738 0.494080
0.000000 0.518402 0.493988
0.000000 0.530884 0.506104
0.000000 0.567047 0.542084
0.158997 0.563385 0.547180
0.548065 0.548920 0.549255
0.772675 0.516022 0.549286
0.000000 0.664337 0.516724
0.000000 0.664307 0.516724
0.000000 0.664246 0.516663
0.000000 0.664093 0.516602
0.000000 0.663788 0.516449
0.000000 0.675964 0.522339
0.000519 0.735657 0.542023
0.365295 0.730042 0.544586
0.702698 0.715210 0.544495
0.000000 0.000000 0.600922
0.000000 0.000000 0.608490
0.000000 0.000000 0.619934
0.000000 0.000000 0.635590
0.083832 0.000000 0.652161
0.292938 0.000000 0.663940
0.464081 0.000000 0.663147
0.593842 0.000000 0.627533
0.512634 0.000000 0.433777
0.000000 0.000000 0.603241
0.000000 0.000000 0.610840
0.000000 0.000000 0.622375
0.000000 0.000000 0.638092
0.076508 0.000000 0.654602
0.289917 0.000000 0.666229
0.464661 0.000000 0.666565
0.599731 0.000000 0.634766
0.528870 0.000000 0.447632
0.000000 0.000000 0.607239
0.000000 0.000000 0.614868
0.000000 0.000000 0.626556
0.000000 0.000000 0.642395
0.063446 0.000000 0.658813
0.284546 0.000000 0.670197
0.464935 0.000000 0.671722
0.609589 0.000000 0.646912
0.559021 0.000000 0.473358
0.000000 0.000000 0.612793
0.000000 0.000000 0.620300
0.000000 0.000000 0.632324
0.000000 0.000000 0.648956
0.036041 0.000000 0.665527
0.272308 0.000000 0.677124
0.463562 0.000000 0.679962
0.622192 0.000000 0.664032
0.625305 0.000000 0.529938
0.000000 0.020905 0.619781
0.000000 0.019104 0.627014
0.000000 0.016449 0.639404
0.000000 0.010406 0.657684
0.000000 0.002747 0.674438
0.239166 0.000000 0.684998
0.455505 0.000000 0.689331
0.631989 0.000000 0.682526
0.737457 0.000000 0.627014
0.000000 0.170532 0.620117
0.000000 0.166504 0.627502
0.000000 0.159790 0.640289
0.000000 0.145996 0.662170
0.000000 0.121063 0.682098
0.145874 0.085358 0.691711
0.429718 0.050873 0.695435
0.629303 0.020050 0.696136
0.794983 0.000000 0.681915
0.000000 0.354095 0.600433
0.000000 0.355011 0.606995
0.000000 0.356842 0.619385
0.000000 0.361115 0.646790
0.000000 0.362549 0.681274
0.015564 0.355469 0.694916
0.362885 0.337219 0.697327
0.601959 0.287415 0.699707
0.801056 0.148407 0.701477
0.000000 0.504272 0.607086
0.000000 0.504181 0.607056
0.000000 0.504028 0.607056
0.000000 0.504272 0.608032
0.000000 0.520508 0.638916
0.000000 0.544495 0.689575
0.129028 0.539795 0.696777
0.536133 0.524719 0.698578
0.764832 0.489075 0.700226
0.000000 0.650848 0.623962
0.000000 0.650818 0.623962
0.000000 0.650726 0.623932
0.000000 0.650604 0.623901
0.000000 0.650269 0.623810
0.000000 0.664764 0.637909
0.001007 0.717163 0.690338
0.343445 0.710815 0.694153
0.694336 0.695129 0.695435
