resources/LUTs/Exigent Films REC709 x33 (monitoring) LUTs/Exposure_-0.CUBE
#Created by: Adobe Photoshop Export Color Lookup Plugin
TITLE "exposure_-0"
#LUT size
LUT_3D_SIZE 33
#data domain
DOMAIN_MIN 0.0 0.0 0.0
DOMAIN_MAX 1.0 1.0 1.0
#LUT data points
0.000000 0.000000 0.000000
0.000702 0.000000 0.000000
0.002014 0.000000 0.000000
0.015381 0.000000 0.000000
0.030579 0.000000 0.000000
0.052765 0.000000 0.000000
0.077484 0.000000 0.000000
0.100616 0.000000 0.000000
0.122650 0.000000 0.000000
0.145081 0.000000 0.000000
0.167969 0.000000 0.000000
0.190613 0.000000 0.000000
0.212769 0.000000 0.000000
0.234619 0.000000 0.000000
0.255432 0.000000 0.000000
0.276184 0.000000 0.000000
0.296326 0.000000 0.000000
0.316467 0.000000 0.000000
0.335999 0.000000 0.000000
0.355469 0.000000 0.000000
0.374542 0.000000 0.000000
0.393524 0.000000 0.000000
0.412323 0.000000 0.000000
0.431000 0.000000 0.000000
0.449585 0.000000 0.000000
0.468079 0.000000 0.000000
0.486450 0.000000 0.000000
0.504669 0.000000 0.000000
0.522797 0.000000 0.000000
0.540558 0.000000 0.000000
0.558258 0.000000 0.000000
0.575439 0.000000 0.000000
0.592621 0.000000 0.000000
0.000000 0.001678 0.000122
0.002197 0.002472 0.000000
0.003510 0.002472 0.000000
0.021271 0.001373 0.000000
0.037170 0.001190 0.000000
0.061432 0.000000 0.000000
0.086884 0.000000 0.000000
0.107422 0.000000 0.000000
0.127716 0.000000 0.000000
0.148376 0.000000 0.000000
0.169220 0.000000 0.000000
0.191345 0.000000 0.000000
0.212402 0.000000 0.000000
0.234283 0.000000 0.000000
0.255157 0.000000 0.000000
0.275909 0.000000 0.000000
0.296143 0.000000 0.000000
0.316284 0.000000 0.000000
0.335876 0.000000 0.000000
0.355377 0.000000 0.000000
0.374481 0.000000 0.000000
0.393463 0.000000 0.000000
0.412262 0.000000 0.000000
0.430969 0.000000 0.000000
0.449554 0.000000 0.000000
0.468048 0.000000 0.000000
0.486420 0.000000 0.000000
0.504669 0.000000 0.000000
0.522766 0.000000 0.000000
0.540558 0.000000 0.000000
0.558258 0.000000 0.000000
0.575439 0.000000 0.000000
0.592621 0.000000 0.000000
0.000000 0.003937 0.000824
0.002472 0.004730 0.000183
0.005005 0.005524 0.000000
0.022766 0.004425 0.000000
0.043091 0.003143 0.000000
0.067993 0.001678 0.000000
0.095551 0.000000 0.000000
0.116821 0.000000 0.000000
0.134552 0.000000 0.000000
0.153473 0.000000 0.000000
0.172516 0.000000 0.000000
0.192596 0.000000 0.000000
0.213104 0.000000 0.000000
0.233917 0.000000 0.000000
0.254822 0.000000 0.000000
0.275665 0.000000 0.000000
0.295898 0.000000 0.000000
0.316132 0.000000 0.000000
0.335724 0.000000 0.000000
0.355255 0.000000 0.000000
0.374359 0.000000 0.000000
0.393372 0.000000 0.000000
0.412201 0.000000 0.000000
0.430908 0.000000 0.000000
0.449493 0.000000 0.000000
0.468018 0.000000 0.000000
0.486389 0.000000 0.000000
0.504639 0.000000 0.000000
0.522766 0.000000 0.000000
0.540527 0.000000 0.000000
0.558228 0.000000 0.000000
0.575439 0.000000 0.000000
0.592621 0.000000 0.000000
0.000000 0.025482 0.000305
0.000092 0.026245 0.000214
0.002625 0.027039 0.000000
0.027832 0.028900 0.000000
0.048126 0.027618 0.000000
0.088654 0.022461 0.000000
0.118896 0.020020 0.000000
0.150970 0.011139 0.000000
0.173309 0.007507 0.000000
0.193665 0.003235 0.000000
0.214447 0.000000 0.000000
0.229431 0.000000 0.000000
0.242676 0.000000 0.000000
0.257935 0.000000 0.000000
0.261078 0.000000 0.000000
0.281433 0.000000 0.000000
0.295715 0.000000 0.000000
0.315948 0.000000 0.000000
0.335571 0.000000 0.000000
0.355133 0.000000 0.000000
0.374268 0.000000 0.000000
0.393311 0.000000 0.000000
0.412140 0.000000 0.000000
0.430847 0.000000 0.000000
0.449463 0.000000 0.000000
0.467987 0.000000 0.000000
0.486359 0.000000 0.000000
0.504608 0.000000 0.000000
0.522736 0.000000 0.000000
0.540527 0.000000 0.000000
0.558228 0.000000 0.000000
0.575409 0.000000 0.000000
0.592621 0.000000 0.000000
0.000000 0.049988 0.000000
0.000000 0.050751 0.000000
0.000000 0.051514 0.000000
0.025024 0.053375 0.000000
0.053711 0.055389 0.000000
0.094238 0.050201 0.000000
0.142120 0.043610 0.000000
0.176910 0.034088 0.000000
0.211975 0.020508 0.000000
0.236969 0.012573 0.000000
0.260315 0.003387 0.000000
0.277008 0.000000 0.000000
0.283875 0.000000 0.000000
0.291840 0.000000 0.000000
0.286133 0.000000 0.000000
0.288727 0.000000 0.000000
0.301514 0.000000 0.000000
0.315765 0.000000 0.000000
0.335388 0.000000 0.000000
0.355011 0.000000 0.000000
0.374146 0.000000 0.000000
0.393219 0.000000 0.000000
0.412048 0.000000 0.000000
0.430786 0.000000 0.000000
0.449402 0.000000 0.000000
0.467926 0.000000 0.000000
0.486359 0.000000 0.000000
0.504608 0.000000 0.000000
0.522705 0.000000 0.000000
0.540497 0.000000 0.000000
0.558197 0.000000 0.000000
0.575409 0.000000 0.000000
0.592590 0.000000 0.000000
0.000000 0.085938 0.000000
0.000000 0.086548 0.000000
0.000000 0.087311 0.000000
0.003601 0.095978 0.000000
0.032288 0.097992 0.000000
0.097260 0.100311 0.000000
0.145142 0.093719 0.000000
0.199188 0.087250 0.000000
0.237366 0.074615 0.000000
0.276764 0.060699 0.000000
0.305725 0.050171 0.000000
0.332275 0.034088 0.000000
0.349609 0.022034 0.000000
0.357513 0.015747 0.000000
0.361237 0.000000 0.000000
0.353790 0.000000 0.000000
0.336945 0.000000 0.000000
0.349701 0.000000 0.000000
0.335236 0.000000 0.000000
0.354828 0.000000 0.000000
0.374054 0.000000 0.000000
0.393097 0.000000 0.000000
0.411987 0.000000 0.000000
0.430725 0.000000 0.000000
0.449371 0.000000 0.000000
0.467896 0.000000 0.000000
0.486298 0.000000 0.000000
0.504547 0.000000 0.000000
0.522705 0.000000 0.000000
0.540497 0.000000 0.000000
0.558197 0.000000 0.000000
0.575378 0.000000 0.000000
0.592590 0.000000 0.000000
0.000000 0.126068 0.000000
0.000000 0.126617 0.000000
0.000000 0.127197 0.000000
0.000000 0.137115 0.000000
0.004089 0.147156 0.000000
0.069061 0.149506 0.000000
0.147217 0.151978 0.000000
0.201263 0.145477 0.000000
0.259430 0.139069 0.000000
0.301941 0.126129 0.000000
0.346283 0.111908 0.000000
0.378479 0.094482 0.000000
0.411530 0.064575 0.000000
0.429871 0.046417 0.000000
0.441864 0.015747 0.000000
0.443848 0.000000 0.000000
0.412201 0.000000 0.000000
0.395355 0.000000 0.000000
0.371735 0.000000 0.000000
0.354645 0.000000 0.000000
0.373871 0.000000 0.000000
0.393005 0.000000 0.000000
0.411865 0.000000 0.000000
0.430664 0.000000 0.000000
0.449280 0.000000 0.000000
0.467834 0.000000 0.000000
0.486267 0.000000 0.000000
0.504517 0.000000 0.000000
0.522644 0.000000 0.000000
0.540466 0.000000 0.000000
0.558167 0.000000 0.000000
0.575378 0.000000 0.000000
0.592590 0.000000 0.000000
0.000000 0.167236 0.000000
0.000000 0.167145 0.000000
0.000000 0.167664 0.000000
0.000000 0.180176 0.000000
0.000031 0.191467 0.000000
0.030884 0.202759 0.000000
0.109039 0.205231 0.000000
0.199158 0.206421 0.000000
0.257324 0.200012 0.000000
0.316284 0.194031 0.000000
0.362701 0.180969 0.000000
0.408203 0.167755 0.000000
0.445160 0.142853 0.000000
0.479370 0.114838 0.000000
0.502136 0.088226 0.000000
0.515015 0.056671 0.000000
0.513885 0.033264 0.000000
0.482239 0.033264 0.000000
0.457672 0.000000 0.000000
0.431427 0.000000 0.000000
0.382141 0.000000 0.000000
0.401276 0.000000 0.000000
0.411743 0.000000 0.000000
0.430542 0.000000 0.000000
0.449219 0.000000 0.000000
0.467773 0.000000 0.000000
0.486206 0.000000 0.000000
0.504486 0.000000 0.000000
0.522614 0.000000 0.000000
0.540436 0.000000 0.000000
0.558136 0.000000 0.000000
0.575348 0.000000 0.000000
0.592560 0.000000 0.000000
0.000000 0.209076 0.000000
0.000000 0.208557 0.000000
0.000000 0.208466 0.000000
0.000000 0.222137 0.000000
0.000000 0.236633 0.000000
0.024475 0.249390 0.000000
0.064209 0.261200 0.000000
0.154327 0.262390 0.000000
0.252411 0.262756 0.000000
0.311371 0.256775 0.000000
0.371216 0.251251 0.000000
0.418793 0.239197 0.000000
0.466553 0.228027 0.000000
0.504700 0.204987 0.000000
0.543579 0.184509 0.000000
0.567200 0.157043 0.000000
0.592773 0.113129 0.000000
0.591644 0.089722 0.000000
0.568207 0.037018 0.000000
0.544250 0.000000 0.000000
0.475159 0.000000 0.000000
0.415131 0.000000 0.000000
0.424713 0.000000 0.000000
0.430420 0.000000 0.000000
0.449097 0.000000 0.000000
0.467682 0.000000 0.000000
0.486145 0.000000 0.000000
0.504425 0.000000 0.000000
0.522583 0.000000 0.000000
0.540375 0.000000 0.000000
0.558105 0.000000 0.000000
0.575317 0.000000 0.000000
0.592529 0.000000 0.000000
0.000000 0.252869 0.000000
0.000000 0.252167 0.000000
0.000000 0.251648 0.000000
0.000000 0.262329 0.000000
0.000000 0.277985 0.000000
0.008423 0.296661 0.000000
0.042267 0.309906 0.000000
0.114655 0.317627 0.000000
0.212738 0.317963 0.000000
0.304321 0.317444 0.000000
0.364166 0.311920 0.000000
0.423370 0.306519 0.000000
0.472473 0.296112 0.000000
0.520050 0.285278 0.000000
0.561035 0.267761 0.000000
0.599945 0.247559 0.000000
0.631012 0.214661 0.000000
0.656586 0.170746 0.000000
0.661224 0.126923 0.000000
0.638367 0.070465 0.000000
0.608063 0.015228 0.000000
0.528259 0.015228 0.000000
0.450745 0.000000 0.000000
0.455536 0.000000 0.000000
0.448975 0.000000 0.000000
0.467560 0.000000 0.000000
0.486053 0.000000 0.000000
0.504364 0.000000 0.000000
0.522522 0.000000 0.000000
0.540344 0.000000 0.000000
0.558075 0.000000 0.000000
0.575287 0.000000 0.000000
0.592499 0.000000 0.000000
0.000000 0.298889 0.000000
0.000000 0.297974 0.000000
0.000000 0.297272 0.000000
0.000000 0.305511 0.000000
0.000000 0.317505 0.000000
0.000000 0.338898 0.000000
0.008423 0.359619 0.000000
0.080811 0.367950 0.000000
0.178925 0.372375 0.000000
0.270508 0.371826 0.000000
0.354614 0.370239 0.000000
0.413818 0.364838 0.000000
0.471710 0.359589 0.000000
0.520630 0.349548 0.000000
0.567413 0.340118 0.000000
0.608429 0.322876 0.000000
0.647797 0.306519 0.000000
0.678864 0.273651 0.000000
0.707764 0.241577 0.000000
0.712646 0.198608 0.000000
0.709534 0.111969 0.000000
0.684113 0.049164 0.000000
0.583405 0.026550 0.000000
0.495422 0.000000 0.000000
0.486237 0.000000 0.000000
0.467468 0.000000 0.000000
0.485931 0.000000 0.000000
0.504272 0.000000 0.000000
0.522461 0.000000 0.000000
0.540283 0.000000 0.000000
0.558044 0.000000 0.000000
0.575256 0.000000 0.000000
0.592468 0.000000 0.000000
0.000000 0.345245 0.000000
0.000000 0.344421 0.000000
0.000000 0.343506 0.000000
0.000000 0.348633 0.000000
0.000000 0.358185 0.000000
0.000000 0.379272 0.000000
0.000000 0.402710 0.000000
0.027252 0.417847 0.000000
0.125366 0.422913 0.000000
0.238342 0.425720 0.000000
0.322479 0.424164 0.000000
0.403992 0.422180 0.000000
0.461884 0.416962 0.000000
0.519196 0.411652 0.000000
0.567108 0.402771 0.000000
0.613678 0.393402 0.000000
0.654083 0.379120 0.000000
0.693420 0.362762 0.000000
0.725830 0.338409 0.000000
0.754974 0.307190 0.000000
0.771637 0.248535 0.000000
0.773438 0.154358 0.000000
0.741425 0.090668 0.000000
0.630249 0.056763 0.000000
0.532928 0.000000 0.000000
0.511505 0.000000 0.000000
0.485840 0.000000 0.000000
0.504181 0.000000 0.000000
0.522369 0.000000 0.000000
0.540222 0.000000 0.000000
0.557983 0.000000 0.000000
0.575226 0.000000 0.000000
0.592438 0.000000 0.000000
0.000000 0.392181 0.000000
0.000000 0.391510 0.000000
0.000000 0.390686 0.000000
0.000000 0.390991 0.000000
0.000000 0.396332 0.000000
0.000000 0.418976 0.000000
0.000000 0.444794 0.000000
0.002441 0.462158 0.000000
0.032349 0.473236 0.000000
0.153900 0.476410 0.000000
0.293671 0.477081 0.000000
0.375183 0.475128 0.000000
0.451477 0.472412 0.000000
0.508789 0.467102 0.000000
0.563904 0.461578 0.000000
0.611572 0.452759 0.000000
0.654938 0.444153 0.000000
0.695343 0.429871 0.000000
0.732361 0.416046 0.000000
0.764587 0.391876 0.000000
0.794403 0.365356 0.000000
0.811218 0.307922 0.000000
0.820709 0.234558 0.000000
0.792511 0.181305 0.000000
0.674805 0.099030 0.000000
0.571777 0.000000 0.000000
0.542084 0.000000 0.000000
0.504059 0.000000 0.000000
0.522278 0.000000 0.000000
0.540161 0.000000 0.000000
0.557922 0.000000 0.000000
0.575165 0.000000 0.000000
0.592407 0.000000 0.000000
0.000000 0.439178 0.000000
0.000000 0.438568 0.000000
0.000000 0.437897 0.000000
0.000000 0.438049 0.000000
0.000000 0.438538 0.000000
0.000000 0.454987 0.000000
0.000000 0.482422 0.000000
0.001434 0.505035 0.000000
0.006531 0.518311 0.000000
0.061035 0.526459 0.000000
0.209381 0.527466 0.000000
0.346588 0.527527 0.000000
0.422882 0.524811 0.000000
0.498230 0.521881 0.000000
0.553345 0.516388 0.000000
0.608307 0.510864 0.000000
0.652985 0.502655 0.000000
0.696350 0.494049 0.000000
0.734192 0.481812 0.000000
0.771027 0.468170 0.000000
0.802612 0.447815 0.000000
0.832611 0.422485 0.000000
0.854553 0.380432 0.000000
0.867889 0.317505 0.000000
0.836639 0.236877 0.000000
0.713196 0.112335 0.000000
0.607086 0.000000 0.000000
0.565033 0.000000 0.000000
0.522156 0.000000 0.000000
0.540039 0.000000 0.000000
0.557831 0.000000 0.000000
0.575104 0.000000 0.000000
0.592346 0.000000 0.000000
0.000000 0.486450 0.000000
0.000000 0.485992 0.000000
0.000000 0.485382 0.000000
0.000000 0.484833 0.000000
0.000000 0.484955 0.000000
0.000000 0.491364 0.000000
0.000000 0.509979 0.000000
0.000000 0.540009 0.000000
0.001434 0.564392 0.000000
0.032776 0.573303 0.000000
0.117310 0.576447 0.000000
0.263062 0.576660 0.000000
0.395142 0.575104 0.000000
0.470520 0.572174 0.000000
0.542206 0.568512 0.000000
0.597198 0.562988 0.000000
0.650360 0.557312 0.000000
0.695038 0.549103 0.000000
0.734955 0.540771 0.000000
0.772552 0.528534 0.000000
0.804871 0.516083 0.000000
0.835327 0.496033 0.000000
0.864502 0.473419 0.000000
0.886078 0.432709 0.000000
0.902100 0.377350 0.000000
0.873199 0.303314 0.000000
0.751831 0.152191 0.000000
0.648834 0.000000 0.000000
0.600372 0.000000 0.000000
0.539948 0.000000 0.000000
0.557739 0.000000 0.000000
0.575043 0.000000 0.000000
0.592285 0.000000 0.000000
0.000000 0.533691 0.000000
0.000000 0.533234 0.000000
0.000000 0.532745 0.000000
0.000000 0.532227 0.000000
0.000000 0.531708 0.000000
0.000000 0.537231 0.000000
0.000000 0.545776 0.000000
0.000000 0.567749 0.000000
0.000000 0.599548 0.000000
0.023926 0.619354 0.000000
0.085266 0.623260 0.000000
0.172821 0.625488 0.000000
0.313477 0.624084 0.000000
0.442902 0.622314 0.000000
0.514587 0.618652 0.000000
0.586060 0.614960 0.000000
0.639221 0.609283 0.000000
0.692413 0.603577 0.000000
0.733795 0.595612 0.000000
0.773468 0.587280 0.000000
0.806793 0.576141 0.000000
0.837982 0.563995 0.000000
0.867218 0.546417 0.000000
0.895996 0.525146 0.000000
0.919800 0.491211 0.000000
0.938171 0.442474 0.000000
0.910614 0.346771 0.000000
0.792389 0.155762 0.000000
0.687653 0.000000 0.000000
0.621613 0.000000 0.000000
0.557648 0.000000 0.000000
0.574921 0.000000 0.000000
0.592224 0.000000 0.000000
0.000000 0.580139 0.000000
0.000000 0.579865 0.000000
0.000000 0.579407 0.000000
0.000000 0.579071 0.000000
0.000000 0.578583 0.000000
0.000000 0.578125 0.000000
0.000000 0.583679 0.000000
0.000000 0.601624 0.000000
0.000000 0.629913 0.000000
0.000000 0.655670 0.000000
0.023926 0.668549 0.000000
0.110596 0.671204 0.000000
0.248840 0.670929 0.000000
0.383331 0.669312 0.000000
0.488098 0.666748 0.000000
0.559570 0.663055 0.000000
0.627960 0.658936 0.000000
0.681122 0.653259 0.000000
0.733185 0.647308 0.000000
0.774475 0.639313 0.000000
0.812592 0.631042 0.000000
0.845520 0.619904 0.000000
0.871796 0.608215 0.000000
0.898560 0.590851 0.000000
0.926239 0.570770 0.000000
0.949066 0.537842 0.000000
0.965179 0.491882 0.000000
0.934235 0.400391 0.000000
0.828186 0.195099 0.000000
0.757019 0.000000 0.000000
0.684021 0.000000 0.000000
0.574921 0.000000 0.000000
0.592224 0.000000 0.000000
0.000000 0.626617 0.000000
0.000000 0.626343 0.000000
0.000000 0.626068 0.000000
0.000000 0.625732 0.000000
0.000000 0.625427 0.000000
0.000000 0.625000 0.000000
0.000000 0.624573 0.000000
0.000000 0.639526 0.000000
0.000000 0.663788 0.000000
0.000000 0.686005 0.000000
0.000000 0.704895 0.000000
0.049286 0.716522 0.000000
0.186646 0.716644 0.000000
0.318695 0.716156 0.000000
0.428558 0.713745 0.000000
0.533081 0.711151 0.000000
0.601471 0.707031 0.000000
0.669830 0.702911 0.000000
0.721893 0.696991 0.000000
0.773865 0.691040 0.000000
0.813599 0.683075 0.000000
0.851349 0.674805 0.000000
0.879333 0.664124 0.000000
0.903137 0.652649 0.000000
0.928802 0.636475 0.000000
0.955536 0.617401 0.000000
0.976105 0.587280 0.000000
0.988770 0.545532 0.000000
0.970032 0.439728 0.000000
0.897583 0.195099 0.000000
0.819458 0.000000 0.000000
0.701324 0.000000 0.000000
0.592224 0.000000 0.000000
0.000000 0.666870 0.019196
0.000000 0.666718 0.018005
0.000000 0.666473 0.018005
0.000000 0.666290 0.016754
0.000000 0.665985 0.016663
0.000000 0.665741 0.015106
0.000000 0.665344 0.014679
0.000000 0.664978 0.012695
0.000000 0.681030 0.011597
0.000000 0.711090 0.005493
0.000000 0.738342 0.000000
0.000000 0.754028 0.000000
0.054718 0.759705 0.000000
0.202026 0.759644 0.000000
0.368561 0.758484 0.000000
0.477753 0.756073 0.000000
0.573730 0.753204 0.000000
0.642090 0.749115 0.000000
0.710205 0.744995 0.000000
0.762177 0.739044 0.000000
0.815338 0.733124 0.000000
0.855133 0.725159 0.000000
0.892029 0.716766 0.000000
0.919189 0.706085 0.000000
0.938995 0.694550 0.000000
0.961578 0.678467 0.000000
0.980225 0.659912 0.000000
0.989624 0.630981 0.000000
0.998932 0.590179 0.000000
0.974762 0.483185 0.000000
0.911224 0.244690 0.000000
0.883148 0.085785 0.000000
0.765015 0.085785 0.000000
0.000000 0.706696 0.040436
0.000000 0.706573 0.039154
0.000000 0.706421 0.037964
0.000000 0.706268 0.036713
0.000000 0.706116 0.035278
0.000000 0.705872 0.033600
0.000000 0.705658 0.031464
0.000000 0.705322 0.029053
0.000000 0.704987 0.025787
0.000000 0.726868 0.018585
0.000000 0.763641 0.005493
0.000000 0.787689 0.000000
0.000000 0.797058 0.000000
0.065063 0.802551 0.000000
0.252197 0.801849 0.000000
0.418091 0.800690 0.000000
0.518311 0.798004 0.000000
0.614258 0.795166 0.000000
0.682373 0.791046 0.000000
0.750488 0.786957 0.000000
0.803619 0.781006 0.000000
0.857056 0.775085 0.000000
0.896027 0.766998 0.000000
0.932465 0.758545 0.000000
0.955688 0.747803 0.000000
0.972046 0.736206 0.000000
0.986542 0.720673 0.000000
0.993042 0.702911 0.000000
0.999054 0.674896 0.000000
0.999054 0.636749 0.000000
0.983795 0.535889 0.000000
0.978241 0.337250 0.000000
0.950134 0.178345 0.000000
0.000000 0.742554 0.119598
0.000000 0.742493 0.119049
0.000000 0.742340 0.117767
0.000000 0.742279 0.117157
0.000000 0.742126 0.115723
0.000000 0.742004 0.114899
0.000000 0.741760 0.112854
0.000000 0.741577 0.111450
0.000000 0.741272 0.108643
0.000000 0.740967 0.106171
0.000000 0.765381 0.096954
0.000000 0.805206 0.051208
0.000000 0.831635 0.000000
0.003906 0.840210 0.000000
0.090668 0.843170 0.000000
0.279694 0.842438 0.000000
0.464203 0.840942 0.000000
0.564423 0.838287 0.000000
0.653931 0.835327 0.000000
0.722046 0.831207 0.000000
0.789215 0.826996 0.000000
0.842651 0.821075 0.000000
0.895874 0.815308 0.000000
0.934570 0.807251 0.000000
0.962769 0.799194 0.000000
0.980377 0.788635 0.000000
0.990295 0.776978 0.000000
0.994293 0.761658 0.000000
0.999054 0.744049 0.000000
0.999054 0.717041 0.000000
0.999054 0.679260 0.000000
0.997223 0.589417 0.000000
0.991638 0.390778 0.000000
0.000000 0.777466 0.213257
0.000000 0.777374 0.212891
0.000000 0.777313 0.212341
0.000000 0.777222 0.211792
0.000000 0.777130 0.211334
0.000000 0.777008 0.210510
0.000000 0.776886 0.209900
0.000000 0.776703 0.208588
0.000000 0.776520 0.207642
0.000000 0.776245 0.205658
0.000000 0.775970 0.204132
0.000000 0.803467 0.162231
0.000000 0.849396 0.051208
0.003510 0.875031 0.000000
0.023376 0.880402 0.000000
0.112030 0.883331 0.000000
0.327209 0.882294 0.000000
0.511719 0.880829 0.000000
0.604462 0.878021 0.000000
0.693451 0.875031 0.000000
0.760651 0.870819 0.000000
0.827576 0.866577 0.000000
0.880798 0.860840 0.000000
0.933929 0.855194 0.000000
0.964386 0.847504 0.000000
0.985382 0.839783 0.000000
0.996552 0.829193 0.000000
0.996796 0.817474 0.000000
0.999054 0.802277 0.000000
0.999054 0.785095 0.000000
0.999054 0.758453 0.000000
0.999054 0.723022 0.000000
0.997223 0.633209 0.000000
0.000000 0.809845 0.282623
0.000000 0.809784 0.282349
0.000000 0.809723 0.281982
0.000000 0.809662 0.281708
0.000000 0.809570 0.281311
0.000000 0.809509 0.280945
0.000000 0.809387 0.280334
0.000000 0.809296 0.279785
0.000000 0.809113 0.278900
0.000000 0.808929 0.278046
0.000000 0.808685 0.276672
0.000000 0.808655 0.275116
0.000000 0.839417 0.200562
0.000000 0.886902 0.088348
0.010010 0.914795 0.033752
0.034271 0.920013 0.032288
0.171661 0.921448 0.019257
0.386841 0.920410 0.019257
0.552429 0.918579 0.010895
0.644653 0.915741 0.010895
0.730591 0.912445 0.001068
0.797546 0.908203 0.001068
0.863220 0.903198 0.000000
0.916351 0.897552 0.000000
0.961060 0.891327 0.000000
0.984253 0.883759 0.000000
0.997955 0.876373 0.000000
0.998871 0.865936 0.000000
0.999054 0.855042 0.000000
0.999054 0.841248 0.000000
0.999054 0.824310 0.000000
0.999054 0.799622 0.000000
0.999054 0.764191 0.000000
0.000000 0.840942 0.339844
0.000000 0.840912 0.339661
0.000000 0.840881 0.339386
0.000000 0.840820 0.339142
0.000000 0.840759 0.338898
0.000000 0.840698 0.338531
0.000000 0.840637 0.338196
0.000000 0.840515 0.337646
0.000000 0.840424 0.337158
0.000000 0.840240 0.336334
0.000000 0.840118 0.335571
0.000000 0.840088 0.334167
0.000000 0.840546 0.332581
0.000000 0.872833 0.256836
0.000000 0.926453 0.139832
0.014374 0.954163 0.083801
0.099945 0.957245 0.062073
0.237335 0.958649 0.049011
0.429016 0.957184 0.037323
0.592926 0.955322 0.028137
0.681671 0.952148 0.016357
0.766754 0.948730 0.003571
0.832458 0.943726 0.001923
0.897522 0.938324 0.000000
0.942230 0.932129 0.000000
0.979553 0.925446 0.000000
0.995453 0.918182 0.000000
0.998199 0.911285 0.000000
0.999054 0.901672 0.000000
0.999054 0.892975 0.000000
0.999054 0.879425 0.000000
0.999054 0.864136 0.000000
0.999054 0.839447 0.000000
0.000000 0.870941 0.392273
0.000000 0.870911 0.392120
0.000000 0.870850 0.391907
0.000000 0.870819 0.391754
0.000000 0.870789 0.391541
0.000000 0.870728 0.391296
0.000000 0.870667 0.390991
0.000000 0.870605 0.390656
0.000000 0.870514 0.390167
0.000000 0.870392 0.389709
0.000000 0.870270 0.388977
0.000000 0.870117 0.388275
0.000000 0.870453 0.386871
0.000000 0.872040 0.384888
0.000000 0.909882 0.305695
0.000000 0.962097 0.190857
0.045044 0.978821 0.139557
0.130585 0.981903 0.117798
0.291077 0.981506 0.097900
0.481079 0.979980 0.085358
0.629364 0.978821 0.070831
0.717224 0.975525 0.056122
0.798401 0.973724 0.044312
0.863464 0.968323 0.041840
0.924927 0.964874 0.036926
0.962280 0.958191 0.036865
0.992126 0.952637 0.026337
0.997009 0.946136 0.022827
0.999054 0.940155 0.011475
0.999054 0.932831 0.000122
0.999054 0.924591 0.000000
0.999054 0.913361 0.000000
0.999054 0.898071 0.000000
0.000000 0.899902 0.440460
0.000000 0.899902 0.440369
0.000000 0.899841 0.440216
0.000000 0.899841 0.440063
0.000000 0.899811 0.439911
0.000000 0.899750 0.439728
0.000000 0.899719 0.439514
0.000000 0.899658 0.439240
0.000000 0.899597 0.438965
0.000000 0.899506 0.438507
0.000000 0.899414 0.438080
0.000000 0.899261 0.437408
0.000000 0.899139 0.436798
0.000000 0.900635 0.434998
0.000000 0.906952 0.431427
0.000000 0.943359 0.354401
0.000000 0.975769 0.269318
0.045044 0.992493 0.218018
0.188629 0.992706 0.193024
0.353271 0.992096 0.172913
0.521545 0.991791 0.158264
0.664398 0.990936 0.143188
0.747681 0.989838 0.130096
0.826569 0.989105 0.119110
0.888031 0.985657 0.114197
0.946350 0.983917 0.107117
0.976196 0.978363 0.096558
0.994812 0.974548 0.070282
0.998993 0.968933 0.055420
0.999054 0.965363 0.012817
0.999054 0.958527 0.001282
0.999054 0.953339 0.000000
0.999054 0.942108 0.000000
0.000000 0.928711 0.486420
0.000000 0.928680 0.486328
0.000000 0.928650 0.486206
0.000000 0.928619 0.486115
0.000000 0.928619 0.485992
0.000000 0.928589 0.485870
0.000000 0.928528 0.485687
0.000000 0.928497 0.485504
0.000000 0.928436 0.485229
0.000000 0.928375 0.484955
0.000000 0.928284 0.484558
0.000000 0.928192 0.484161
0.000000 0.928070 0.483551
0.000000 0.927917 0.482971
0.000000 0.932953 0.480011
0.000000 0.939392 0.476379
0.000000 0.963715 0.418121
0.000000 0.996094 0.333038
0.078186 0.999054 0.284027
0.225952 0.999054 0.258820
0.408234 0.999054 0.241119
0.571075 0.999054 0.225952
0.695160 0.999054 0.216522
0.776154 0.999054 0.204254
