resources/LUTs/Exigent Films REC709 x33 (monitoring) LUTs/Exposure_-2.CUBE
#Created by: Adobe Photoshop Export Color Lookup Plugin
TITLE "exposure_-2"
#LUT size
LUT_3D_SIZE 33
#data domain
DOMAIN_MIN 0.0 0.0 0.0
DOMAIN_MAX 1.0 1.0 1.0
#LUT data points
0.006104 0.006226 0.006073
0.009766 0.006073 0.006165
0.013397 0.005951 0.006287
0.018768 0.005554 0.006287
0.024414 0.005096 0.006287
0.034607 0.004272 0.006104
0.046478 0.003265 0.005890
0.060883 0.002014 0.005371
0.077057 0.000610 0.004700
0.093079 0.000000 0.003967
0.108948 0.000000 0.003174
0.124603 0.000000 0.002441
0.139740 0.000000 0.001831
0.154388 0.000000 0.001282
0.167023 0.000000 0.001068
0.179688 0.000000 0.000854
0.192719 0.000000 0.000397
0.205750 0.000000 0.000000
0.224152 0.000000 0.000000
0.242920 0.000000 0.000000
0.260193 0.000000 0.000000
0.277039 0.000000 0.000000
0.292145 0.000000 0.000000
0.306366 0.000000 0.000000
0.321838 0.000000 0.000000
0.338409 0.000000 0.000000
0.355774 0.000000 0.000000
0.374420 0.000000 0.000000
0.393005 0.000000 0.000000
0.411438 0.000000 0.000000
0.429840 0.000000 0.000000
0.448059 0.000000 0.000000
0.466278 0.000000 0.000000
0.005157 0.009857 0.006470
0.009430 0.009918 0.006317
0.013092 0.009766 0.006409
0.019287 0.009552 0.006073
0.025055 0.009125 0.006042
0.036255 0.008209 0.005493
0.048462 0.007202 0.005127
0.063995 0.005157 0.004395
0.080902 0.003235 0.003601
0.098389 0.001373 0.002838
0.115936 0.000000 0.002045
0.132416 0.000000 0.001465
0.149170 0.000000 0.001129
0.164307 0.000000 0.000580
0.178833 0.000000 0.000366
0.191223 0.000000 0.000214
0.200470 0.000000 0.000305
0.213501 0.000000 0.000000
0.224915 0.000000 0.000000
0.243225 0.000000 0.000000
0.260529 0.000000 0.000000
0.277435 0.000000 0.000000
0.292572 0.000000 0.000000
0.306793 0.000000 0.000000
0.322021 0.000000 0.000000
0.338379 0.000000 0.000000
0.355743 0.000000 0.000000
0.374390 0.000000 0.000000
0.392975 0.000000 0.000000
0.411407 0.000000 0.000000
0.429810 0.000000 0.000000
0.448059 0.000000 0.000000
0.466278 0.000000 0.000000
0.004211 0.013489 0.006836
0.008484 0.013550 0.006683
0.012756 0.013611 0.006531
0.018951 0.013367 0.006226
0.025543 0.013123 0.005829
0.036865 0.012238 0.005219
0.050110 0.011139 0.004486
0.066010 0.009094 0.003632
0.084015 0.006378 0.002625
0.102234 0.003998 0.001740
0.121277 0.001587 0.000916
0.139404 0.000122 0.000336
0.156982 0.000000 0.000153
0.173737 0.000000 0.000000
0.188751 0.000000 0.000000
0.203033 0.000000 0.000000
0.212006 0.000000 0.000000
0.221252 0.000000 0.000000
0.232666 0.000000 0.000000
0.243988 0.000000 0.000000
0.260834 0.000000 0.000000
0.277771 0.000000 0.000000
0.292938 0.000000 0.000000
0.307190 0.000000 0.000000
0.322449 0.000000 0.000000
0.338562 0.000000 0.000000
0.355713 0.000000 0.000000
0.374359 0.000000 0.000000
0.392944 0.000000 0.000000
0.411407 0.000000 0.000000
0.429810 0.000000 0.000000
0.448029 0.000000 0.000000
0.466278 0.000000 0.000000
0.002655 0.019043 0.006836
0.006592 0.019318 0.006287
0.010864 0.019379 0.006134
0.018036 0.019409 0.005371
0.024658 0.019165 0.005005
0.037292 0.018646 0.004120
0.050720 0.017639 0.003357
0.068451 0.015686 0.002502
0.087189 0.013031 0.001526
0.106873 0.008942 0.000946
0.126923 0.005249 0.000427
0.146698 0.002258 0.000000
0.166260 0.000000 0.000000
0.183960 0.000000 0.000000
0.201080 0.000000 0.000000
0.215851 0.000000 0.000000
0.226868 0.000000 0.000000
0.235840 0.000000 0.000000
0.238007 0.000000 0.000000
0.249329 0.000000 0.000000
0.261536 0.000000 0.000000
0.278168 0.000000 0.000000
0.293396 0.000000 0.000000
0.307648 0.000000 0.000000
0.322632 0.000000 0.000000
0.338562 0.000000 0.000000
0.355713 0.000000 0.000000
0.374359 0.000000 0.000000
0.392944 0.000000 0.000000
0.411377 0.000000 0.000000
0.429779 0.000000 0.000000
0.448029 0.000000 0.000000
0.466278 0.000000 0.000000
0.001038 0.024902 0.006805
0.004913 0.025208 0.006195
0.008850 0.025482 0.005646
0.016022 0.025513 0.004883
0.023651 0.025543 0.004028
0.036285 0.025024 0.003143
0.051117 0.024414 0.002106
0.069061 0.022552 0.001251
0.089813 0.020081 0.000336
0.110229 0.016052 0.000000
0.131836 0.010406 0.000000
0.152618 0.006104 0.000000
0.173889 0.001923 0.000000
0.193573 0.000000 0.000000
0.211761 0.000000 0.000000
0.228668 0.000000 0.000000
0.240143 0.000000 0.000000
0.251160 0.000000 0.000000
0.252625 0.000000 0.000000
0.254272 0.000000 0.000000
0.266479 0.000000 0.000000
0.278900 0.000000 0.000000
0.293793 0.000000 0.000000
0.308136 0.000000 0.000000
0.323120 0.000000 0.000000
0.338715 0.000000 0.000000
0.355652 0.000000 0.000000
0.374329 0.000000 0.000000
0.392914 0.000000 0.000000
0.411346 0.000000 0.000000
0.429779 0.000000 0.000000
0.448029 0.000000 0.000000
0.466248 0.000000 0.000000
0.000183 0.035522 0.006012
0.001984 0.036194 0.005096
0.005859 0.036499 0.004456
0.011749 0.037018 0.003693
0.019379 0.037048 0.002838
0.034210 0.037109 0.002350
0.049042 0.036499 0.001312
0.070251 0.034821 0.000793
0.091614 0.032349 0.000000
0.114929 0.028351 0.000000
0.137787 0.022705 0.000000
0.160858 0.015778 0.000000
0.183990 0.009491 0.000000
0.205627 0.004547 0.000000
0.226440 0.000305 0.000000
0.244537 0.000153 0.000000
0.259399 0.000000 0.000000
0.270905 0.000000 0.000000
0.274750 0.000000 0.000000
0.275696 0.000000 0.000000
0.270416 0.000000 0.000000
0.282837 0.000000 0.000000
0.294617 0.000000 0.000000
0.308746 0.000000 0.000000
0.323364 0.000000 0.000000
0.338806 0.000000 0.000000
0.355621 0.000000 0.000000
0.374298 0.000000 0.000000
0.392883 0.000000 0.000000
0.411346 0.000000 0.000000
0.429749 0.000000 0.000000
0.447998 0.000000 0.000000
0.466248 0.000000 0.000000
0.000000 0.047913 0.004944
0.000671 0.048706 0.003906
0.002472 0.049377 0.002960
0.008118 0.049957 0.002197
0.014282 0.050507 0.001404
0.029083 0.050568 0.000916
0.046539 0.050659 0.000549
0.067749 0.048981 0.000031
0.093231 0.046600 0.000000
0.117188 0.042633 0.000000
0.143463 0.036896 0.000000
0.167755 0.029968 0.000000
0.193726 0.020538 0.000000
0.217224 0.013489 0.000000
0.240356 0.005585 0.000000
0.261078 0.001251 0.000000
0.277618 0.000153 0.000000
0.292480 0.000000 0.000000
0.296936 0.000000 0.000000
0.300323 0.000000 0.000000
0.293610 0.000000 0.000000
0.286377 0.000000 0.000000
0.298187 0.000000 0.000000
0.309631 0.000000 0.000000
0.324066 0.000000 0.000000
0.338898 0.000000 0.000000
0.355560 0.000000 0.000000
0.374268 0.000000 0.000000
0.392853 0.000000 0.000000
0.411316 0.000000 0.000000
0.429749 0.000000 0.000000
0.447998 0.000000 0.000000
0.466248 0.000000 0.000000
0.000000 0.065125 0.003571
0.000000 0.066437 0.002899
0.000854 0.067230 0.001862
0.002716 0.068176 0.001404
0.008667 0.068787 0.000610
0.019043 0.069458 0.000244
0.036499 0.069550 0.000000
0.064087 0.069183 0.000000
0.089539 0.066803 0.000000
0.119415 0.063721 0.000000
0.146851 0.058228 0.000000
0.175476 0.051697 0.000000
0.203369 0.042572 0.000000
0.230194 0.032074 0.000000
0.256287 0.021484 0.000000
0.279510 0.012848 0.000000
0.300354 0.002228 0.000000
0.316895 0.001129 0.000000
0.327118 0.000000 0.000000
0.331055 0.000000 0.000000
0.324402 0.000000 0.000000
0.315796 0.000000 0.000000
0.301178 0.000000 0.000000
0.312653 0.000000 0.000000
0.324493 0.000000 0.000000
0.339172 0.000000 0.000000
0.355530 0.000000 0.000000
0.374207 0.000000 0.000000
0.392822 0.000000 0.000000
0.411285 0.000000 0.000000
0.429718 0.000000 0.000000
0.447968 0.000000 0.000000
0.466217 0.000000 0.000000
0.000000 0.085571 0.001923
0.000000 0.087250 0.001526
0.000000 0.088562 0.000885
0.000183 0.089600 0.000610
0.001953 0.090576 0.000305
0.011444 0.091339 0.000000
0.023163 0.092041 0.000000
0.050720 0.091705 0.000000
0.085083 0.091064 0.000000
0.114960 0.087952 0.000000
0.149872 0.084015 0.000000
0.179626 0.077698 0.000000
0.212860 0.069519 0.000000
0.241669 0.059357 0.000000
0.272125 0.044739 0.000000
0.298309 0.033417 0.000000
0.322906 0.014496 0.000000
0.343781 0.003906 0.000000
0.356964 0.001251 0.000000
0.366943 0.000000 0.000000
0.360077 0.000000 0.000000
0.350708 0.000000 0.000000
0.333984 0.000000 0.000000
0.315308 0.000000 0.000000
0.327148 0.000000 0.000000
0.339325 0.000000 0.000000
0.355499 0.000000 0.000000
0.374146 0.000000 0.000000
0.392761 0.000000 0.000000
0.411255 0.000000 0.000000
0.429657 0.000000 0.000000
0.447937 0.000000 0.000000
0.466187 0.000000 0.000000
0.000000 0.107208 0.000702
0.000000 0.109436 0.000488
0.000000 0.111115 0.000092
0.000000 0.112976 0.000000
0.000000 0.114044 0.000000
0.002716 0.115784 0.000000
0.013519 0.116608 0.000000
0.032532 0.117706 0.000000
0.066895 0.117035 0.000000
0.109863 0.116333 0.000000
0.144775 0.112396 0.000000
0.182312 0.108398 0.000000
0.216797 0.100769 0.000000
0.251282 0.092468 0.000000
0.284149 0.079437 0.000000
0.314972 0.064667 0.000000
0.343933 0.046631 0.000000
0.368561 0.027710 0.000000
0.389099 0.010773 0.000000
0.402069 0.008026 0.000000
0.406067 0.000000 0.000000
0.396515 0.000000 0.000000
0.374603 0.000000 0.000000
0.353790 0.000000 0.000000
0.328796 0.000000 0.000000
0.340973 0.000000 0.000000
0.355499 0.000000 0.000000
0.374115 0.000000 0.000000
0.392731 0.000000 0.000000
0.411194 0.000000 0.000000
0.429626 0.000000 0.000000
0.447906 0.000000 0.000000
0.466156 0.000000 0.000000
0.000000 0.130219 0.000000
0.000000 0.133057 0.000000
0.000000 0.135254 0.000000
0.000000 0.137756 0.000000
0.000000 0.139740 0.000000
0.000000 0.141937 0.000000
0.002472 0.144104 0.000000
0.019775 0.145508 0.000000
0.043152 0.147003 0.000000
0.086121 0.146271 0.000000
0.138977 0.145477 0.000000
0.176483 0.141479 0.000000
0.219177 0.137421 0.000000
0.254944 0.129669 0.000000
0.294403 0.121002 0.000000
0.327637 0.107819 0.000000
0.363129 0.091095 0.000000
0.392120 0.073059 0.000000
0.419495 0.043030 0.000000
0.440247 0.025299 0.000000
0.450684 0.010925 0.000000
0.454041 0.000000 0.000000
0.430054 0.000000 0.000000
0.400970 0.000000 0.000000
0.372864 0.000000 0.000000
0.341522 0.000000 0.000000
0.356049 0.000000 0.000000
0.374084 0.000000 0.000000
0.392639 0.000000 0.000000
0.411133 0.000000 0.000000
0.429596 0.000000 0.000000
0.447876 0.000000 0.000000
0.466125 0.000000 0.000000
0.000000 0.154419 0.000000
0.000000 0.157562 0.000000
0.000000 0.160400 0.000000
0.000000 0.163605 0.000000
0.000000 0.166199 0.000000
0.000000 0.169708 0.000000
0.000000 0.172302 0.000000
0.005188 0.175629 0.000000
0.026855 0.177460 0.000000
0.060822 0.179138 0.000000
0.113647 0.178314 0.000000
0.170105 0.177368 0.000000
0.212799 0.173309 0.000000
0.256866 0.169098 0.000000
0.297668 0.160980 0.000000
0.337463 0.152283 0.000000
0.375244 0.137573 0.000000
0.410736 0.120819 0.000000
0.442413 0.095947 0.000000
0.470001 0.065125 0.000000
0.490387 0.040771 0.000000
0.500183 0.023468 0.000000
0.496460 0.000244 0.000000
0.465302 0.000244 0.000000
0.425079 0.000000 0.000000
0.390625 0.000000 0.000000
0.356354 0.000000 0.000000
0.374390 0.000000 0.000000
0.392578 0.000000 0.000000
0.411072 0.000000 0.000000
0.429535 0.000000 0.000000
0.447815 0.000000 0.000000
0.466095 0.000000 0.000000
0.000000 0.181122 0.000000
0.000000 0.184845 0.000000
0.000000 0.187988 0.000000
0.000000 0.192047 0.000000
0.000000 0.195435 0.000000
0.000000 0.199982 0.000000
0.000000 0.204193 0.000000
0.000000 0.208435 0.000000
0.005188 0.212830 0.000000
0.038239 0.214935 0.000000
0.085175 0.216919 0.000000
0.141632 0.216003 0.000000
0.205292 0.214813 0.000000
0.249329 0.210602 0.000000
0.298767 0.205933 0.000000
0.339905 0.197784 0.000000
0.383911 0.188629 0.000000
0.421722 0.173920 0.000000
0.459808 0.157990 0.000000
0.491669 0.133179 0.000000
0.521881 0.102692 0.000000
0.542908 0.078430 0.000000
0.553009 0.037720 0.000000
0.549469 0.002747 0.000000
0.504852 0.001404 0.000000
0.452911 0.000000 0.000000
0.414490 0.000000 0.000000
0.374298 0.000000 0.000000
0.392456 0.000000 0.000000
0.410980 0.000000 0.000000
0.429474 0.000000 0.000000
0.447754 0.000000 0.000000
0.466034 0.000000 0.000000
0.000000 0.209290 0.000000
0.000000 0.212280 0.000000
0.000000 0.216034 0.000000
0.000000 0.220276 0.000000
0.000000 0.224548 0.000000
0.000000 0.230011 0.000000
0.000000 0.235260 0.000000
0.000000 0.241272 0.000000
0.000000 0.246613 0.000000
0.011688 0.251282 0.000000
0.057739 0.253723 0.000000
0.113190 0.255402 0.000000
0.176849 0.254211 0.000000
0.241333 0.252869 0.000000
0.290771 0.248199 0.000000
0.340424 0.243500 0.000000
0.385620 0.234863 0.000000
0.429657 0.225708 0.000000
0.469849 0.211670 0.000000
0.508148 0.195801 0.000000
0.542389 0.171387 0.000000
0.573242 0.141022 0.000000
0.594635 0.101074 0.000000
0.604858 0.048615 0.000000
0.593170 0.011414 0.000000
0.536835 0.008911 0.000000
0.480164 0.000000 0.000000
0.435822 0.000000 0.000000
0.392334 0.000000 0.000000
0.410889 0.000000 0.000000
0.429382 0.000000 0.000000
0.447693 0.000000 0.000000
0.466003 0.000000 0.000000
0.000000 0.243439 0.000000
0.000000 0.243469 0.000000
0.000000 0.246460 0.000000
0.000000 0.251007 0.000000
0.000000 0.255402 0.000000
0.000000 0.262115 0.000000
0.000000 0.268494 0.000000
0.000000 0.275909 0.000000
0.000000 0.283356 0.000000
0.000000 0.288971 0.000000
0.011688 0.293945 0.000000
0.069489 0.295929 0.000000
0.148499 0.296783 0.000000
0.213013 0.295441 0.000000
0.280914 0.293488 0.000000
0.330566 0.288757 0.000000
0.383118 0.283539 0.000000
0.428284 0.274933 0.000000
0.474182 0.265839 0.000000
0.514526 0.251801 0.000000
0.554413 0.236511 0.000000
0.589050 0.212250 0.000000
0.620331 0.184326 0.000000
0.641937 0.145599 0.000000
0.652832 0.089355 0.000000
0.641693 0.048828 0.000000
0.579926 0.031342 0.000000
0.515106 0.000000 0.000000
0.466339 0.000000 0.000000
0.410767 0.000000 0.000000
0.429260 0.000000 0.000000
0.447632 0.000000 0.000000
0.465942 0.000000 0.000000
0.000000 0.277893 0.000000
0.000000 0.277924 0.000000
0.000000 0.277924 0.000000
0.000000 0.281677 0.000000
0.000000 0.286346 0.000000
0.000000 0.293030 0.000000
0.000000 0.300659 0.000000
0.000000 0.309235 0.000000
0.000000 0.318085 0.000000
0.000000 0.325928 0.000000
0.000000 0.331848 0.000000
0.021759 0.336365 0.000000
0.103119 0.337524 0.000000
0.184509 0.338196 0.000000
0.252411 0.336212 0.000000
0.320526 0.334198 0.000000
0.373077 0.328979 0.000000
0.425629 0.323761 0.000000
0.472687 0.315186 0.000000
0.518677 0.306122 0.000000
0.560547 0.292603 0.000000
0.600830 0.277466 0.000000
0.635834 0.255432 0.000000
0.667358 0.228729 0.000000
0.689423 0.186890 0.000000
0.700897 0.127319 0.000000
0.685089 0.075104 0.000000
0.615143 0.035187 0.000000
0.547089 0.000000 0.000000
0.486206 0.000000 0.000000
0.429169 0.000000 0.000000
0.447510 0.000000 0.000000
0.465851 0.000000 0.000000
0.000000 0.316986 0.000000
0.000000 0.316772 0.000000
0.000000 0.316803 0.000000
0.000000 0.316589 0.000000
0.000000 0.320282 0.000000
0.000000 0.325317 0.000000
0.000000 0.332153 0.000000
0.000000 0.342529 0.000000
0.000000 0.352936 0.000000
0.000000 0.362915 0.000000
0.000000 0.372070 0.000000
0.002625 0.377380 0.000000
0.031403 0.380707 0.000000
0.118225 0.381622 0.000000
0.221527 0.381317 0.000000
0.289642 0.379303 0.000000
0.360382 0.376526 0.000000
0.412933 0.371307 0.000000
0.467896 0.365875 0.000000
0.515106 0.357269 0.000000
0.561798 0.348236 0.000000
0.603851 0.334747 0.000000
0.643921 0.320129 0.000000
0.678833 0.298401 0.000000
0.709503 0.273193 0.000000
0.730835 0.232666 0.000000
0.741455 0.177795 0.000000
0.724365 0.132599 0.000000
0.654602 0.077332 0.000000
0.586945 0.000000 0.000000
0.523193 0.000000 0.000000
0.447479 0.000000 0.000000
0.465820 0.000000 0.000000
0.000000 0.356079 0.000000
0.000000 0.355865 0.000000
0.000000 0.355652 0.000000
0.000000 0.355438 0.000000
0.000000 0.355194 0.000000
0.000000 0.359253 0.000000
0.000000 0.364441 0.000000
0.000000 0.374023 0.000000
0.000000 0.386200 0.000000
0.000000 0.397766 0.000000
0.000000 0.409058 0.000000
0.002625 0.417603 0.000000
0.012268 0.421722 0.000000
0.046509 0.424805 0.000000
0.155243 0.424744 0.000000
0.258759 0.424377 0.000000
0.329498 0.421600 0.000000
0.400269 0.418823 0.000000
0.455231 0.413391 0.000000
0.510345 0.407959 0.000000
0.558228 0.399414 0.000000
0.605072 0.390381 0.000000
0.646912 0.377441 0.000000
0.686890 0.363098 0.000000
0.720978 0.342834 0.000000
0.750916 0.318970 0.000000
0.771393 0.283142 0.000000
0.780731 0.235291 0.000000
0.763824 0.174774 0.000000
0.694458 0.077332 0.000000
0.623932 0.000000 0.000000
0.541473 0.000000 0.000000
0.465759 0.000000 0.000000
0.000000 0.397125 0.000000
0.000000 0.396973 0.000000
0.000000 0.396759 0.000000
0.000000 0.396576 0.000000
0.000000 0.396332 0.000000
0.000000 0.396057 0.000000
0.000000 0.400177 0.000000
0.000000 0.405487 0.000000
0.000000 0.415436 0.000000
0.000000 0.430267 0.000000
0.000000 0.444641 0.000000
0.000000 0.455780 0.000000
0.003265 0.463898 0.000000
0.017487 0.467651 0.000000
0.070312 0.469299 0.000000
0.180328 0.469177 0.000000
0.300537 0.467896 0.000000
0.371277 0.465118 0.000000
0.441071 0.461761 0.000000
0.496185 0.456329 0.000000
0.551331 0.450623 0.000000
0.599304 0.442047 0.000000
0.646088 0.433197 0.000000
0.687866 0.420349 0.000000
0.726959 0.406525 0.000000
0.760254 0.386841 0.000000
0.788361 0.363922 0.000000
0.806213 0.330078 0.000000
0.816101 0.283386 0.000000
0.800629 0.221893 0.000000
0.732758 0.117737 0.000000
0.669525 0.000000 0.000000
0.587067 0.000000 0.000000
0.000000 0.438293 0.000000
0.000000 0.438141 0.000000
0.000000 0.437988 0.000000
0.000000 0.437805 0.000000
0.000000 0.437622 0.000000
0.000000 0.437347 0.000000
0.000000 0.437103 0.000000
0.000000 0.441315 0.000000
0.000000 0.446747 0.000000
0.000000 0.459320 0.000000
0.000000 0.477173 0.000000
0.000000 0.491394 0.000000
0.000000 0.502197 0.000000
0.007843 0.509949 0.000000
0.040344 0.512238 0.000000
0.094452 0.513824 0.000000
0.222260 0.512787 0.000000
0.342438 0.511505 0.000000
0.412231 0.508148 0.000000
0.481934 0.504761 0.000000
0.537079 0.499084 0.000000
0.592224 0.493317 0.000000
0.640137 0.484924 0.000000
0.686890 0.476135 0.000000
0.727783 0.463806 0.000000
0.766113 0.450409 0.000000
0.797546 0.431671 0.000000
0.822845 0.410126 0.000000
0.841248 0.377441 0.000000
0.852722 0.333862 0.000000
0.838715 0.265625 0.000000
0.780273 0.117737 0.000000
0.717072 0.000000 0.000000
0.000000 0.479614 0.000000
0.000000 0.479523 0.000000
0.000000 0.479340 0.000000
0.000000 0.479218 0.000000
0.000000 0.479034 0.000000
0.000000 0.478882 0.000000
0.000000 0.478638 0.000000
0.000000 0.478363 0.000000
0.000000 0.482635 0.000000
0.000000 0.488312 0.000000
0.000000 0.502197 0.000000
0.000000 0.522125 0.000000
0.000000 0.539093 0.000000
0.000000 0.549316 0.000000
0.012421 0.554993 0.000000
0.048065 0.557159 0.000000
0.140717 0.557159 0.000000
0.268494 0.556122 0.000000
0.382904 0.553894 0.000000
0.452606 0.550507 0.000000
0.522034 0.546753 0.000000
0.577179 0.541016 0.000000
0.631989 0.535217 0.000000
0.679810 0.526855 0.000000
0.725922 0.518219 0.000000
0.766174 0.506165 0.000000
0.803101 0.493134 0.000000
0.832184 0.475189 0.000000
0.855499 0.454224 0.000000
0.870361 0.423584 0.000000
0.882416 0.380493 0.000000
0.873505 0.304535 0.000000
0.815063 0.156647 0.000000
0.000000 0.520966 0.000000
0.000000 0.520874 0.000000
0.000000 0.520752 0.000000
0.000000 0.520660 0.000000
0.000000 0.520538 0.000000
0.000000 0.520355 0.000000
0.000000 0.520203 0.000000
0.000000 0.519958 0.000000
0.000000 0.519714 0.000000
0.000000 0.524231 0.000000
0.000000 0.530151 0.000000
0.000000 0.546112 0.000000
0.000000 0.570160 0.000000
0.000000 0.586548 0.000000
0.000000 0.594482 0.000000
0.015564 0.600037 0.000000
0.095398 0.600433 0.000000
0.188049 0.600433 0.000000
0.309265 0.598389 0.000000
0.423218 0.596100 0.000000
0.492615 0.592346 0.000000
0.561951 0.588501 0.000000
0.616760 0.582733 0.000000
0.671387 0.576904 0.000000
0.718567 0.568695 0.000000
0.764130 0.560211 0.000000
0.802979 0.548492 0.000000
0.837799 0.535980 0.000000
0.864899 0.518646 0.000000
0.882721 0.499298 0.000000
0.898193 0.469147 0.000000
0.914032 0.429169 0.000000
0.905090 0.353210 0.000000
0.000000 0.561035 0.001678
0.000000 0.560974 0.001678
0.000000 0.560883 0.001678
0.000000 0.560791 0.001648
0.000000 0.560669 0.001648
0.000000 0.560577 0.001617
0.000000 0.560425 0.001617
0.000000 0.560272 0.001587
0.000000 0.560028 0.001556
0.000000 0.559784 0.001526
0.000000 0.564484 0.001495
0.000000 0.570831 0.000488
0.000000 0.589264 0.000000
0.000000 0.614258 0.000000
0.000000 0.631897 0.000000
0.000000 0.639587 0.000000
0.031342 0.642365 0.000000
0.111176 0.642761 0.000000
0.242004 0.641785 0.000000
0.362762 0.639679 0.000000
0.463318 0.637115 0.000000
0.532684 0.633270 0.000000
0.600800 0.629303 0.000000
0.655426 0.623474 0.000000
0.710297 0.617737 0.000000
0.757141 0.609619 0.000000
0.802429 0.601288 0.000000
0.839905 0.589905 0.000000
0.873474 0.577606 0.000000
0.896240 0.561279 0.000000
0.913177 0.542175 0.000000
0.926453 0.514130 0.000000
0.942291 0.474152 0.000000
0.000000 0.600464 0.005096
0.000000 0.600403 0.005066
0.000000 0.600342 0.005066
0.000000 0.600281 0.005035
0.000000 0.600189 0.005005
0.000000 0.600098 0.004974
0.000000 0.599976 0.004913
0.000000 0.599823 0.004883
0.000000 0.599670 0.004822
0.000000 0.599457 0.004761
0.000000 0.599213 0.004639
0.000000 0.604340 0.003601
0.000000 0.611542 0.000549
0.000000 0.630920 0.000000
0.000000 0.659668 0.000000
0.000000 0.677094 0.000000
0.000000 0.681458 0.000000
0.031342 0.684235 0.000000
0.167267 0.683685 0.000000
0.302094 0.682648 0.000000
0.406860 0.680267 0.000000
0.503448 0.677643 0.000000
0.571564 0.673645 0.000000
0.639069 0.669617 0.000000
0.693970 0.663849 0.000000
0.749084 0.658173 0.000000
0.795624 0.650177 0.000000
0.840454 0.641998 0.000000
0.876709 0.630829 0.000000
0.906860 0.619019 0.000000
0.928711 0.602936 0.000000
0.939758 0.585327 0.000000
0.953033 0.557251 0.000000
0.000000 0.638550 0.037048
0.000000 0.638519 0.036896
0.000000 0.638458 0.036865
0.000000 0.638397 0.036682
0.000000 0.638336 0.036652
0.000000 0.638275 0.036407
0.000000 0.638153 0.036346
0.000000 0.638062 0.035980
0.000000 0.637909 0.035919
0.000000 0.637787 0.035431
0.000000 0.637543 0.035248
0.000000 0.637329 0.034668
0.000000 0.643066 0.031921
0.000000 0.650391 0.025726
0.000000 0.672150 0.019470
0.000000 0.701172 0.016907
0.000000 0.718781 0.000000
0.000000 0.723145 0.000000
0.059723 0.724823 0.000000
0.199646 0.724182 0.000000
0.348572 0.722839 0.000000
0.449341 0.720398 0.000000
0.542480 0.717621 0.000000
0.609985 0.713562 0.000000
0.677307 0.709503 0.000000
0.732422 0.703827 0.000000
0.787445 0.698090 0.000000
0.833618 0.690216 0.000000
0.878479 0.682098 0.000000
0.912598 0.671326 0.000000
0.941315 0.659637 0.000000
0.955566 0.644684 0.000000
0.966614 0.627045 0.000000
0.000000 0.675476 0.093903
0.000000 0.675446 0.093658
0.000000 0.675385 0.093506
0.000000 0.675354 0.093231
0.000000 0.675293 0.093018
0.000000 0.675232 0.092712
0.000000 0.675171 0.092346
0.000000 0.675079 0.091919
0.000000 0.674988 0.091309
0.000000 0.674835 0.090820
0.000000 0.674713 0.089813
0.000000 0.674500 0.089172
0.000000 0.674286 0.087646
0.000000 0.680145 0.081787
0.000000 0.687958 0.063171
0.000000 0.709991 0.054413
0.000000 0.742706 0.016907
0.000000 0.760284 0.000000
0.006989 0.763428 0.000000
0.067841 0.765015 0.000000
0.236938 0.764069 0.000000
0.393158 0.762665 0.000000
0.489899 0.760071 0.000000
0.581024 0.757172 0.000000
0.648346 0.753113 0.000000
0.715515 0.749054 0.000000
0.770538 0.743317 0.000000
0.825439 0.737518 0.000000
0.871643 0.729736 0.000000
0.916595 0.721771 0.000000
0.949249 0.711121 0.000000
0.968384 0.700134 0.000000
0.982666 0.685181 0.000000
0.000000 0.711060 0.151367
0.000000 0.711029 0.151184
0.000000 0.710999 0.150940
0.000000 0.710968 0.150726
0.000000 0.710907 0.150421
0.000000 0.710876 0.150146
0.000000 0.710815 0.149689
0.000000 0.710754 0.149323
0.000000 0.710663 0.148651
0.000000 0.710571 0.148102
0.000000 0.710449 0.147095
0.000000 0.710327 0.146271
0.000000 0.710114 0.144836
0.000000 0.709930 0.143463
0.000000 0.716156 0.128387
0.000000 0.724060 0.110168
0.000000 0.748901 0.080963
0.000000 0.781586 0.043457
0.003754 0.800415 0.002838
0.011871 0.803467 0.002838
0.100128 0.804657 0.000214
0.276520 0.803650 0.000214
0.435303 0.802094 0.000000
0.530029 0.799408 0.000000
