resources/LUTs/Exigent Films REC709 x33 (monitoring) LUTs/Exposure_-2.CUBE
#Created by: Adobe Photoshop Export Color Lookup Plugin
TITLE "exposure_-2"
#LUT size
LUT_3D_SIZE 9
#data domain
DOMAIN_MIN 0.0 0.0 0.0
DOMAIN_MAX 1.0 1.0 1.0
#LUT data points
0.006104 0.006226 0.006073
0.024414 0.005096 0.006287
0.077057 0.000610 0.004700
0.139740 0.000000 0.001831
0.192719 0.000000 0.000397
0.260193 0.000000 0.000000
0.321838 0.000000 0.000000
0.393005 0.000000 0.000000
0.466278 0.000000 0.000000
0.001038 0.024902 0.006805
0.023651 0.025543 0.004028
0.089813 0.020081 0.000336
0.173889 0.001923 0.000000
0.240143 0.000000 0.000000
0.266479 0.000000 0.000000
0.323120 0.000000 0.000000
0.392914 0.000000 0.000000
0.466248 0.000000 0.000000
0.000000 0.085571 0.001923
0.001953 0.090576 0.000305
0.085083 0.091064 0.000000
0.212860 0.069519 0.000000
0.322906 0.014496 0.000000
0.360077 0.000000 0.000000
0.327148 0.000000 0.000000
0.392761 0.000000 0.000000
0.466187 0.000000 0.000000
0.000000 0.181122 0.000000
0.000000 0.195435 0.000000
0.005188 0.212830 0.000000
0.205292 0.214813 0.000000
0.383911 0.188629 0.000000
0.521881 0.102692 0.000000
0.504852 0.001404 0.000000
0.392456 0.000000 0.000000
0.466034 0.000000 0.000000
0.000000 0.316986 0.000000
0.000000 0.320282 0.000000
0.000000 0.352936 0.000000
0.031403 0.380707 0.000000
0.360382 0.376526 0.000000
0.561798 0.348236 0.000000
0.709503 0.273193 0.000000
0.654602 0.077332 0.000000
0.465820 0.000000 0.000000
0.000000 0.479614 0.000000
0.000000 0.479034 0.000000
0.000000 0.482635 0.000000
0.000000 0.539093 0.000000
0.140717 0.557159 0.000000
0.522034 0.546753 0.000000
0.725922 0.518219 0.000000
0.855499 0.454224 0.000000
0.815063 0.156647 0.000000
0.000000 0.638550 0.037048
0.000000 0.638336 0.036652
0.000000 0.637909 0.035919
0.000000 0.643066 0.031921
0.000000 0.718781 0.000000
0.348572 0.722839 0.000000
0.677307 0.709503 0.000000
0.878479 0.682098 0.000000
0.966614 0.627045 0.000000
0.000000 0.777557 0.265625
0.000000 0.777496 0.265289
0.000000 0.777344 0.264618
0.000000 0.777039 0.263245
0.000000 0.783844 0.251038
0.020844 0.879272 0.026062
0.518402 0.879669 0.005371
0.827393 0.865265 0.000000
0.998383 0.838593 0.000000
0.000000 0.897308 0.451721
0.000000 0.897308 0.451599
0.000000 0.897247 0.451385
0.000000 0.897125 0.450897
0.000000 0.896881 0.449799
0.000000 0.910126 0.440155
0.082031 0.999054 0.247681
0.667511 0.997864 0.171722
0.950226 0.989441 0.146332
0.005707 0.004486 0.015869
0.028412 0.002014 0.019806
0.086609 0.000000 0.023590
0.156158 0.000000 0.022766
0.214294 0.000000 0.018646
0.286041 0.000000 0.008087
0.348663 0.000000 0.000000
0.393982 0.000000 0.000000
0.466278 0.000000 0.000000
0.000244 0.024689 0.021729
0.023041 0.023590 0.023041
0.096558 0.014496 0.022034
0.188965 0.000458 0.017883
0.263245 0.000000 0.012787
0.294037 0.000000 0.008484
0.350464 0.000000 0.000000
0.394348 0.000000 0.000000
0.466248 0.000000 0.000000
0.000000 0.087677 0.020905
0.001068 0.091492 0.016571
0.085114 0.091125 0.007385
0.221649 0.068237 0.001495
0.342133 0.010925 0.000916
0.389374 0.000000 0.000580
0.356201 0.000000 0.000366
0.395569 0.000000 0.000000
0.466187 0.000000 0.000000
0.000000 0.187134 0.007385
0.000000 0.201019 0.001740
0.004486 0.217316 0.000000
0.207214 0.217926 0.000000
0.393463 0.189697 0.000000
0.541016 0.097504 0.000000
0.538422 0.000000 0.000000
0.399323 0.000000 0.000000
0.466064 0.000000 0.000000
0.000000 0.325714 0.000000
0.000000 0.328949 0.000000
0.000000 0.359985 0.000000
0.025482 0.384705 0.000000
0.362610 0.379242 0.000000
0.571442 0.349213 0.000000
0.728180 0.270081 0.000000
0.678131 0.073059 0.000000
0.465820 0.000000 0.000000
0.000000 0.486328 0.003632
0.000000 0.485809 0.003418
0.000000 0.489441 0.002777
0.000000 0.543243 0.000000
0.134644 0.559082 0.000000
0.523651 0.547882 0.000000
0.734528 0.518494 0.000000
0.877869 0.451843 0.000000
0.817505 0.156921 0.000000
0.000000 0.640717 0.073761
0.000000 0.640503 0.072845
0.000000 0.640137 0.071198
0.000000 0.645355 0.061584
0.000000 0.719421 0.000000
0.343689 0.722992 0.000000
0.677917 0.709351 0.000000
0.885956 0.681519 0.000000
0.980835 0.625946 0.000000
0.000000 0.777802 0.284576
0.000000 0.777740 0.284241
0.000000 0.777588 0.283661
0.000000 0.777283 0.282379
0.000000 0.784119 0.271667
0.020081 0.879120 0.059113
0.516388 0.879303 0.021759
0.827606 0.864868 0.000244
0.998383 0.837769 0.000732
0.000000 0.897156 0.458252
0.000000 0.897125 0.458130
0.000000 0.897095 0.457916
0.000000 0.896973 0.457428
0.000000 0.896729 0.456421
0.000000 0.910034 0.447357
0.081146 0.999054 0.270264
0.666534 0.997894 0.203156
0.949890 0.988770 0.172394
0.002899 0.001251 0.046783
0.033234 0.000000 0.057587
0.102600 0.000000 0.072510
0.183624 0.000000 0.079529
0.249969 0.000000 0.076782
0.328461 0.000000 0.067963
0.399780 0.000000 0.041412
0.437408 0.000000 0.002228
0.466309 0.000000 0.000000
0.000000 0.020294 0.061462
0.019135 0.015503 0.069580
0.106567 0.004486 0.081207
0.212921 0.000000 0.087006
0.300415 0.000000 0.083069
0.338959 0.000000 0.070526
0.401184 0.000000 0.043915
0.439331 0.000000 0.002594
0.466278 0.000000 0.000000
0.000000 0.087677 0.077515
0.000427 0.089478 0.080994
0.081390 0.083099 0.083099
0.232605 0.050415 0.080231
0.369324 0.003632 0.075897
0.435394 0.000000 0.071625
0.407776 0.000000 0.048370
0.442749 0.000000 0.005737
0.466217 0.000000 0.000000
0.000000 0.193878 0.077820
0.000000 0.206268 0.073822
0.002625 0.218445 0.065002
0.207062 0.215912 0.051178
0.402649 0.185089 0.038513
0.566467 0.082062 0.028870
0.590576 0.000000 0.031891
0.450195 0.000000 0.012024
0.466125 0.000000 0.000000
0.000000 0.334503 0.068573
0.000000 0.337708 0.065613
0.000000 0.366119 0.036499
0.019745 0.385559 0.016327
0.363190 0.378479 0.008179
0.580566 0.347473 0.002899
0.752563 0.262726 0.000641
0.736115 0.063385 0.000763
0.468201 0.000000 0.000000
0.000000 0.492279 0.074860
0.000000 0.491791 0.074097
0.000000 0.495483 0.065948
0.000000 0.546021 0.008118
0.130707 0.558624 0.000000
0.524078 0.546875 0.000000
0.743439 0.516602 0.000000
0.906860 0.446533 0.000000
0.846130 0.153748 0.000000
0.000000 0.642944 0.165253
0.000000 0.642731 0.164642
0.000000 0.642395 0.163605
0.000000 0.647705 0.152161
0.000000 0.719452 0.015228
0.337646 0.722076 0.003204
0.678192 0.708282 0.000244
0.893677 0.679657 0.000000
0.997040 0.621155 0.000000
0.000000 0.778015 0.314453
0.000000 0.777924 0.314209
0.000000 0.777802 0.313751
0.000000 0.777527 0.312714
0.000000 0.784424 0.304474
0.018799 0.878815 0.112091
0.513214 0.878601 0.055267
0.827698 0.863800 0.036285
0.998413 0.836060 0.004120
0.000000 0.896881 0.469635
0.000000 0.896851 0.469513
0.000000 0.896790 0.469299
0.000000 0.896698 0.468872
0.000000 0.896423 0.467896
0.000000 0.909821 0.459686
0.079559 0.999054 0.297455
0.664978 0.997894 0.250641
0.949341 0.987610 0.217010
0.000275 0.000000 0.104462
0.033295 0.000000 0.122894
0.116974 0.000000 0.149353
0.212952 0.000000 0.165100
0.292603 0.000000 0.163879
0.368317 0.000000 0.158630
0.454193 0.000000 0.147827
0.520233 0.000000 0.113464
0.535034 0.000000 0.035400
0.000000 0.008209 0.129730
0.009613 0.002045 0.146088
0.113281 0.000000 0.169189
0.235596 0.000000 0.185089
0.339630 0.000000 0.185059
0.384338 0.000000 0.164764
0.454468 0.000000 0.149048
0.520905 0.000000 0.115082
0.536407 0.000000 0.037018
0.000000 0.076935 0.161163
0.000000 0.072144 0.172913
0.066589 0.053101 0.188080
0.242126 0.016388 0.198914
0.394440 0.000000 0.202087
0.482452 0.000000 0.190155
0.461670 0.000000 0.152771
0.522064 0.000000 0.117950
0.538940 0.000000 0.040070
0.000000 0.194641 0.179169
0.000000 0.204224 0.188629
0.001709 0.211945 0.198975
0.201660 0.203644 0.204041
0.407867 0.164398 0.203491
0.584717 0.046417 0.198456
0.642944 0.000000 0.182587
0.524536 0.000000 0.123871
0.544617 0.000000 0.046631
0.000000 0.338776 0.194733
0.000000 0.341949 0.195068
0.000000 0.367249 0.195770
0.016998 0.380615 0.192810
0.360992 0.371460 0.188873
0.582153 0.338715 0.180267
0.768951 0.242859 0.167938
0.801971 0.041504 0.152039
0.555939 0.000000 0.058746
0.000000 0.495667 0.212067
0.000000 0.495239 0.211731
0.000000 0.499054 0.209930
0.000000 0.545532 0.180450
0.126862 0.553894 0.161804
0.522369 0.541504 0.156586
0.747162 0.510468 0.136261
0.928162 0.434875 0.108032
0.918884 0.141907 0.065155
0.000000 0.644379 0.263611
0.000000 0.644196 0.263306
0.000000 0.643860 0.262756
0.000000 0.649292 0.258636
0.000000 0.717590 0.174622
0.330383 0.718445 0.143097
0.677277 0.704407 0.129547
0.900391 0.674866 0.091980
0.999054 0.610413 0.045258
0.000000 0.777618 0.363037
0.000000 0.777557 0.362854
0.000000 0.777405 0.362518
0.000000 0.777130 0.361786
0.000000 0.784149 0.356476
0.016693 0.877411 0.236938
0.508362 0.876312 0.191223
0.827362 0.861176 0.153229
0.998383 0.832336 0.101624
0.000000 0.896362 0.491699
0.000000 0.896332 0.491608
0.000000 0.896271 0.491425
0.000000 0.896149 0.491028
0.000000 0.895905 0.490204
0.000000 0.909393 0.483582
0.076416 0.999054 0.346802
0.662262 0.997803 0.309296
0.948181 0.985199 0.291962
0.000000 0.000000 0.193237
0.018707 0.000000 0.220123
0.123291 0.000000 0.254547
0.238312 0.000000 0.275177
0.335876 0.000000 0.272522
0.390228 0.000000 0.247314
0.479095 0.000000 0.243896
0.557129 0.000000 0.228943
0.618988 0.000000 0.193085
0.000000 0.000000 0.228912
0.000000 0.000000 0.253082
0.103973 0.000000 0.284485
0.250854 0.000000 0.304626
0.374359 0.000000 0.304321
0.425049 0.000000 0.267487
0.478973 0.000000 0.244385
0.557159 0.000000 0.229492
0.619141 0.000000 0.193817
0.000000 0.042023 0.265747
0.000000 0.027527 0.287048
0.032104 0.008942 0.312225
0.243439 0.000000 0.330292
0.411652 0.000000 0.337921
0.522675 0.000000 0.318451
0.495392 0.000000 0.252716
0.557220 0.000000 0.230499
0.619446 0.000000 0.195160
0.000000 0.185089 0.291138
0.000000 0.188995 0.310822
0.000397 0.187927 0.333466
0.185120 0.168518 0.346283
0.409332 0.103424 0.352539
0.594513 0.019623 0.353363
0.682983 0.000000 0.324524
0.562134 0.000000 0.234344
0.620026 0.000000 0.197937
0.000000 0.335297 0.314850
0.000000 0.338684 0.318481
0.000000 0.359619 0.338806
0.015015 0.367188 0.351593
0.354126 0.355133 0.355530
0.579468 0.318817 0.355896
0.772858 0.203064 0.351593
0.840546 0.010406 0.321564
0.621063 0.000000 0.203644
0.000000 0.493408 0.336792
0.000000 0.492981 0.336609
0.000000 0.497101 0.337952
0.000000 0.539246 0.347290
0.119019 0.543091 0.350891
0.518127 0.529907 0.351868
0.744232 0.497772 0.347046
0.935669 0.415405 0.335846
0.968842 0.128418 0.305206
0.000000 0.642426 0.369720
0.000000 0.642242 0.369537
0.000000 0.641907 0.369263
0.000000 0.647522 0.368622
0.000000 0.711731 0.350189
0.322266 0.710175 0.345917
0.674225 0.695801 0.340729
0.902008 0.665344 0.324707
0.999054 0.595123 0.298981
0.000000 0.775421 0.433380
0.000000 0.775330 0.433258
0.000000 0.775208 0.433044
0.000000 0.774933 0.432556
0.000000 0.782227 0.430542
0.013641 0.873535 0.369904
0.502350 0.870636 0.352264
0.825439 0.854889 0.338379
0.998291 0.825287 0.313324
0.000000 0.894867 0.529724
0.000000 0.894836 0.529633
0.000000 0.894775 0.529510
0.000000 0.894653 0.529205
0.000000 0.894409 0.528564
0.000000 0.908081 0.524689
0.071503 0.999054 0.424103
0.658051 0.997528 0.399109
0.945618 0.979950 0.387390
0.000000 0.000000 0.336212
0.000671 0.000000 0.367981
0.095154 0.000000 0.403992
0.254578 0.000000 0.424622
0.382446 0.000000 0.420166
0.435242 0.000000 0.361725
0.486267 0.000000 0.329651
0.566223 0.000000 0.320374
0.634583 0.000000 0.301666
0.000000 0.000000 0.367676
0.000000 0.000000 0.398499
0.053436 0.000000 0.433533
0.250214 0.000000 0.454590
0.404724 0.000000 0.454468
0.492096 0.000000 0.409454
0.487335 0.000000 0.330780
0.566162 0.000000 0.320587
0.634583 0.000000 0.301910
0.000000 0.004547 0.396698
0.000000 0.000000 0.426147
0.002136 0.000000 0.459503
0.228394 0.000000 0.479858
0.419403 0.000000 0.488403
0.563629 0.000000 0.470276
0.535675 0.000000 0.362305
0.566010 0.000000 0.320984
0.634552 0.000000 0.302338
0.000000 0.157532 0.419250
0.000000 0.147949 0.446747
0.000000 0.123199 0.479797
0.142303 0.087799 0.495728
0.403687 0.039185 0.503662
0.596710 0.009583 0.506256
0.722534 0.000000 0.476929
0.580963 0.000000 0.330078
0.634460 0.000000 0.303284
0.000000 0.323761 0.436249
0.000000 0.327667 0.447449
0.000000 0.341034 0.483002
0.010437 0.341400 0.503998
0.339722 0.325623 0.508789
0.574402 0.283447 0.511627
0.770874 0.131073 0.511810
0.877441 0.003204 0.478912
0.635040 0.000000 0.305664
0.000000 0.483978 0.459778
0.000000 0.483551 0.459656
0.000000 0.488281 0.464569
0.000000 0.525330 0.500732
0.099487 0.525879 0.509369
0.510559 0.511475 0.511841
0.738556 0.477264 0.512024
0.935211 0.386383 0.508423
0.990540 0.110229 0.478760
0.000000 0.634766 0.482666
0.000000 0.634613 0.482574
0.000000 0.634277 0.482422
0.000000 0.640503 0.485291
0.000000 0.700165 0.504517
0.309296 0.696533 0.507538
0.668945 0.681641 0.507568
0.897736 0.649963 0.502472
0.999054 0.573914 0.491608
0.000000 0.769440 0.521667
0.000000 0.769379 0.521576
0.000000 0.769257 0.521454
0.000000 0.768951 0.521179
0.000000 0.776825 0.522278
0.007904 0.865265 0.509155
0.495758 0.860077 0.505035
0.821075 0.843750 0.501221
0.998016 0.813354 0.489105
0.000000 0.891388 0.587341
0.000000 0.891357 0.587311
0.000000 0.891296 0.587189
0.000000 0.891205 0.587006
0.000000 0.890930 0.586578
0.000000 0.905090 0.586609
0.065521 0.999054 0.528931
0.653198 0.994904 0.514740
0.940399 0.970001 0.508850
0.000000 0.000000 0.531891
0.000000 0.000000 0.563293
0.023712 0.000000 0.592529
0.236237 0.000000 0.611572
0.414398 0.000000 0.613342
0.540009 0.000000 0.574585
0.498505 0.000000 0.420532
0.561523 0.000000 0.399170
0.631500 0.000000 0.385773
0.000000 0.000000 0.545074
0.000000 0.000000 0.576416
0.002869 0.000000 0.606506
0.220306 0.000000 0.625824
0.417053 0.000000 0.631073
0.566620 0.000000 0.608154
0.545319 0.000000 0.460510
0.561432 0.000000 0.399292
0.631470 0.000000 0.385864
0.000000 0.003723 0.559082
0.000000 0.000092 0.589874
0.000000 0.000000 0.621002
0.182526 0.000000 0.639862
0.411957 0.000000 0.647308
0.587524 0.000000 0.638977
0.656311 0.000000 0.555176
0.562286 0.000000 0.400238
0.631378 0.000000 0.386047
0.000000 0.112885 0.568817
0.000000 0.091461 0.599182
0.000000 0.065491 0.633606
0.079071 0.040283 0.651154
0.386383 0.021057 0.657837
0.590424 0.003479 0.659027
0.750885 0.000000 0.640198
0.636658 0.000000 0.453461
0.631195 0.000000 0.386414
0.000000 0.310120 0.560730
0.000000 0.312897 0.588776
0.000000 0.313934 0.632141
0.002167 0.303253 0.657349
0.314301 0.281128 0.661652
0.564575 0.225525 0.664337
0.764465 0.080841 0.665497
0.905945 0.000366 0.639343
0.637665 0.000000 0.391449
0.000000 0.469391 0.577118
0.000000 0.468964 0.577057
0.000000 0.476379 0.592682
0.000000 0.504181 0.650574
0.060028 0.501617 0.662231
0.498077 0.486298 0.664215
0.731110 0.449036 0.666077
0.931366 0.347076 0.666809
0.998749 0.092468 0.639496
0.000000 0.621674 0.595123
0.000000 0.621490 0.595062
0.000000 0.621155 0.595001
0.000000 0.629517 0.603302
0.000000 0.682404 0.655579
0.278442 0.677521 0.660675
0.660706 0.661743 0.662170
0.890625 0.628540 0.661926
0.999054 0.546875 0.658844
0.000000 0.759064 0.619415
0.000000 0.759003 0.619385
0.000000 0.758850 0.619324
0.000000 0.758575 0.619171
0.000000 0.767365 0.623993
0.000397 0.851898 0.655121
0.487000 0.844513 0.656586
0.814392 0.827362 0.656494
0.997009 0.795624 0.652802
0.000000 0.884796 0.662201
0.000000 0.884766 0.662170
0.000000 0.884705 0.662109
0.000000 0.884583 0.661987
0.000000 0.884308 0.661713
0.000000 0.898956 0.666016
0.059937 0.996643 0.655884
0.648529 0.982300 0.648529
0.932678 0.953918 0.645752
0.000000 0.000000 0.740417
0.000000 0.000000 0.758209
0.000000 0.000000 0.774109
0.171387 0.000000 0.787140
0.404602 0.000000 0.792542
0.584259 0.000000 0.785095
0.705811 0.000000 0.732025
0.555573 0.000000 0.473602
0.619385 0.000000 0.456635
0.000000 0.000000 0.742340
0.000000 0.000000 0.760956
0.000000 0.000000 0.777405
0.147858 0.000000 0.790955
0.398773 0.000000 0.797180
0.584839 0.000000 0.791595
0.724213 0.000000 0.753571
0.567078 0.000000 0.483612
0.619354 0.000000 0.456665
0.000000 0.005188 0.744263
0.000000 0.002716 0.764801
0.000000 0.000397 0.782410
0.103027 0.000000 0.796112
0.385986 0.000000 0.802673
0.583771 0.000000 0.800415
0.742798 0.000000 0.777191
0.638458 0.000000 0.545380
0.619263 0.000000 0.456726
0.000000 0.111084 0.740479
0.000000 0.088806 0.765594
0.000000 0.053802 0.786957
0.037872 0.014160 0.801971
0.355133 0.005768 0.809418
0.575470 0.001740 0.811127
0.756866 0.000000 0.801392
0.833710 0.000000 0.716339
0.619202 0.000000 0.456970
0.000000 0.309174 0.714630
0.000000 0.303772 0.748749
0.000000 0.292572 0.784393
0.001312 0.272858 0.805634
0.264526 0.245789 0.813965
0.547180 0.192688 0.817047
0.753540 0.078003 0.817780
0.920593 0.001404 0.800751
0.737518 0.000000 0.549255
0.000000 0.460571 0.684479
0.000000 0.462341 0.692322
0.000000 0.473572 0.737488
0.000000 0.483978 0.798035
0.045624 0.476135 0.814392
0.478271 0.459045 0.816376
0.719696 0.419403 0.818481
0.923218 0.304626 0.820099
0.999054 0.075592 0.798706
0.000000 0.607574 0.700409
0.000000 0.607391 0.700378
0.000000 0.607086 0.700317
0.000000 0.620728 0.724945
0.000000 0.661011 0.804657
0.215118 0.654785 0.812988
0.648590 0.638245 0.813995
0.881409 0.603455 0.815094
0.999054 0.518127 0.815765
0.000000 0.745911 0.717773
0.000000 0.745850 0.717743
0.000000 0.745697 0.717712
0.000000 0.745361 0.717621
0.000000 0.756836 0.728851
0.000000 0.832581 0.804047
0.474457 0.823761 0.806549
0.804810 0.805573 0.805939
0.995483 0.774323 0.804871
0.000000 0.875641 0.747498
0.000000 0.875610 0.747498
0.000000 0.875549 0.747437
0.000000 0.875427 0.747375
0.000000 0.875122 0.747192
0.000000 0.890015 0.756439
0.055786 0.983826 0.795227
0.643341 0.960663 0.787079
0.922485 0.933075 0.782501
0.000000 0.007904 0.915619
0.000000 0.006042 0.921906
0.000000 0.002777 0.929718
0.093384 0.000000 0.939026
0.364960 0.000000 0.947266
0.571167 0.000000 0.950348
0.749878 0.000000 0.942444
0.872467 0.000000 0.887146
0.601929 0.000000 0.517120
0.000000 0.009918 0.916168
0.000000 0.007629 0.922577
0.000000 0.003693 0.930725
0.079071 0.000000 0.940369
0.357483 0.000000 0.948883
0.568268 0.000000 0.952332
0.750061 0.000000 0.945618
0.882812 0.000000 0.899323
0.602417 0.000000 0.517609
0.000000 0.057648 0.916351
0.000000 0.051941 0.923157
0.000000 0.042236 0.931946
0.055939 0.026215 0.942291
0.342987 0.008423 0.951477
0.563110 0.000000 0.955780
0.749390 0.000000 0.950500
0.897095 0.000000 0.916656
0.603394 0.000000 0.518555
0.000000 0.183899 0.914673
0.000000 0.175812 0.923218
0.000000 0.163177 0.933289
0.023254 0.141052 0.944824
0.304230 0.107697 0.954865
0.550018 0.058655 0.960266
0.746277 0.007355 0.958405
0.911499 0.000000 0.937714
0.746765 0.000000 0.644867
0.000000 0.341248 0.902771
0.000000 0.334839 0.917603
0.000000 0.325348 0.932098
0.000549 0.308990 0.946991
0.212799 0.280457 0.958832
0.520020 0.228058 0.964844
0.734070 0.118011 0.966248
0.918976 0.006927 0.957886
0.988922 0.000000 0.887085
0.000000 0.480499 0.830841
0.000000 0.483246 0.862671
0.000000 0.485504 0.909424
0.000000 0.480255 0.942230
0.038422 0.467773 0.959503
0.447784 0.448120 0.966248
0.701324 0.410858 0.968536
0.908112 0.306580 0.968658
0.999054 0.088928 0.954315
0.000000 0.601776 0.794891
0.000000 0.601593 0.794861
0.000000 0.604401 0.802490
0.000000 0.627167 0.874115
0.000000 0.642914 0.950195
0.211792 0.633820 0.963226
0.630768 0.617493 0.963470
0.868073 0.585022 0.963196
0.999054 0.504730 0.962677
0.000000 0.734314 0.811737
0.000000 0.734222 0.811707
0.000000 0.734070 0.811707
0.000000 0.733765 0.811646
0.000000 0.757233 0.850464
0.003143 0.810913 0.951782
0.457367 0.801300 0.954437
0.792358 0.783325 0.949249
0.990692 0.752502 0.944763
0.000000 0.864838 0.835022
0.000000 0.864807 0.835022
0.000000 0.864746 0.834991
0.000000 0.864594 0.834961
0.000000 0.864319 0.834839
0.000000 0.880920 0.851227
0.056519 0.961151 0.934784
0.637756 0.935608 0.920410
0.909210 0.909210 0.909302
