resources/LUTs/Exigent Films REC709 x33 (monitoring) LUTs/Exposure_-0.CUBE
#Created by: Adobe Photoshop Export Color Lookup Plugin
TITLE "exposure_-0"
#LUT size
LUT_3D_SIZE 5
#data domain
DOMAIN_MIN 0.0 0.0 0.0
DOMAIN_MAX 1.0 1.0 1.0
#LUT data points
0.000000 0.000000 0.000000
0.122650 0.000000 0.000000
0.296326 0.000000 0.000000
0.449585 0.000000 0.000000
0.592621 0.000000 0.000000
0.000000 0.209076 0.000000
0.252411 0.262756 0.000000
0.592773 0.113129 0.000000
0.449097 0.000000 0.000000
0.592529 0.000000 0.000000
0.000000 0.580139 0.000000
0.000000 0.629913 0.000000
0.627960 0.658936 0.000000
0.926239 0.570770 0.000000
0.592224 0.000000 0.000000
0.000000 0.870941 0.392273
0.000000 0.870514 0.390167
0.045044 0.978821 0.139557
0.924927 0.964874 0.036926
0.999054 0.898071 0.000000
0.000000 0.999054 0.720917
0.000000 0.999054 0.720642
0.000000 0.999054 0.719391
0.383545 0.999054 0.588409
0.996674 0.999054 0.630035
0.000000 0.000000 0.044891
0.220215 0.000000 0.171509
0.440521 0.000000 0.185120
0.569550 0.000000 0.105164
0.592651 0.000000 0.000000
0.000000 0.244232 0.225311
0.253082 0.255829 0.256561
0.702637 0.045563 0.248474
0.576874 0.000000 0.121552
0.592560 0.000000 0.000000
0.000000 0.602173 0.283356
0.000000 0.645233 0.261108
0.631561 0.654419 0.213684
0.997803 0.547028 0.151123
0.592255 0.000000 0.000000
0.000000 0.869293 0.475189
0.000000 0.868896 0.473999
0.020325 0.976990 0.354736
0.922729 0.958008 0.295715
0.999054 0.893921 0.061951
0.000000 0.999054 0.734894
0.000000 0.999054 0.734650
0.000000 0.999054 0.733490
0.381073 0.999054 0.612732
0.996368 0.999054 0.653534
0.000000 0.000000 0.316986
0.296844 0.000000 0.478271
0.458557 0.000000 0.384674
0.618225 0.000000 0.366089
0.735748 0.000000 0.308838
0.000000 0.208832 0.500610
0.183472 0.131836 0.610535
0.715820 0.010193 0.613495
0.617798 0.000000 0.367523
0.735687 0.000000 0.310883
0.000000 0.582855 0.556580
0.000000 0.623657 0.596863
0.617371 0.618073 0.618378
0.998199 0.491333 0.614716
0.735474 0.000000 0.319092
0.000000 0.859070 0.625519
0.000000 0.858643 0.625092
0.019440 0.966644 0.616760
0.912445 0.934692 0.606354
0.999054 0.856140 0.583527
0.000000 0.999054 0.781494
0.000000 0.999054 0.781311
0.000000 0.999054 0.780548
0.379700 0.999054 0.690857
0.995209 0.999054 0.725006
0.000000 0.000000 0.844666
0.244965 0.000000 0.903595
0.699158 0.000000 0.897217
0.590668 0.000000 0.506439
0.711945 0.000000 0.477997
0.000000 0.255890 0.814636
0.075104 0.126801 0.916870
0.692108 0.017120 0.926331
0.869904 0.000000 0.753143
0.711792 0.000000 0.478210
0.000000 0.562225 0.769714
0.000000 0.596802 0.902283
0.585114 0.571075 0.928009
0.993805 0.439972 0.929688
0.719849 0.000000 0.485718
0.000000 0.837891 0.808380
0.000000 0.837433 0.808228
0.024445 0.935883 0.908020
0.889160 0.889557 0.889984
0.999054 0.812378 0.884186
0.000000 0.999054 0.885956
0.000000 0.999054 0.885864
0.000000 0.999054 0.885559
0.417328 0.999054 0.850677
0.991058 0.998840 0.860840
0.000000 0.550140 0.999054
0.266632 0.547211 0.999054
0.676331 0.524231 0.999054
0.990967 0.390594 0.999054
0.671509 0.000000 0.582703
0.000000 0.592010 0.999054
0.181580 0.590363 0.999054
0.658875 0.570892 0.999054
0.989471 0.473541 0.999054
0.674133 0.000000 0.585175
0.000000 0.711243 0.999054
0.003265 0.718750 0.999054
0.582977 0.708618 0.999054
0.977570 0.657379 0.999054
0.999054 0.195801 0.999054
0.000000 0.830261 0.977142
0.000000 0.829834 0.977081
0.070526 0.933167 0.999054
0.867279 0.882965 0.999054
0.999054 0.827057 0.999054
0.000000 0.999054 0.999054
0.000000 0.999054 0.999054
0.000000 0.999054 0.999054
0.557465 0.999054 0.997833
0.982422 0.983856 0.983948
