resources/LUTs/Exigent Films REC709 x33 (monitoring) LUTs/Exposure_-2.CUBE
#Created by: Adobe Photoshop Export Color Lookup Plugin
TITLE "exposure_-2"
#LUT size
LUT_3D_SIZE 5
#data domain
DOMAIN_MIN 0.0 0.0 0.0
DOMAIN_MAX 1.0 1.0 1.0
#LUT data points
0.006104 0.006226 0.006073
0.077057 0.000610 0.004700
0.192719 0.000000 0.000397
0.321838 0.000000 0.000000
0.466278 0.000000 0.000000
0.000000 0.085571 0.001923
0.085083 0.091064 0.000000
0.322906 0.014496 0.000000
0.327148 0.000000 0.000000
0.466187 0.000000 0.000000
0.000000 0.316986 0.000000
0.000000 0.352936 0.000000
0.360382 0.376526 0.000000
0.709503 0.273193 0.000000
0.465820 0.000000 0.000000
0.000000 0.638550 0.037048
0.000000 0.637909 0.035919
0.000000 0.718781 0.000000
0.677307 0.709503 0.000000
0.966614 0.627045 0.000000
0.000000 0.897308 0.451721
0.000000 0.897247 0.451385
0.000000 0.896881 0.449799
0.082031 0.999054 0.247681
0.950226 0.989441 0.146332
0.002899 0.001251 0.046783
0.102600 0.000000 0.072510
0.249969 0.000000 0.076782
0.399780 0.000000 0.041412
0.466309 0.000000 0.000000
0.000000 0.087677 0.077515
0.081390 0.083099 0.083099
0.369324 0.003632 0.075897
0.407776 0.000000 0.048370
0.466217 0.000000 0.000000
0.000000 0.334503 0.068573
0.000000 0.366119 0.036499
0.363190 0.378479 0.008179
0.752563 0.262726 0.000641
0.468201 0.000000 0.000000
0.000000 0.642944 0.165253
0.000000 0.642395 0.163605
0.000000 0.719452 0.015228
0.678192 0.708282 0.000244
0.997040 0.621155 0.000000
0.000000 0.896881 0.469635
0.000000 0.896790 0.469299
0.000000 0.896423 0.467896
0.079559 0.999054 0.297455
0.949341 0.987610 0.217010
0.000000 0.000000 0.193237
0.123291 0.000000 0.254547
0.335876 0.000000 0.272522
0.479095 0.000000 0.243896
0.618988 0.000000 0.193085
0.000000 0.042023 0.265747
0.032104 0.008942 0.312225
0.411652 0.000000 0.337921
0.495392 0.000000 0.252716
0.619446 0.000000 0.195160
0.000000 0.335297 0.314850
0.000000 0.359619 0.338806
0.354126 0.355133 0.355530
0.772858 0.203064 0.351593
0.621063 0.000000 0.203644
0.000000 0.642426 0.369720
0.000000 0.641907 0.369263
0.000000 0.711731 0.350189
0.674225 0.695801 0.340729
0.999054 0.595123 0.298981
0.000000 0.894867 0.529724
0.000000 0.894775 0.529510
0.000000 0.894409 0.528564
0.071503 0.999054 0.424103
0.945618 0.979950 0.387390
0.000000 0.000000 0.531891
0.023712 0.000000 0.592529
0.414398 0.000000 0.613342
0.498505 0.000000 0.420532
0.631500 0.000000 0.385773
0.000000 0.003723 0.559082
0.000000 0.000000 0.621002
0.411957 0.000000 0.647308
0.656311 0.000000 0.555176
0.631378 0.000000 0.386047
0.000000 0.310120 0.560730
0.000000 0.313934 0.632141
0.314301 0.281128 0.661652
0.764465 0.080841 0.665497
0.637665 0.000000 0.391449
0.000000 0.621674 0.595123
0.000000 0.621155 0.595001
0.000000 0.682404 0.655579
0.660706 0.661743 0.662170
0.999054 0.546875 0.658844
0.000000 0.884796 0.662201
0.000000 0.884705 0.662109
0.000000 0.884308 0.661713
0.059937 0.996643 0.655884
0.932678 0.953918 0.645752
0.000000 0.007904 0.915619
0.000000 0.002777 0.929718
0.364960 0.000000 0.947266
0.749878 0.000000 0.942444
0.601929 0.000000 0.517120
0.000000 0.057648 0.916351
0.000000 0.042236 0.931946
0.342987 0.008423 0.951477
0.749390 0.000000 0.950500
0.603394 0.000000 0.518555
0.000000 0.341248 0.902771
0.000000 0.325348 0.932098
0.212799 0.280457 0.958832
0.734070 0.118011 0.966248
0.988922 0.000000 0.887085
0.000000 0.601776 0.794891
0.000000 0.604401 0.802490
0.000000 0.642914 0.950195
0.630768 0.617493 0.963470
0.999054 0.504730 0.962677
0.000000 0.864838 0.835022
0.000000 0.864746 0.834991
0.000000 0.864319 0.834839
0.056519 0.961151 0.934784
0.909210 0.909210 0.909302
