resources/LUTs/Exigent Films REC709 x33 (monitoring) LUTs/Exposure_-0.CUBE
#Created by: Adobe Photoshop Export Color Lookup Plugin
TITLE "exposure_-0"
#LUT size
LUT_3D_SIZE 9
#data domain
DOMAIN_MIN 0.0 0.0 0.0
DOMAIN_MAX 1.0 1.0 1.0
#LUT data points
0.000000 0.000000 0.000000
0.030579 0.000000 0.000000
0.122650 0.000000 0.000000
0.212769 0.000000 0.000000
0.296326 0.000000 0.000000
0.374542 0.000000 0.000000
0.449585 0.000000 0.000000
0.522797 0.000000 0.000000
0.592621 0.000000 0.000000
0.000000 0.049988 0.000000
0.053711 0.055389 0.000000
0.211975 0.020508 0.000000
0.283875 0.000000 0.000000
0.301514 0.000000 0.000000
0.374146 0.000000 0.000000
0.449402 0.000000 0.000000
0.522705 0.000000 0.000000
0.592590 0.000000 0.000000
0.000000 0.209076 0.000000
0.000000 0.236633 0.000000
0.252411 0.262756 0.000000
0.466553 0.228027 0.000000
0.592773 0.113129 0.000000
0.475159 0.000000 0.000000
0.449097 0.000000 0.000000
0.522583 0.000000 0.000000
0.592529 0.000000 0.000000
0.000000 0.392181 0.000000
0.000000 0.396332 0.000000
0.032349 0.473236 0.000000
0.451477 0.472412 0.000000
0.654938 0.444153 0.000000
0.794403 0.365356 0.000000
0.674805 0.099030 0.000000
0.522278 0.000000 0.000000
0.592407 0.000000 0.000000
0.000000 0.580139 0.000000
0.000000 0.578583 0.000000
0.000000 0.629913 0.000000
0.248840 0.670929 0.000000
0.627960 0.658936 0.000000
0.812592 0.631042 0.000000
0.926239 0.570770 0.000000
0.828186 0.195099 0.000000
0.592224 0.000000 0.000000
0.000000 0.742554 0.119598
0.000000 0.742126 0.115723
0.000000 0.741272 0.108643
0.000000 0.831635 0.000000
0.464203 0.840942 0.000000
0.789215 0.826996 0.000000
0.962769 0.799194 0.000000
0.999054 0.744049 0.000000
0.991638 0.390778 0.000000
0.000000 0.870941 0.392273
0.000000 0.870789 0.391541
0.000000 0.870514 0.390167
0.000000 0.870453 0.386871
0.045044 0.978821 0.139557
0.629364 0.978821 0.070831
0.924927 0.964874 0.036926
0.999054 0.940155 0.011475
0.999054 0.898071 0.000000
0.000000 0.980713 0.570618
0.000000 0.980652 0.570374
0.000000 0.980560 0.569916
0.000000 0.980316 0.568878
0.000000 0.986542 0.563629
0.116180 0.999054 0.391876
0.751770 0.999054 0.363953
0.987640 0.999054 0.367859
0.999054 0.999054 0.303375
0.000000 0.999054 0.720917
0.000000 0.999054 0.720856
0.000000 0.999054 0.720642
0.000000 0.999054 0.720245
0.000000 0.999054 0.719391
0.000000 0.999054 0.714844
0.383545 0.999054 0.588409
0.865753 0.999054 0.608459
0.996674 0.999054 0.630035
0.000000 0.000000 0.006134
0.058746 0.000000 0.033875
0.172272 0.000000 0.047302
0.275970 0.000000 0.041748
0.356598 0.000000 0.021027
0.405457 0.000000 0.000580
0.450775 0.000000 0.000000
0.522797 0.000000 0.000000
0.592621 0.000000 0.000000
0.000000 0.059418 0.049347
0.052643 0.054230 0.054169
0.261627 0.006744 0.048065
0.364136 0.000000 0.043610
0.371246 0.000000 0.029327
0.412109 0.000000 0.002075
0.451416 0.000000 0.000000
0.522736 0.000000 0.000000
0.592590 0.000000 0.000000
0.000000 0.239868 0.041382
0.000000 0.263275 0.017761
0.260071 0.272980 0.002991
0.506958 0.227814 0.001099
0.658081 0.092926 0.000732
0.537567 0.000000 0.000641
0.453430 0.000000 0.000000
0.522583 0.000000 0.000000
0.592560 0.000000 0.000000
0.000000 0.428009 0.030945
0.000000 0.432159 0.022552
0.023346 0.489929 0.000000
0.460693 0.481232 0.000000
0.695892 0.446228 0.000000
0.853851 0.357697 0.000000
0.697876 0.096619 0.000000
0.522278 0.000000 0.000000
0.592407 0.000000 0.000000
0.000000 0.598816 0.096344
0.000000 0.597778 0.093628
0.000000 0.644775 0.008148
0.212128 0.675995 0.000000
0.633545 0.662018 0.000000
0.853943 0.631592 0.000000
0.972473 0.567017 0.000000
0.836609 0.195709 0.000000
0.592224 0.000000 0.000000
0.000000 0.745392 0.257874
0.000000 0.745026 0.256531
0.000000 0.744293 0.253937
0.000000 0.832550 0.068054
0.451691 0.840576 0.008331
0.790680 0.825684 0.007568
0.979340 0.797302 0.000000
0.999054 0.743958 0.000000
0.993744 0.398926 0.000000
0.000000 0.870544 0.427521
0.000000 0.870392 0.426971
0.000000 0.870117 0.425903
0.000000 0.870331 0.423248
0.034973 0.978394 0.245941
0.624603 0.977692 0.175354
0.924286 0.962402 0.138489
0.999054 0.936523 0.053619
0.999054 0.897186 0.000000
0.000000 0.980438 0.583740
0.000000 0.980377 0.583496
0.000000 0.980255 0.583099
0.000000 0.980042 0.582153
0.000000 0.986420 0.577606
0.115112 0.999054 0.420776
0.750153 0.999054 0.395233
0.986908 0.999054 0.402985
0.999054 0.998657 0.360840
0.000000 0.999054 0.726013
0.000000 0.999054 0.725952
0.000000 0.999054 0.725769
0.000000 0.999054 0.725372
0.000000 0.999054 0.724548
0.000000 0.999054 0.720306
0.382599 0.999054 0.597290
0.865295 0.999054 0.616852
0.996552 0.999054 0.638763
0.000000 0.000000 0.044891
0.081421 0.000000 0.121246
0.220215 0.000000 0.171509
0.340332 0.000000 0.187866
0.440521 0.000000 0.185120
0.520508 0.000000 0.164459
0.569550 0.000000 0.105164
0.556244 0.000000 0.000000
0.592651 0.000000 0.000000
0.000000 0.044159 0.167389
0.025452 0.008392 0.211914
0.297913 0.000305 0.240356
0.438690 0.000000 0.232605
0.454987 0.000000 0.193329
0.521545 0.000000 0.168640
0.572449 0.000000 0.111176
0.559357 0.000000 0.000153
0.592621 0.000000 0.000000
0.000000 0.244232 0.225311
0.000000 0.260803 0.243622
0.253082 0.255829 0.256561
0.518005 0.198059 0.255676
0.702637 0.045563 0.248474
0.646240 0.000000 0.202087
0.576874 0.000000 0.121552
0.567871 0.000000 0.011871
0.592560 0.000000 0.000000
0.000000 0.435211 0.249176
0.000000 0.439453 0.248688
0.017944 0.483398 0.244049
0.457550 0.471069 0.241577
0.702942 0.433807 0.229828
0.893829 0.330200 0.216431
0.815247 0.065979 0.169830
0.582458 0.000000 0.035278
0.592407 0.000000 0.000000
0.000000 0.602173 0.283356
0.000000 0.601227 0.282288
0.000000 0.645233 0.261108
0.200043 0.668945 0.225098
0.631561 0.654419 0.213684
0.865814 0.622345 0.182617
0.997803 0.547028 0.151123
0.892212 0.181610 0.054169
0.592255 0.000000 0.000000
0.000000 0.745117 0.361328
0.000000 0.744751 0.360596
0.000000 0.744110 0.359283
0.000000 0.830139 0.284637
0.440796 0.835846 0.241089
0.789764 0.820465 0.217712
0.984558 0.790344 0.170837
0.999054 0.731842 0.074432
0.995087 0.410522 0.000000
0.000000 0.869293 0.475189
0.000000 0.869141 0.474792
0.000000 0.868896 0.473999
0.000000 0.869568 0.472015
0.020325 0.976990 0.354736
0.618927 0.975128 0.313995
0.922729 0.958008 0.295715
0.999054 0.929962 0.240906
0.999054 0.893921 0.061951
0.000000 0.979614 0.604553
0.000000 0.979553 0.604370
0.000000 0.979462 0.604004
0.000000 0.979218 0.603210
0.000000 0.985992 0.599792
0.113373 0.999054 0.463593
0.747803 0.999054 0.442963
0.985657 0.999054 0.451904
0.999054 0.996796 0.431580
0.000000 0.999054 0.734894
0.000000 0.999054 0.734802
0.000000 0.999054 0.734650
0.000000 0.999054 0.734283
0.000000 0.999054 0.733490
0.000000 0.999054 0.729858
0.381073 0.999054 0.612732
0.864502 0.999054 0.631287
0.996368 0.999054 0.653534
0.000000 0.000000 0.128418
0.094910 0.000000 0.232056
0.240173 0.000000 0.273987
0.357300 0.000000 0.293213
0.459564 0.000000 0.297302
0.545685 0.000000 0.288910
0.617035 0.000000 0.268646
0.673492 0.000000 0.224579
0.667908 0.000000 0.090637
0.000000 0.010620 0.292633
0.000885 0.000000 0.372620
0.308228 0.000000 0.411530
0.484619 0.000000 0.400604
0.498291 0.000000 0.322174
0.545380 0.000000 0.290161
0.617004 0.000000 0.270050
0.673828 0.000000 0.226654
0.668823 0.000000 0.093811
0.000000 0.230621 0.368134
0.000000 0.235138 0.413055
0.231110 0.210205 0.441650
0.517303 0.126770 0.448120
0.715088 0.017883 0.444489
0.689758 0.000000 0.358429
0.616943 0.000000 0.272522
0.674377 0.000000 0.230255
0.670502 0.000000 0.099731
0.000000 0.427429 0.403595
0.000000 0.432129 0.409485
0.014557 0.465271 0.446411
0.449371 0.450348 0.450745
0.697418 0.409943 0.450989
0.898193 0.285522 0.446167
0.859619 0.032837 0.376740
0.675385 0.000000 0.237335
0.673096 0.000000 0.110687
0.000000 0.596222 0.428650
0.000000 0.595276 0.428192
0.000000 0.637451 0.440430
0.186768 0.654480 0.445953
0.625946 0.639191 0.446411
0.862885 0.605621 0.440002
0.998993 0.522034 0.427521
0.965759 0.166595 0.372620
0.684326 0.000000 0.127075
0.000000 0.740112 0.470764
0.000000 0.739777 0.470398
0.000000 0.739105 0.469696
0.000000 0.822815 0.454468
0.430573 0.825348 0.444000
0.785736 0.809387 0.438690
0.985229 0.777954 0.422424
0.999054 0.714203 0.395203
0.999054 0.326721 0.274475
0.000000 0.865875 0.542511
0.000000 0.865723 0.542236
0.000000 0.865479 0.541748
0.000000 0.867310 0.540771
0.017120 0.973419 0.478882
0.612610 0.969147 0.459442
0.919067 0.949493 0.451538
0.999054 0.918884 0.433411
0.999054 0.876495 0.368744
0.000000 0.978088 0.640442
0.000000 0.978027 0.640289
0.000000 0.977905 0.640015
0.000000 0.977692 0.639404
0.000000 0.985229 0.637939
0.110809 0.999054 0.532562
0.744659 0.999054 0.517303
0.983398 0.998657 0.527405
0.999054 0.991486 0.524231
0.000000 0.999054 0.751801
0.000000 0.999054 0.751740
0.000000 0.999054 0.751587
0.000000 0.999054 0.751282
0.000000 0.999054 0.750610
0.000000 0.999054 0.748169
0.379181 0.999054 0.641846
0.863037 0.999054 0.658752
0.995911 0.999054 0.680389
0.000000 0.000000 0.316986
0.064636 0.000000 0.448822
0.296844 0.000000 0.478271
0.401215 0.000000 0.429688
0.458557 0.000000 0.384674
0.544861 0.000000 0.379364
0.618225 0.000000 0.366089
0.681488 0.000000 0.345734
0.735748 0.000000 0.308838
0.000000 0.003601 0.437164
0.000000 0.000000 0.550049
0.295776 0.000000 0.587494
0.516449 0.000000 0.583893
0.593842 0.000000 0.500031
0.545502 0.000000 0.380676
0.618042 0.000000 0.366577
0.681427 0.000000 0.346252
0.735718 0.000000 0.309570
0.000000 0.208832 0.500610
0.000000 0.185638 0.574188
0.183472 0.131836 0.610535
0.508636 0.066833 0.616425
0.715820 0.010193 0.613495
0.761597 0.000000 0.526276
0.617798 0.000000 0.367523
0.681244 0.000000 0.347229
0.735687 0.000000 0.310883
0.000000 0.412109 0.535492
0.000000 0.417877 0.552856
0.010254 0.437714 0.615204
0.434601 0.420563 0.618805
0.690094 0.375122 0.621368
0.894867 0.218109 0.621124
0.916992 0.010590 0.547546
0.680908 0.000000 0.349182
0.735565 0.000000 0.313568
0.000000 0.582855 0.556580
0.000000 0.581909 0.556335
0.000000 0.623657 0.596863
0.152100 0.634399 0.616394
0.617371 0.618073 0.618378
0.855743 0.582520 0.618164
0.998199 0.491333 0.614716
0.997437 0.150665 0.565948
0.735474 0.000000 0.319092
0.000000 0.729645 0.581543
0.000000 0.729279 0.581360
0.000000 0.728577 0.581024
0.000000 0.810028 0.610809
0.417480 0.809204 0.612915
0.779205 0.792419 0.612885
0.981750 0.759644 0.608124
0.999054 0.691711 0.598602
0.999054 0.261597 0.567749
0.000000 0.859070 0.625519
0.000000 0.858917 0.625366
0.000000 0.858643 0.625092
0.000000 0.862427 0.625793
0.019440 0.966644 0.616760
0.607025 0.957031 0.609039
0.912445 0.934692 0.606354
0.999023 0.902466 0.597626
0.999054 0.856140 0.583527
0.000000 0.975189 0.694214
0.000000 0.975128 0.694092
0.000000 0.975006 0.693909
0.000000 0.974792 0.693512
0.000000 0.983856 0.695038
0.108917 0.999054 0.628815
0.741791 0.998962 0.619354
0.979187 0.995789 0.628967
0.999054 0.982880 0.632355
0.000000 0.999054 0.781494
0.000000 0.999054 0.781433
0.000000 0.999054 0.781311
0.000000 0.999054 0.781067
0.000000 0.999054 0.780548
0.000000 0.999054 0.780151
0.379700 0.999054 0.690857
0.861053 0.999054 0.704834
0.995209 0.999054 0.725006
0.000000 0.000000 0.595276
0.000000 0.000000 0.702454
0.300385 0.000000 0.727783
0.509491 0.000000 0.716248
0.590302 0.000000 0.615112
0.533417 0.000000 0.453278
0.607483 0.000000 0.442596
0.671814 0.000000 0.427521
0.728027 0.000000 0.407837
0.000000 0.010376 0.615509
0.000000 0.000000 0.729736
0.248627 0.000000 0.757294
0.516815 0.000000 0.759369
0.692047 0.000000 0.735138
0.609741 0.000000 0.519348
0.607269 0.000000 0.442780
0.671722 0.000000 0.427734
0.727997 0.000000 0.408051
0.000000 0.210663 0.624786
0.000000 0.149963 0.737061
0.120880 0.103638 0.769897
0.490051 0.059235 0.775482
0.708588 0.006042 0.773468
0.857025 0.000000 0.737640
0.638458 0.000000 0.467133
0.671539 0.000000 0.428101
0.727875 0.000000 0.408417
0.000000 0.402496 0.650940
0.000000 0.410522 0.703339
0.005524 0.409393 0.772430
0.410370 0.388763 0.777924
0.678528 0.337402 0.780457
0.886719 0.167206 0.780914
0.974243 0.004761 0.734314
0.681061 0.000000 0.435730
0.727631 0.000000 0.409210
0.000000 0.567993 0.670166
0.000000 0.567108 0.670166
0.000000 0.608246 0.749084
0.111359 0.610138 0.775574
0.604370 0.592957 0.776886
0.846924 0.555176 0.778442
0.997009 0.457245 0.779053
0.999054 0.139160 0.740295
0.727264 0.000000 0.411011
0.000000 0.715637 0.687714
0.000000 0.715240 0.687622
0.000000 0.715088 0.687958
0.000000 0.792419 0.763245
0.397858 0.788574 0.770569
0.769775 0.770569 0.770905
0.976501 0.737396 0.770142
0.999054 0.667114 0.767944
0.999054 0.246460 0.743958
0.000000 0.849426 0.716705
0.000000 0.849274 0.716614
0.000000 0.848969 0.716461
0.000000 0.855835 0.720795
0.022400 0.954315 0.762360
0.601074 0.939636 0.757568
0.902374 0.914093 0.754333
0.998962 0.881165 0.750214
0.999054 0.832855 0.746857
0.000000 0.969788 0.763916
0.000000 0.969727 0.763855
0.000000 0.969604 0.763733
0.000000 0.969360 0.763489
0.000000 0.980560 0.768585
0.110626 0.999054 0.746185
0.740997 0.997925 0.738281
0.972900 0.990021 0.744843
0.999054 0.968872 0.747955
0.000000 0.999054 0.827209
0.000000 0.999054 0.827148
0.000000 0.999054 0.827087
0.000000 0.999054 0.826904
0.000000 0.999054 0.826538
0.000000 0.999054 0.829285
0.388763 0.999054 0.762817
0.859222 0.999054 0.771759
0.993927 0.999054 0.787750
0.000000 0.000000 0.844666
0.000000 0.000000 0.888245
0.244965 0.000000 0.903595
0.508972 0.000000 0.907959
0.699158 0.000000 0.897217
0.795898 0.000000 0.812408
0.590668 0.000000 0.506439
0.655365 0.000000 0.493256
0.711945 0.000000 0.477997
0.000000 0.064819 0.839264
0.000000 0.035126 0.892853
0.189453 0.014648 0.911011
0.494141 0.004944 0.917755
0.700928 0.000000 0.913635
0.852234 0.000000 0.876862
0.621094 0.000000 0.533173
0.655273 0.000000 0.493347
0.711884 0.000000 0.478058
0.000000 0.255890 0.814636
0.000000 0.192780 0.894073
0.075104 0.126801 0.916870
0.460663 0.080902 0.925110
0.692108 0.017120 0.926331
0.877380 0.000000 0.914185
0.869904 0.000000 0.753143
0.655121 0.000000 0.493500
0.711792 0.000000 0.478210
0.000000 0.420166 0.763275
0.000000 0.420868 0.875000
0.003357 0.404236 0.918335
0.376404 0.378967 0.928589
0.659607 0.332001 0.931549
0.873108 0.207611 0.931274
0.995178 0.025208 0.912720
0.739777 0.000000 0.565674
0.711609 0.000000 0.478516
0.000000 0.562225 0.769714
0.000000 0.564789 0.779266
0.000000 0.596802 0.902283
0.101746 0.588745 0.926483
0.585114 0.571075 0.928009
0.833557 0.534302 0.929169
0.993805 0.439972 0.929688
0.999054 0.141357 0.907227
0.719849 0.000000 0.485718
0.000000 0.703064 0.785797
0.000000 0.702698 0.785736
0.000000 0.708496 0.795868
0.000000 0.772461 0.913483
0.381470 0.765533 0.922150
0.757385 0.748016 0.920197
0.969330 0.715118 0.917786
0.999054 0.645966 0.917297
0.999054 0.270325 0.899353
0.000000 0.837891 0.808380
0.000000 0.837738 0.808319
0.000000 0.837433 0.808228
0.000000 0.849365 0.820282
0.024445 0.935883 0.908020
0.593475 0.915253 0.899139
0.889160 0.889557 0.889984
0.998749 0.858856 0.884918
0.999054 0.812378 0.884186
0.000000 0.962219 0.843506
0.000000 0.962158 0.843445
0.000000 0.962036 0.843384
0.000000 0.961761 0.843231
0.000000 0.975555 0.852417
0.116119 0.998810 0.871826
0.742279 0.993622 0.857727
0.964813 0.974365 0.856567
0.999054 0.950409 0.857391
0.000000 0.999054 0.885956
0.000000 0.999054 0.885925
0.000000 0.999054 0.885864
0.000000 0.999054 0.885773
0.000000 0.999054 0.885559
0.000000 0.999054 0.891296
0.417328 0.999054 0.850677
0.859253 0.999054 0.850616
0.991058 0.998840 0.860840
0.000000 0.170135 0.995850
0.000610 0.148315 0.998901
0.182831 0.121674 0.999054
0.479095 0.087708 0.999054
0.687683 0.039062 0.999054
0.870575 0.018951 0.999023
0.965912 0.000000 0.967041
0.635223 0.000000 0.548248
0.692108 0.000000 0.534576
0.000000 0.257843 0.995697
0.000000 0.235687 0.998840
0.145233 0.214081 0.999054
0.462433 0.179779 0.999054
0.680664 0.113617 0.999054
0.870361 0.027313 0.999054
0.984619 0.000000 0.985291
0.645569 0.000000 0.557495
0.692078 0.000000 0.534607
0.000000 0.360565 0.994446
0.000000 0.343201 0.998840
0.071381 0.330383 0.999054
0.429901 0.305878 0.999054
0.667725 0.250946 0.999054
0.866425 0.131989 0.999054
0.991760 0.007385 0.998199
0.733917 0.000000 0.636017
0.692017 0.000000 0.534668
0.000000 0.480072 0.980835
0.000000 0.469574 0.998047
0.003632 0.464478 0.999054
0.342407 0.451813 0.999054
0.636688 0.421875 0.999054
0.852631 0.352631 0.999054
0.992126 0.167389 0.999054
0.998016 0.000000 0.956787
0.691925 0.000000 0.534851
0.000000 0.587494 0.884644
0.000000 0.603302 0.962891
0.000000 0.611023 0.998962
0.086884 0.608215 0.999054
0.569519 0.594147 0.999054
0.817169 0.564972 0.999054
0.985352 0.495667 0.999054
0.999054 0.268616 0.999054
0.839630 0.000000 0.681183
0.000000 0.700928 0.874329
0.000000 0.700562 0.874237
0.000000 0.723022 0.932251
0.000000 0.769867 0.999054
0.368713 0.763397 0.999054
0.745575 0.745697 0.998932
0.959229 0.715179 0.998779
0.999054 0.657135 0.998474
0.999054 0.433594 0.998962
0.000000 0.828247 0.896179
0.000000 0.828094 0.896149
0.000000 0.827789 0.896057
0.000000 0.848267 0.927429
0.024872 0.920074 0.998016
0.591522 0.894958 0.996033
0.875092 0.868408 0.992218
0.998383 0.840759 0.988983
0.999054 0.800140 0.987091
0.000000 0.952911 0.924500
0.000000 0.952850 0.924469
0.000000 0.952728 0.924408
0.000000 0.952484 0.924316
0.000000 0.966675 0.938751
0.135498 0.998322 0.988678
0.746124 0.979095 0.966370
0.953766 0.953949 0.954376
0.999023 0.933563 0.949341
0.000000 0.999054 0.952820
0.000000 0.999054 0.952820
0.000000 0.999054 0.952789
0.000000 0.999054 0.952728
0.000000 0.999054 0.952606
0.000000 0.999054 0.959930
0.475403 0.999054 0.941437
0.862427 0.998596 0.927887
0.986847 0.993988 0.929138
0.000000 0.550140 0.999054
0.049866 0.549591 0.999054
0.266632 0.547211 0.999054
0.486450 0.540436 0.999054
0.676331 0.524231 0.999054
0.858368 0.485992 0.999054
0.990967 0.390594 0.999054
0.999054 0.061707 0.998810
0.671509 0.000000 0.582703
0.000000 0.565521 0.999054
0.028015 0.565186 0.999054
0.237152 0.563049 0.999054
0.474426 0.556702 0.999054
0.670074 0.541565 0.999054
0.855255 0.508331 0.999054
0.990417 0.424133 0.999054
0.999054 0.124054 0.999054
0.671478 0.000000 0.582733
0.000000 0.592010 0.999054
0.001404 0.592041 0.999054
0.181580 0.590363 0.999054
0.451904 0.584686 0.999054
0.658875 0.570892 0.999054
0.848846 0.541992 0.999054
0.989471 0.473541 0.999054
0.999054 0.223602 0.999054
0.674133 0.000000 0.585175
0.000000 0.639923 0.999054
0.000000 0.640869 0.999054
0.076263 0.640381 0.999054
0.397827 0.636292 0.999054
0.635315 0.625336 0.999054
0.835602 0.602051 0.999054
0.986938 0.551208 0.999054
0.999054 0.403870 0.999054
0.877777 0.000000 0.800262
0.000000 0.711243 0.999054
0.000000 0.716461 0.999054
0.003265 0.718750 0.999054
0.240387 0.716919 0.999054
0.582977 0.708618 0.999054
0.806580 0.691162 0.999054
0.977570 0.657379 0.999054
0.999054 0.584564 0.999054
0.999054 0.195801 0.999054
0.000000 0.743805 0.985504
0.000000 0.773132 0.988342
0.000000 0.817535 0.999054
0.020142 0.826324 0.999054
0.454071 0.818329 0.999054
0.745697 0.800842 0.999054
0.943146 0.775146 0.999054
0.999054 0.736786 0.999054
0.999054 0.648682 0.999054
0.000000 0.830261 0.977142
0.000000 0.830109 0.977142
0.000000 0.829834 0.977081
0.000000 0.896454 0.998840
0.070526 0.933167 0.999054
0.618866 0.908173 0.999054
0.867279 0.882965 0.999054
0.996979 0.857666 0.999054
0.999054 0.827057 0.999054
0.000000 0.946411 0.993469
0.000000 0.946350 0.993469
0.000000 0.946228 0.993439
0.000000 0.945984 0.993408
0.000000 0.967987 0.995758
0.180023 0.995148 0.999054
0.760376 0.969055 0.998993
0.944885 0.944946 0.998688
0.998932 0.926361 0.998444
0.000000 0.999054 0.999054
0.000000 0.999054 0.999054
0.000000 0.999054 0.999054
0.000000 0.999054 0.999054
0.000000 0.999054 0.999054
0.000000 0.999054 0.999054
0.557465 0.999054 0.997833
0.868652 0.996094 0.990204
0.982422 0.983856 0.983948
