resources/LUTs/Exigent Films REC709 x33 (monitoring) LUTs/Exposure_-4.CUBE
#Created by: Adobe Photoshop Export Color Lookup Plugin
TITLE "exposure_-4"
#LUT size
LUT_3D_SIZE 5
#data domain
DOMAIN_MIN 0.0 0.0 0.0
DOMAIN_MAX 1.0 1.0 1.0
#LUT data points
0.012970 0.013336 0.012939
0.033051 0.011871 0.013153
0.126831 0.001465 0.010132
0.236725 0.000000 0.003357
0.345856 0.000000 0.000000
0.006409 0.030701 0.013428
0.028931 0.030426 0.011841
0.139648 0.015045 0.005585
0.274780 0.000000 0.001831
0.347229 0.000000 0.000000
0.000000 0.136200 0.000336
0.000000 0.141724 0.000000
0.138306 0.145508 0.000000
0.404724 0.061127 0.000000
0.355957 0.000000 0.000000
0.000000 0.365143 0.000000
0.000000 0.366302 0.000000
0.000000 0.416260 0.000000
0.406769 0.425110 0.000000
0.760406 0.328125 0.000000
0.000000 0.673157 0.103455
0.000000 0.673065 0.102661
0.000000 0.672516 0.099091
0.000000 0.757874 0.000000
0.712402 0.745483 0.000000
0.012390 0.011597 0.024109
0.034912 0.009094 0.026550
0.135010 0.000397 0.029053
0.253815 0.000000 0.021667
0.367676 0.000000 0.000000
0.005066 0.030121 0.027435
0.028351 0.028564 0.028351
0.146606 0.010559 0.025299
0.292236 0.000000 0.017181
0.369019 0.000000 0.000000
0.000000 0.138275 0.017120
0.000000 0.143097 0.012543
0.138794 0.146118 0.001770
0.416534 0.057800 0.000000
0.377655 0.000000 0.000275
0.000000 0.370789 0.000397
0.000000 0.372009 0.000336
0.000000 0.419769 0.000000
0.407959 0.426300 0.000000
0.772339 0.326538 0.000000
0.000000 0.674133 0.143616
0.000000 0.674011 0.143158
0.000000 0.673492 0.140930
0.000000 0.758057 0.000000
0.712616 0.745148 0.000000
0.007172 0.001556 0.088593
0.037170 0.000000 0.098022
0.161926 0.000000 0.122131
0.311523 0.000000 0.121948
0.446167 0.000000 0.087189
0.000000 0.019104 0.100922
0.018860 0.012817 0.108704
0.167542 0.000000 0.129913
0.348907 0.000000 0.130219
0.446808 0.000000 0.088684
0.000000 0.138702 0.125488
0.000000 0.141479 0.129028
0.134460 0.135437 0.135590
0.445587 0.023438 0.130066
0.455170 0.000000 0.095490
0.000000 0.380493 0.132843
0.000000 0.381836 0.131653
0.000000 0.423615 0.096588
0.407593 0.423035 0.070587
0.802063 0.315460 0.036438
0.000000 0.676025 0.236969
0.000000 0.675903 0.236694
0.000000 0.675446 0.235565
0.000000 0.757080 0.064514
0.712646 0.742889 0.021912
0.000000 0.000000 0.259888
0.006592 0.000000 0.278870
0.181335 0.000000 0.320709
0.391663 0.000000 0.320557
0.501953 0.000000 0.267212
0.000000 0.000000 0.283142
0.000000 0.000000 0.300323
0.172363 0.000000 0.339600
0.418884 0.000000 0.343018
0.501862 0.000000 0.267487
0.000000 0.093506 0.325623
0.000000 0.084198 0.340729
0.081543 0.045258 0.371979
0.467560 0.002167 0.389679
0.544037 0.000000 0.288879
0.000000 0.376801 0.355377
0.000000 0.379150 0.357880
0.000000 0.409912 0.388153
0.397522 0.398773 0.399231
0.811035 0.271271 0.396332
0.000000 0.672882 0.410675
0.000000 0.672791 0.410553
0.000000 0.672333 0.410156
0.000000 0.747742 0.394531
0.708099 0.729462 0.387177
0.000000 0.000000 0.600922
0.000000 0.000000 0.619934
0.083832 0.000000 0.652161
0.464081 0.000000 0.663147
0.512634 0.000000 0.433777
0.000000 0.000000 0.607239
0.000000 0.000000 0.626556
0.063446 0.000000 0.658813
0.464935 0.000000 0.671722
0.559021 0.000000 0.473358
0.000000 0.020905 0.619781
0.000000 0.016449 0.639404
0.000000 0.002747 0.674438
0.455505 0.000000 0.689331
0.737457 0.000000 0.627014
0.000000 0.354095 0.600433
0.000000 0.356842 0.619385
0.000000 0.362549 0.681274
0.362885 0.337219 0.697327
0.801056 0.148407 0.701477
0.000000 0.650848 0.623962
0.000000 0.650726 0.623932
0.000000 0.650269 0.623810
0.001007 0.717163 0.690338
0.694336 0.695129 0.695435
