resources/LUTs/Exigent Films REC709 x33 (monitoring) LUTs/Exposure_-4.CUBE
#Created by: Adobe Photoshop Export Color Lookup Plugin
TITLE "exposure_-4"
#LUT size
LUT_3D_SIZE 33
#data domain
DOMAIN_MIN 0.0 0.0 0.0
DOMAIN_MAX 1.0 1.0 1.0
#LUT data points
0.012970 0.013336 0.012939
0.014282 0.013306 0.013000
0.015594 0.013245 0.013062
0.017334 0.013123 0.013092
0.019165 0.013000 0.013123
0.021729 0.012787 0.013123
0.024597 0.012573 0.013153
0.028473 0.012268 0.013153
0.033051 0.011871 0.013153
0.039398 0.011292 0.013123
0.047699 0.010437 0.013000
0.057434 0.009369 0.012787
0.069916 0.007843 0.012360
0.082703 0.006256 0.011932
0.096649 0.004547 0.011383
0.110718 0.002838 0.010864
0.126831 0.001465 0.010132
0.142944 0.000061 0.009399
0.159119 0.000000 0.008545
0.175323 0.000000 0.007721
0.190338 0.000000 0.006836
0.205078 0.000000 0.005951
0.217010 0.000000 0.005219
0.227539 0.000000 0.004547
0.236725 0.000000 0.003357
0.244690 0.000000 0.001709
0.256561 0.000000 0.000458
0.274261 0.000000 0.000000
0.291321 0.000000 0.000000
0.306641 0.000000 0.000000
0.321533 0.000000 0.000000
0.333710 0.000000 0.000000
0.345856 0.000000 0.000000
0.012695 0.014404 0.013123
0.014038 0.014374 0.013153
0.015350 0.014343 0.013214
0.017120 0.014252 0.013214
0.018951 0.014130 0.013245
0.021576 0.013947 0.013214
0.024445 0.013733 0.013214
0.028381 0.013428 0.013184
0.032990 0.013062 0.013184
0.039429 0.012512 0.013092
0.047882 0.011688 0.012909
0.057709 0.010651 0.012665
0.070374 0.009094 0.012146
0.083252 0.007477 0.011688
0.097565 0.005524 0.011078
0.111664 0.003784 0.010529
0.128204 0.001831 0.009796
0.144318 0.000458 0.009064
0.161346 0.000000 0.008301
0.177582 0.000000 0.007446
0.193024 0.000000 0.006622
0.207886 0.000000 0.005768
0.220215 0.000000 0.005035
0.230957 0.000000 0.004364
0.239105 0.000000 0.003296
0.246185 0.000000 0.001770
0.257477 0.000000 0.000519
0.274353 0.000000 0.000000
0.291412 0.000000 0.000000
0.306732 0.000000 0.000000
0.321625 0.000000 0.000000
0.333801 0.000000 0.000000
0.345978 0.000000 0.000000
0.012390 0.015503 0.013306
0.013763 0.015442 0.013336
0.015137 0.015411 0.013397
0.016876 0.015320 0.013397
0.018707 0.015228 0.013397
0.021362 0.015076 0.013367
0.024292 0.014862 0.013336
0.028259 0.014587 0.013275
0.032898 0.014252 0.013214
0.039368 0.013702 0.013092
0.047943 0.012939 0.012878
0.057892 0.011902 0.012573
0.070648 0.010376 0.012024
0.083710 0.008759 0.011475
0.098114 0.006744 0.010834
0.112579 0.004791 0.010223
0.129150 0.002808 0.009491
0.145660 0.000854 0.008759
0.162689 0.000153 0.007965
0.179779 0.000000 0.007172
0.195312 0.000000 0.006378
0.210571 0.000000 0.005554
0.223022 0.000000 0.004852
0.234131 0.000000 0.004181
0.242493 0.000000 0.003113
0.248596 0.000000 0.001740
0.259003 0.000000 0.000580
0.275269 0.000000 0.000000
0.291504 0.000000 0.000000
0.306824 0.000000 0.000000
0.321747 0.000000 0.000000
0.333923 0.000000 0.000000
0.346100 0.000000 0.000000
0.011841 0.016968 0.013367
0.013275 0.016907 0.013397
0.014648 0.016876 0.013458
0.016418 0.016785 0.013458
0.018250 0.016693 0.013458
0.021027 0.016510 0.013397
0.023987 0.016327 0.013367
0.028046 0.016022 0.013275
0.032745 0.015656 0.013214
0.039398 0.015106 0.013062
0.048096 0.014282 0.012817
0.058167 0.013275 0.012451
0.071075 0.011780 0.011810
0.084259 0.010101 0.011230
0.099030 0.007874 0.010498
0.113617 0.005859 0.009857
0.130585 0.003326 0.009094
0.147125 0.001312 0.008392
0.164825 0.000214 0.007599
0.181915 0.000000 0.006805
0.198242 0.000000 0.006134
0.213593 0.000000 0.005341
0.226501 0.000000 0.004639
0.237732 0.000000 0.003998
0.245148 0.000000 0.003082
0.250580 0.000000 0.001770
0.260071 0.000000 0.000641
0.275574 0.000000 0.000000
0.291595 0.000000 0.000000
0.306946 0.000000 0.000000
0.321838 0.000000 0.000000
0.334045 0.000000 0.000000
0.346222 0.000000 0.000000
0.011292 0.018494 0.013428
0.012695 0.018433 0.013458
0.014099 0.018402 0.013489
0.015900 0.018311 0.013489
0.017731 0.018219 0.013489
0.020508 0.018036 0.013428
0.023621 0.017822 0.013367
0.027740 0.017517 0.013306
0.032562 0.017120 0.013214
0.039246 0.016541 0.013031
0.048157 0.015717 0.012756
0.058350 0.014679 0.012360
0.071411 0.013184 0.011658
0.084747 0.011536 0.010986
0.099670 0.009216 0.010223
0.114624 0.006958 0.009491
0.131683 0.004303 0.008728
0.148651 0.001770 0.007996
0.166382 0.000641 0.007233
0.184174 0.000000 0.006439
0.200500 0.000000 0.005768
0.216644 0.000000 0.005096
0.229614 0.000000 0.004425
0.241333 0.000000 0.003784
0.248840 0.000000 0.002899
0.252991 0.000000 0.001770
0.261841 0.000000 0.000702
0.276428 0.000000 0.000000
0.291687 0.000000 0.000000
0.307037 0.000000 0.000000
0.321960 0.000000 0.000000
0.334167 0.000000 0.000000
0.346344 0.000000 0.000000
0.010376 0.020813 0.013428
0.011749 0.020782 0.013428
0.013184 0.020752 0.013458
0.014893 0.020691 0.013397
0.016754 0.020599 0.013397
0.019684 0.020447 0.013306
0.022797 0.020233 0.013214
0.027069 0.019989 0.013062
0.031921 0.019623 0.012970
0.038849 0.019104 0.012726
0.047852 0.018280 0.012421
0.058380 0.017212 0.012024
0.071686 0.015686 0.011292
0.085297 0.013885 0.010559
0.100769 0.011200 0.009735
0.115906 0.008759 0.008972
0.133575 0.005066 0.008209
0.150635 0.002411 0.007446
0.169220 0.000763 0.006683
0.187042 0.000000 0.005920
0.204376 0.000000 0.005341
0.220520 0.000000 0.004669
0.234344 0.000000 0.004150
0.246124 0.000000 0.003540
0.253357 0.000000 0.002808
0.257355 0.000000 0.001770
0.263916 0.000000 0.000763
0.277008 0.000000 0.000000
0.291840 0.000000 0.000000
0.307190 0.000000 0.000000
0.322113 0.000000 0.000000
0.334320 0.000000 0.000000
0.346527 0.000000 0.000000
0.009308 0.023407 0.013397
0.010712 0.023407 0.013367
0.012085 0.023376 0.013367
0.013794 0.023346 0.013306
0.015564 0.023285 0.013275
0.018524 0.023132 0.013153
0.021851 0.022980 0.013000
0.026093 0.022736 0.012848
0.031128 0.022461 0.012634
0.038086 0.021942 0.012390
0.047424 0.021240 0.011993
0.058044 0.020172 0.011566
0.071716 0.018646 0.010864
0.085632 0.016815 0.010101
0.101562 0.013763 0.009247
0.117249 0.010956 0.008423
0.135193 0.006744 0.007629
0.152863 0.003082 0.006866
0.171631 0.001312 0.006104
0.190338 0.000000 0.005310
0.207733 0.000000 0.004761
0.224976 0.000000 0.004242
0.238800 0.000000 0.003693
0.251434 0.000000 0.003235
0.258759 0.000000 0.002533
0.262115 0.000000 0.001740
0.268494 0.000000 0.000793
0.278656 0.000000 0.000000
0.291962 0.000000 0.000000
0.307343 0.000000 0.000000
0.322296 0.000000 0.000000
0.334503 0.000000 0.000000
0.346710 0.000000 0.000000
0.007965 0.026794 0.013397
0.009308 0.026825 0.013336
0.010712 0.026794 0.013306
0.012238 0.026825 0.013214
0.014008 0.026764 0.013153
0.017090 0.026703 0.012970
0.020416 0.026550 0.012817
0.025024 0.026428 0.012512
0.030060 0.026154 0.012299
0.037323 0.025787 0.011871
0.046722 0.025085 0.011444
0.057770 0.024231 0.010925
0.071686 0.022766 0.010193
0.086121 0.020966 0.009430
0.102600 0.018036 0.008484
0.118774 0.014862 0.007599
0.137482 0.010254 0.006683
0.155426 0.006073 0.005890
0.175354 0.002106 0.005280
0.194275 0.000427 0.004517
0.212921 0.000000 0.003967
0.230225 0.000000 0.003479
0.245453 0.000000 0.003204
0.258118 0.000000 0.002747
0.266632 0.000000 0.002350
0.270081 0.000000 0.001587
0.272491 0.000000 0.000824
0.280823 0.000000 0.000000
0.292267 0.000000 0.000000
0.307556 0.000000 0.000000
0.322510 0.000000 0.000000
0.334747 0.000000 0.000000
0.346954 0.000000 0.000000
0.006409 0.030701 0.013428
0.007751 0.030762 0.013336
0.009094 0.030762 0.013245
0.010559 0.030792 0.013123
0.012115 0.030823 0.013031
0.015259 0.030762 0.012817
0.018860 0.030670 0.012543
0.023468 0.030548 0.012238
0.028931 0.030426 0.011841
0.036194 0.030090 0.011414
0.045990 0.029602 0.010803
0.057129 0.028748 0.010223
0.071655 0.027557 0.009399
0.086273 0.025879 0.008606
0.103577 0.023071 0.007568
0.120300 0.020020 0.006622
0.139648 0.015045 0.005585
0.158356 0.010468 0.004669
0.178864 0.005341 0.004150
0.199005 0.001312 0.003571
0.217987 0.000214 0.003052
0.236664 0.000000 0.002563
0.252014 0.000000 0.002319
0.266266 0.000000 0.002228
0.274780 0.000000 0.001831
0.279633 0.000000 0.001495
0.282166 0.000000 0.000763
0.283203 0.000000 0.000000
0.292847 0.000000 0.000000
0.307892 0.000000 0.000000
0.322754 0.000000 0.000000
0.335022 0.000000 0.000000
0.347229 0.000000 0.000000
0.004669 0.036560 0.013123
0.005646 0.036621 0.012970
0.006958 0.036652 0.012848
0.008057 0.036713 0.012695
0.009521 0.036743 0.012573
0.012329 0.036774 0.012299
0.015991 0.036713 0.012024
0.020966 0.036682 0.011627
0.026428 0.036560 0.011200
0.034363 0.036377 0.010590
0.044189 0.035889 0.009979
0.056213 0.035248 0.009125
0.070984 0.034088 0.008240
0.086487 0.032593 0.007385
0.104370 0.029816 0.006378
0.121948 0.026855 0.005341
0.142273 0.021729 0.004303
0.161621 0.016785 0.003265
0.183167 0.010345 0.002838
0.203888 0.005188 0.002350
0.224579 0.001007 0.002136
0.243591 0.000031 0.001648
0.260803 0.000000 0.001465
0.275146 0.000000 0.001404
0.285736 0.000000 0.001343
0.290619 0.000000 0.001038
0.290100 0.000000 0.000702
0.290497 0.000000 0.000000
0.294159 0.000000 0.000000
0.308380 0.000000 0.000000
0.323059 0.000000 0.000000
0.335327 0.000000 0.000000
0.347595 0.000000 0.000000
0.002716 0.044647 0.012421
0.003296 0.044708 0.012238
0.004272 0.044769 0.012054
0.005035 0.044861 0.011841
0.006042 0.044952 0.011658
0.008698 0.044983 0.011383
0.011932 0.045013 0.011047
0.016998 0.044983 0.010651
0.022919 0.044983 0.010162
0.030853 0.044800 0.009552
0.041626 0.044495 0.008728
0.053650 0.043823 0.007874
0.070068 0.042816 0.006592
0.085846 0.041321 0.005676
0.105286 0.038605 0.004730
0.123444 0.035675 0.003693
0.145203 0.030304 0.002625
0.165497 0.025177 0.001587
0.187988 0.017517 0.001282
0.209778 0.010925 0.000916
0.231384 0.005066 0.000885
0.252289 0.000702 0.000763
0.270050 0.000000 0.000610
0.286621 0.000000 0.000610
0.297363 0.000000 0.000580
0.304779 0.000000 0.000580
0.304260 0.000000 0.000275
0.295685 0.000000 0.000000
0.298706 0.000000 0.000000
0.309601 0.000000 0.000000
0.323456 0.000000 0.000000
0.335754 0.000000 0.000000
0.348022 0.000000 0.000000
0.001099 0.054352 0.011414
0.001495 0.054474 0.011169
0.002075 0.054565 0.010956
0.002533 0.054688 0.010681
0.003235 0.054779 0.010468
0.004883 0.054901 0.010101
0.007965 0.054932 0.009735
0.012115 0.055054 0.009155
0.018097 0.055054 0.008667
0.026093 0.055084 0.007996
0.036865 0.054779 0.007141
0.050659 0.054474 0.006378
0.067108 0.053436 0.005096
0.084900 0.052216 0.003967
0.104858 0.049591 0.003082
0.124695 0.046722 0.002167
0.147400 0.041504 0.001373
0.169159 0.036133 0.000305
0.192993 0.027924 0.000092
0.215698 0.020081 0.000000
0.238922 0.011444 0.000000
0.260773 0.005432 0.000000
0.280975 0.000397 0.000000
0.298096 0.000000 0.000000
0.311768 0.000000 0.000000
0.319366 0.000000 0.000000
0.321381 0.000000 0.000000
0.312775 0.000000 0.000000
0.303497 0.000000 0.000000
0.312927 0.000000 0.000000
0.323975 0.000000 0.000000
0.336212 0.000000 0.000000
0.348511 0.000000 0.000000
0.000214 0.067383 0.009705
0.000244 0.067535 0.009399
0.000641 0.067657 0.009155
0.000793 0.067810 0.008850
0.001190 0.067963 0.008575
0.001862 0.068146 0.008118
0.003510 0.068298 0.007660
0.007111 0.068481 0.006958
0.011597 0.068665 0.006134
0.019501 0.068726 0.005463
0.029663 0.068817 0.004547
0.043457 0.068512 0.003784
0.063293 0.068146 0.003113
0.081085 0.066925 0.001984
0.104401 0.064941 0.001465
0.124756 0.062164 0.000641
0.150116 0.057343 0.000641
0.172821 0.052094 0.000000
0.198792 0.042999 0.000000
0.222931 0.034546 0.000000
0.247864 0.022766 0.000000
0.271637 0.013123 0.000000
0.293335 0.005524 0.000000
0.313477 0.000000 0.000000
0.328125 0.000000 0.000000
0.339630 0.000000 0.000000
0.341827 0.000000 0.000000
0.335754 0.000000 0.000000
0.326477 0.000000 0.000000
0.315308 0.000000 0.000000
0.324860 0.000000 0.000000
0.336914 0.000000 0.000000
0.349152 0.000000 0.000000
0.000000 0.081177 0.007568
0.000000 0.081390 0.007294
0.000000 0.081543 0.006989
0.000000 0.081757 0.006714
0.000000 0.081940 0.006378
0.000061 0.082214 0.005981
0.000732 0.082428 0.005463
0.002594 0.082733 0.004883
0.006531 0.082977 0.003937
0.011902 0.083313 0.003204
0.021973 0.083466 0.002289
0.035156 0.083649 0.001587
0.054993 0.083282 0.000916
0.077026 0.082855 0.000397
0.100342 0.080841 0.000000
0.124146 0.078766 0.000000
0.150208 0.074158 0.000000
0.175568 0.069336 0.000000
0.202850 0.060883 0.000000
0.229126 0.051514 0.000000
0.255951 0.039520 0.000000
0.281433 0.026733 0.000000
0.305695 0.014557 0.000000
0.327332 0.006165 0.000000
0.345520 0.000000 0.000000
0.358002 0.000000 0.000000
0.365021 0.000000 0.000000
0.359131 0.000000 0.000000
0.348114 0.000000 0.000000
0.336945 0.000000 0.000000
0.326813 0.000000 0.000000
0.337830 0.000000 0.000000
0.349884 0.000000 0.000000
0.000000 0.098145 0.003632
0.000000 0.098480 0.003510
0.000000 0.098694 0.003235
0.000000 0.098999 0.003143
0.000000 0.099213 0.002899
0.000000 0.099609 0.002777
0.000000 0.099976 0.002472
0.000183 0.100433 0.002228
0.001740 0.100861 0.001862
0.005188 0.101349 0.001373
0.010010 0.101959 0.001129
0.023102 0.102264 0.000519
0.042267 0.102722 0.000427
0.064331 0.102295 0.000000
0.095245 0.101532 0.000000
0.119049 0.099457 0.000000
0.149902 0.096313 0.000000
0.175964 0.091736 0.000000
0.207062 0.085541 0.000000
0.234741 0.077026 0.000000
0.265137 0.065277 0.000000
0.292969 0.052673 0.000000
0.320435 0.035034 0.000000
0.345703 0.020447 0.000000
0.366272 0.008942 0.000000
0.383545 0.000000 0.000000
0.392426 0.000000 0.000000
0.394104 0.000000 0.000000
0.381836 0.000000 0.000000
0.353333 0.000000 0.000000
0.343201 0.000000 0.000000
0.339844 0.000000 0.000000
0.350861 0.000000 0.000000
0.000000 0.115387 0.000000
0.000000 0.115723 0.000000
0.000000 0.116058 0.000000
0.000000 0.116425 0.000000
0.000000 0.116760 0.000000
0.000000 0.117218 0.000000
0.000000 0.117706 0.000000
0.000000 0.118317 0.000000
0.000000 0.118896 0.000000
0.000549 0.119629 0.000000
0.003448 0.120392 0.000000
0.010590 0.121185 0.000000
0.029694 0.121765 0.000000
0.051208 0.122162 0.000000
0.082123 0.121399 0.000000
0.113861 0.120605 0.000000
0.144714 0.117493 0.000000
0.175568 0.114380 0.000000
0.207489 0.108490 0.000000
0.238983 0.102234 0.000000
0.270813 0.091461 0.000000
0.302246 0.079132 0.000000
0.332153 0.062042 0.000000
0.360596 0.041992 0.000000
0.385101 0.024323 0.000000
0.404755 0.010132 0.000000
0.419006 0.000000 0.000000
0.422546 0.000000 0.000000
0.418396 0.000000 0.000000
0.388672 0.000000 0.000000
0.358795 0.000000 0.000000
0.355408 0.000000 0.000000
0.352020 0.000000 0.000000
0.000000 0.136200 0.000336
0.000000 0.136902 0.000244
0.000000 0.137268 0.000153
0.000000 0.137970 0.000061
0.000000 0.138367 0.000000
0.000000 0.139130 0.000000
0.000000 0.139771 0.000000
0.000000 0.140778 0.000000
0.000000 0.141724 0.000000
0.000000 0.142731 0.000000
0.000549 0.143921 0.000000
0.003174 0.144958 0.000000
0.009735 0.146240 0.000000
0.031372 0.146881 0.000000
0.063110 0.147461 0.000000
0.094849 0.146667 0.000000
0.138306 0.145508 0.000000
0.169159 0.142395 0.000000
0.207397 0.138733 0.000000
0.239868 0.132812 0.000000
0.276093 0.125885 0.000000
0.309113 0.114960 0.000000
0.343506 0.101593 0.000000
0.374908 0.084045 0.000000
0.404724 0.061127 0.000000
0.430481 0.040955 0.000000
0.449890 0.020081 0.000000
0.463776 0.000000 0.000000
0.463196 0.000000 0.000000
0.447632 0.000000 0.000000
0.414093 0.000000 0.000000
0.359344 0.000000 0.000000
0.355957 0.000000 0.000000
0.000000 0.157043 0.000702
0.000000 0.157745 0.000610
0.000000 0.158447 0.000549
0.000000 0.159180 0.000458
0.000000 0.159912 0.000366
0.000000 0.160767 0.000275
0.000000 0.161682 0.000122
0.000000 0.162842 0.000000
0.000000 0.164215 0.000000
0.000000 0.165558 0.000000
0.000000 0.167023 0.000000
0.000275 0.168457 0.000000
0.002289 0.170044 0.000000
0.011414 0.171387 0.000000
0.043274 0.172180 0.000000
0.075836 0.172729 0.000000
0.119293 0.171570 0.000000
0.162750 0.170441 0.000000
0.200989 0.166748 0.000000
0.239746 0.163055 0.000000
0.276978 0.156464 0.000000
0.314392 0.149384 0.000000
0.350372 0.137451 0.000000
0.386230 0.123596 0.000000
0.419037 0.103149 0.000000
0.450104 0.077759 0.000000
0.475616 0.050903 0.000000
0.494690 0.019989 0.000000
0.504425 0.000000 0.000000
0.492432 0.000000 0.000000
0.473053 0.000000 0.000000
0.414642 0.000000 0.000000
0.359924 0.000000 0.000000
0.000000 0.181091 0.000153
0.000000 0.182007 0.000153
0.000000 0.182709 0.000061
0.000000 0.183685 0.000061
0.000000 0.184479 0.000000
0.000000 0.185791 0.000000
0.000000 0.186829 0.000000
0.000000 0.188446 0.000000
0.000000 0.190063 0.000000
0.000000 0.192139 0.000000
0.000000 0.194244 0.000000
0.000000 0.196320 0.000000
0.000214 0.198944 0.000000
0.002686 0.200836 0.000000
0.014252 0.203369 0.000000
0.047302 0.204193 0.000000
0.096191 0.204987 0.000000
0.139648 0.203827 0.000000
0.192963 0.202393 0.000000
0.231750 0.198700 0.000000
0.276062 0.194519 0.000000
0.314606 0.187836 0.000000
0.355530 0.179871 0.000000
0.393188 0.167480 0.000000
0.430481 0.153473 0.000000
0.464508 0.132538 0.000000
0.496399 0.106903 0.000000
0.522980 0.078644 0.000000
0.542145 0.041229 0.000000
0.551178 0.004303 0.000000
0.536774 0.003601 0.000000
0.501038 0.000000 0.000000
0.442627 0.000000 0.000000
0.000000 0.205353 0.000000
0.000000 0.206299 0.000000
0.000000 0.207214 0.000000
0.000000 0.208191 0.000000
0.000000 0.209229 0.000000
0.000000 0.210571 0.000000
0.000000 0.212097 0.000000
0.000000 0.213837 0.000000
0.000000 0.215973 0.000000
0.000000 0.218262 0.000000
0.000000 0.221130 0.000000
0.000000 0.223877 0.000000
0.000000 0.227203 0.000000
0.000641 0.230133 0.000000
0.004883 0.233307 0.000000
0.017639 0.235870 0.000000
0.067352 0.236969 0.000000
0.116241 0.237762 0.000000
0.169586 0.236328 0.000000
0.223602 0.234863 0.000000
0.267944 0.230713 0.000000
0.313660 0.226440 0.000000
0.355682 0.218872 0.000000
0.398346 0.210480 0.000000
0.437439 0.197937 0.000000
0.475952 0.183746 0.000000
0.510803 0.162598 0.000000
0.543945 0.136658 0.000000
0.570648 0.101868 0.000000
0.590179 0.046478 0.000000
0.596771 0.008850 0.000000
0.566681 0.003601 0.000000
0.530945 0.000000 0.000000
0.000000 0.232147 0.000000
0.000000 0.232971 0.000000
0.000000 0.233917 0.000000
0.000000 0.235107 0.000000
0.000000 0.236145 0.000000
0.000000 0.237885 0.000000
0.000000 0.239471 0.000000
0.000000 0.241791 0.000000
0.000000 0.244049 0.000000
0.000000 0.247070 0.000000
0.000000 0.250366 0.000000
0.000000 0.254059 0.000000
0.000000 0.258331 0.000000
0.000000 0.262146 0.000000
0.001099 0.266846 0.000000
0.005341 0.270020 0.000000
0.022095 0.272675 0.000000
0.071808 0.273804 0.000000
0.143951 0.273987 0.000000
0.197998 0.272522 0.000000
0.257874 0.270569 0.000000
0.303589 0.266296 0.000000
0.352448 0.261566 0.000000
0.396118 0.253632 0.000000
0.440247 0.245117 0.000000
0.480560 0.232391 0.000000
0.519958 0.218201 0.000000
0.556122 0.196930 0.000000
0.589386 0.171234 0.000000
0.616394 0.132080 0.000000
0.635895 0.076935 0.000000
0.638733 0.039551 0.000000
0.608643 0.034332 0.000000
0.000000 0.259583 0.000000
0.000000 0.260376 0.000000
0.000000 0.261200 0.000000
0.000000 0.262421 0.000000
0.000000 0.263641 0.000000
0.000000 0.265411 0.000000
0.000000 0.267426 0.000000
0.000000 0.269775 0.000000
0.000000 0.272644 0.000000
0.000000 0.275848 0.000000
0.000000 0.279938 0.000000
0.000000 0.284058 0.000000
0.000000 0.289398 0.000000
0.000000 0.294159 0.000000
0.000000 0.299927 0.000000
0.001129 0.304657 0.000000
0.005890 0.307861 0.000000
0.022644 0.310516 0.000000
0.097870 0.310974 0.000000
0.171814 0.311127 0.000000
0.231689 0.309174 0.000000
0.293030 0.307098 0.000000
0.341888 0.302338 0.000000
0.392273 0.297394 0.000000
0.437408 0.289307 0.000000
0.482788 0.280609 0.000000
0.524017 0.267883 0.000000
0.564697 0.253662 0.000000
0.600983 0.232666 0.000000
0.634583 0.207703 0.000000
0.661591 0.168793 0.000000
0.680847 0.115326 0.000000
0.683685 0.077972 0.000000
0.000000 0.292328 0.000000
0.000000 0.292572 0.000000
0.000000 0.293365 0.000000
0.000000 0.293671 0.000000
0.000000 0.294922 0.000000
0.000000 0.295380 0.000000
0.000000 0.297394 0.000000
0.000000 0.299072 0.000000
0.000000 0.301849 0.000000
0.000000 0.305389 0.000000
0.000000 0.309540 0.000000
0.000000 0.314575 0.000000
0.000000 0.320435 0.000000
0.000000 0.326447 0.000000
0.000000 0.333496 0.000000
0.000000 0.339355 0.000000
0.001312 0.344940 0.000000
0.006073 0.348145 0.000000
0.034760 0.350128 0.000000
0.111816 0.350525 0.000000
0.204163 0.350067 0.000000
0.265503 0.347992 0.000000
0.330231 0.345490 0.000000
0.380615 0.340546 0.000000
0.432404 0.335327 0.000000
0.478790 0.327087 0.000000
0.524719 0.318390 0.000000
0.567017 0.305634 0.000000
0.607819 0.291473 0.000000
0.644379 0.270874 0.000000
0.677887 0.246124 0.000000
0.704468 0.208771 0.000000
0.723724 0.155334 0.000000
0.000000 0.327759 0.000000
0.000000 0.327698 0.000000
0.000000 0.327942 0.000000
0.000000 0.327972 0.000000
0.000000 0.328186 0.000000
0.000000 0.328491 0.000000
0.000000 0.328613 0.000000
0.000000 0.330292 0.000000
0.000000 0.331696 0.000000
0.000000 0.335144 0.000000
0.000000 0.339478 0.000000
0.000000 0.344543 0.000000
0.000000 0.351471 0.000000
0.000000 0.358002 0.000000
0.000000 0.366547 0.000000
0.000000 0.373718 0.000000
0.000000 0.380859 0.000000
0.001312 0.386444 0.000000
0.012604 0.388947 0.000000
0.041748 0.390869 0.000000
0.139709 0.390656 0.000000
0.237274 0.390045 0.000000
0.302002 0.387543 0.000000
0.368408 0.384888 0.000000
0.420197 0.379669 0.000000
0.473206 0.374268 0.000000
0.520142 0.365997 0.000000
0.566895 0.357269 0.000000
0.609283 0.344543 0.000000
0.650269 0.330536 0.000000
0.686768 0.310181 0.000000
0.719696 0.286926 0.000000
0.746277 0.249573 0.000000
0.000000 0.365143 0.000000
0.000000 0.365112 0.000000
0.000000 0.365051 0.000000
0.000000 0.364990 0.000000
0.000000 0.364929 0.000000
0.000000 0.364868 0.000000
0.000000 0.364868 0.000000
0.000000 0.364899 0.000000
0.000000 0.366302 0.000000
0.000000 0.367004 0.000000
0.000000 0.371033 0.000000
0.000000 0.374664 0.000000
0.000000 0.380615 0.000000
0.000000 0.388336 0.000000
0.000000 0.397675 0.000000
0.000000 0.406525 0.000000
0.000000 0.416260 0.000000
0.000000 0.423401 0.000000
0.004120 0.428589 0.000000
0.015869 0.431061 0.000000
0.064941 0.432281 0.000000
0.168121 0.431915 0.000000
0.273071 0.430817 0.000000
0.339478 0.428131 0.000000
0.406769 0.425110 0.000000
0.459747 0.419708 0.000000
0.513580 0.414276 0.000000
0.561432 0.405945 0.000000
0.608276 0.397217 0.000000
0.650879 0.384644 0.000000
0.691742 0.370728 0.000000
0.727448 0.351379 0.000000
0.760406 0.328125 0.000000
0.000000 0.404266 0.000000
0.000000 0.404236 0.000000
0.000000 0.404175 0.000000
0.000000 0.404144 0.000000
0.000000 0.404083 0.000000
0.000000 0.404022 0.000000
0.000000 0.403961 0.000000
0.000000 0.403900 0.000000
0.000000 0.403870 0.000000
0.000000 0.404572 0.000000
0.000000 0.404419 0.000000
0.000000 0.407745 0.000000
0.000000 0.410004 0.000000
0.000000 0.416779 0.000000
0.000000 0.427673 0.000000
0.000000 0.437286 0.000000
0.000000 0.449982 0.000000
0.000000 0.459717 0.000000
0.000000 0.466705 0.000000
0.004120 0.471863 0.000000
0.035309 0.473633 0.000000
0.089264 0.474670 0.000000
0.200806 0.473785 0.000000
0.309937 0.472443 0.000000
0.377197 0.469421 0.000000
0.445251 0.466125 0.000000
0.499084 0.460663 0.000000
0.554138 0.455109 0.000000
0.602081 0.446838 0.000000
0.649139 0.438202 0.000000
0.691589 0.425720 0.000000
0.731445 0.412292 0.000000
0.767151 0.392944 0.000000
0.000000 0.443665 0.000000
0.000000 0.443634 0.000000
0.000000 0.443604 0.000000
0.000000 0.443542 0.000000
0.000000 0.443512 0.000000
0.000000 0.443451 0.000000
0.000000 0.443390 0.000000
0.000000 0.443329 0.000000
0.000000 0.443207 0.000000
0.000000 0.443115 0.000000
0.000000 0.442963 0.000000
0.000000 0.442810 0.000000
0.000000 0.444885 0.000000
0.000000 0.446777 0.000000
0.000000 0.455566 0.000000
0.000000 0.466583 0.000000
0.000000 0.479309 0.000000
0.000000 0.492035 0.000000
0.000000 0.503632 0.000000
0.000000 0.510590 0.000000
0.013824 0.514801 0.000000
0.049896 0.516357 0.000000
0.118835 0.516693 0.000000
0.234528 0.515564 0.000000
